%
O6650
(MACHINE)
(  VENDOR AUTODESK)
(  MODEL GENERIC 3-AXIS)
(  DESCRIPTION THIS MACHINE HAS XY AXIS ON THE TABLE AND Z AXIS ON THE HEAD)
(T3 D=50. CR=0. - ZMIN=82.75 - FACE MILL)
(T12 D=12.7 CR=0. - ZMIN=73.5 - FLAT END MILL)
G90 G94 G17 G49 G40 G80
G21
G28 G91 Z0.
G90

(RECTIFICAR CARA)
T3 M06
S2300 M03
G57
M08
G00 X108.5 Y-75.125
G43 Z100. H03
G00 Z90.
G01 Z87.75 F600.
G18 G03 X103.5 Z82.75 I-5.
G01 X76.
X0.
G17 G02 Y-49.625 J12.75
G01 X76.
G03 Y-24.125 J12.75
G01 X0.
G18 G03 X-5. Z87.75 K5.
G00 Z100.
G17
M05
G28 G91 Z0.
G90
G49

(RECTIFICAR BORDES)
M09
M01
T12 M06
S4500 M03
G57
M08
G00 X-10.545 Y-39.27
G43 Z100. H12
G00 Z90.
G01 Z86. F381.
Z74.77
G18 G02 X-9.275 Z73.5 I1.27
G17
G01 G41 X-8.005 Y-39.905 D12
G03 X-6.1 Y-38. J1.905
G01 Y-0.5 F1200.
G02 X0.5 Y6.1 I6.6
G01 X75.5
G02 X82.1 Y-0.5 J-6.6
G01 Y-75.5
G02 X75.5 Y-82.1 I-6.6
G01 X0.5
G02 X-6.1 Y-75.5 J6.6
G01 Y-38.
G03 X-8.005 Y-36.095 I-1.905
G01 G40 X-9.275 Y-36.73
G18 G03 X-10.545 Z74.77 K1.27
G00 Z100.
G17

M09
G28 G91 Z0.
G90
G49
G28 G91 X0. Y0.
G90
M30
%
