%
O6651
(MACHINE)
(  VENDOR AUTODESK)
(  MODEL GENERIC 3-AXIS)
(  DESCRIPTION THIS MACHINE HAS XY AXIS ON THE TABLE AND Z AXIS ON THE HEAD)
(T3 D=50. CR=0. - ZMIN=80. - FACE MILL)
(T4 D=3.175 CR=0. TAPER=118DEG - ZMIN=77. - CENTER DRILL)
(T5 D=5. CR=0. TAPER=118DEG - ZMIN=48.498 - DRILL)
(T7 D=10. CR=0. TAPER=118DEG - ZMIN=45.996 - DRILL)
(T12 D=12.7 CR=0. - ZMIN=50. - FLAT END MILL)
G90 G94 G17 G49 G40 G80
G21
G28 G91 Z0.
G90

(RECTIFICAR CARA)
T3 M06
S2300 M03
G57
M08
G00 X108. Y-74.625
G43 Z97.5 H03
G00 Z87.5
G01 Z85. F600.
G18 G03 X103. Z80. I-5.
G01 X75.5
X-0.5
G17 G02 Y-49.125 J12.75
G01 X75.5
G03 Y-23.625 J12.75
G01 X-0.5
G18 G03 X-5.5 Z85. K5.
G00 Z97.5
G17
M05
G28 G91 Z0.
G90
G49

(RECTIFICAR BORDES)
M09
M01
T12 M06
S4500 M03
G57
M08
G00 X38.77 Y-86.045
G43 Z97.5 H12
G00 Z87.5
G01 Z83.5 F381.
Z72.27
G19 G03 Y-84.775 Z71. J1.27
G17
G01 G41 X39.405 Y-83.505 D12
G03 X37.5 Y-81.6 I-1.905
G01 X0. F1200.
G02 X-6.6 Y-75. J6.6
G01 Y0.
G02 X0. Y6.6 I6.6
G01 X75.
G02 X81.6 Y0. J-6.6
G01 Y-75.
G02 X75. Y-81.6 I-6.6
G01 X37.5
G03 X35.595 Y-83.505 J-1.905
G01 G40 X36.23 Y-84.775
G19 G02 Y-86.045 Z72.27 K1.27
G00 Z97.5
G17
M05
G28 G91 Z0.
G90
G49

(INDEXAR CENTROS)
M09
M01
T4 M06
S2000 M03
G57
M08
G00 X62. Y-51.
G43 Z97.5 H34
G00 Z87.5
G98 G81 X62. Y-51. Z77. R85. F437.
Y-19.
G80
Z97.5
M05
G28 G91 Z0.
G90
G49

(HUECO 5MM)
M09
M01
T5 M06
S5000 M03
G57
M08
G00 X62. Y-51.
G43 Z97.5 H05
G00 Z87.5
Z85.
Z82.
G01 Z78.75 F250.
G00 Z78.85
G01 Z77.5 F250.
G00 Z77.6
G01 Z76.25 F250.
G00 Z76.35
G01 Z75. F250.
G00 Z75.1
G01 Z73.75 F250.
G00 Z73.85
G01 Z72.5 F250.
G00 Z72.6
G01 Z71.25 F250.
G00 Z71.35
G01 Z70. F250.
G00 Z70.1
G01 Z68.75 F250.
G00 Z68.85
G01 Z67.5 F250.
G00 Z67.6
G01 Z66.25 F250.
G00 Z87.5
Z68.25
G01 Z65. F250.
G00 Z65.1
G01 Z63.75 F250.
G00 Z63.85
G01 Z62.5 F250.
G00 Z62.6
G01 Z61.25 F250.
G00 Z61.35
G01 Z60. F250.
G00 Z60.1
G01 Z58.75 F250.
G00 Z58.85
G01 Z57.5 F250.
G00 Z57.6
G01 Z56.25 F250.
G00 Z56.35
G01 Z55. F250.
G00 Z55.1
G01 Z53.75 F250.
G00 Z53.85
G01 Z52.5 F250.
G00 Z87.5
Z54.5
G01 Z51.25 F250.
G00 Z51.35
G01 Z50. F250.
G00 Z50.1
G01 Z48.75 F250.
G00 Z48.85
G01 Z48.498 F250.
G00 Z87.5
Y-19.
Z85.
Z82.
G01 Z78.75 F250.
G00 Z78.85
G01 Z77.5 F250.
G00 Z77.6
G01 Z76.25 F250.
G00 Z76.35
G01 Z75. F250.
G00 Z75.1
G01 Z73.75 F250.
G00 Z73.85
G01 Z72.5 F250.
G00 Z72.6
G01 Z71.25 F250.
G00 Z71.35
G01 Z70. F250.
G00 Z70.1
G01 Z68.75 F250.
G00 Z68.85
G01 Z67.5 F250.
G00 Z67.6
G01 Z66.25 F250.
G00 Z87.5
Z68.25
G01 Z65. F250.
G00 Z65.1
G01 Z63.75 F250.
G00 Z63.85
G01 Z62.5 F250.
G00 Z62.6
G01 Z61.25 F250.
G00 Z61.35
G01 Z60. F250.
G00 Z60.1
G01 Z58.75 F250.
G00 Z58.85
G01 Z57.5 F250.
G00 Z57.6
G01 Z56.25 F250.
G00 Z56.35
G01 Z55. F250.
G00 Z55.1
G01 Z53.75 F250.
G00 Z53.85
G01 Z52.5 F250.
G00 Z87.5
Z54.5
G01 Z51.25 F250.
G00 Z51.35
G01 Z50. F250.
G00 Z50.1
G01 Z48.75 F250.
G00 Z48.85
G01 Z48.498 F250.
G00 Z87.5
Z97.5
M05
G28 G91 Z0.
G90
G49

(HUECO 10MM)
M09
M01
T7 M06
S2911 M03
G57
M08
G00 X62. Y-51.
G43 Z97.5 H37
G00 Z87.5
Z85.
Z82.
G01 Z77.5 F437.
G00 Z77.7
G01 Z75. F437.
G00 Z75.2
G01 Z72.5 F437.
G00 Z72.7
G01 Z70. F437.
G00 Z70.2
G01 Z67.5 F437.
G00 Z67.7
G01 Z65. F437.
G00 Z87.5
Z67.
G01 Z62.5 F437.
G00 Z62.7
G01 Z60. F437.
G00 Z60.2
G01 Z57.5 F437.
G00 Z57.7
G01 Z55. F437.
G00 Z55.2
G01 Z52.5 F437.
G00 Z52.7
G01 Z50. F437.
G00 Z87.5
Z52.
G01 Z47.5 F437.
G00 Z47.7
G01 Z45.996 F437.
G00 Z87.5
Y-19.
Z85.
Z82.
G01 Z77.5 F437.
G00 Z77.7
G01 Z75. F437.
G00 Z75.2
G01 Z72.5 F437.
G00 Z72.7
G01 Z70. F437.
G00 Z70.2
G01 Z67.5 F437.
G00 Z67.7
G01 Z65. F437.
G00 Z87.5
Z67.
G01 Z62.5 F437.
G00 Z62.7
G01 Z60. F437.
G00 Z60.2
G01 Z57.5 F437.
G00 Z57.7
G01 Z55. F437.
G00 Z55.2
G01 Z52.5 F437.
G00 Z52.7
G01 Z50. F437.
G00 Z87.5
Z52.
G01 Z47.5 F437.
G00 Z47.7
G01 Z45.996 F437.
G00 Z87.5
Z97.5
M05
G28 G91 Z0.
G90
G49

(RECTIFICAR HUECO)
M09
M01
T12 M06
S4500 M03
G57
M08
G00 X60.91 Y-51.655
G43 Z97.5 H12
G00 Z82.
G01 Z81.27 F381.
X60.914 Y-51.661 Z81.128
X60.928 Y-51.681 Z80.987
X60.95 Y-51.714 Z80.851
X60.98 Y-51.759 Z80.719
X61.018 Y-51.817 Z80.594
X61.064 Y-51.885 Z80.478
X61.117 Y-51.964 Z80.372
X61.176 Y-52.052 Z80.277
X61.241 Y-52.149 Z80.195
X61.31 Y-52.252 Z80.126
X61.383 Y-52.361 Z80.071
X61.459 Y-52.475 Z80.032
X61.538 Y-52.592 Z80.008
X61.617 Y-52.71 Z80.
X61.97 Y-53.238
G03 X63.732 Y-53.586 I1.055 J0.707
X60.268 Y-48.414 Z79.5 I-1.732 J2.586 F1200.
X63.732 Y-53.586 Z79. I1.732 J-2.586
X60.268 Y-48.414 Z78.5 I-1.732 J2.586
X63.732 Y-53.586 Z78. I1.732 J-2.586
X60.268 Y-48.414 Z77.5 I-1.732 J2.586
X63.732 Y-53.586 Z77. I1.732 J-2.586
X60.268 Y-48.414 Z76.5 I-1.732 J2.586
X63.732 Y-53.586 Z76. I1.732 J-2.586
X60.268 Y-48.414 Z75.5 I-1.732 J2.586
X63.732 Y-53.586 Z75. I1.732 J-2.586
X60.268 Y-48.414 Z74.5 I-1.732 J2.586
X63.732 Y-53.586 Z74. I1.732 J-2.586
X60.268 Y-48.414 Z73.5 I-1.732 J2.586
X63.732 Y-53.586 Z73. I1.732 J-2.586
X60.268 Y-48.414 Z72.5 I-1.732 J2.586
X63.732 Y-53.586 Z72. I1.732 J-2.586
X60.268 Y-48.414 Z71.5 I-1.732 J2.586
X63.732 Y-53.586 Z71. I1.732 J-2.586
X60.268 Y-48.414 Z70.5 I-1.732 J2.586
X63.732 Y-53.586 Z70. I1.732 J-2.586
X60.268 Y-48.414 Z69.5 I-1.732 J2.586
X63.732 Y-53.586 Z69. I1.732 J-2.586
X60.268 Y-48.414 Z68.5 I-1.732 J2.586
X63.732 Y-53.586 Z68. I1.732 J-2.586
X60.268 Y-48.414 Z67.5 I-1.732 J2.586
X63.732 Y-53.586 Z67. I1.732 J-2.586
X60.268 Y-48.414 Z66.5 I-1.732 J2.586
X63.732 Y-53.586 Z66. I1.732 J-2.586
X60.268 Y-48.414 Z65.5 I-1.732 J2.586
X63.732 Y-53.586 Z65. I1.732 J-2.586
X60.268 Y-48.414 Z64.5 I-1.732 J2.586
X63.732 Y-53.586 Z64. I1.732 J-2.586
X60.268 Y-48.414 Z63.5 I-1.732 J2.586
X63.732 Y-53.586 Z63. I1.732 J-2.586
X60.268 Y-48.414 Z62.5 I-1.732 J2.586
X63.732 Y-53.586 Z62. I1.732 J-2.586
X60.268 Y-48.414 Z61.5 I-1.732 J2.586
X63.732 Y-53.586 Z61. I1.732 J-2.586
X60.268 Y-48.414 Z60.5 I-1.732 J2.586
X63.732 Y-53.586 Z60. I1.732 J-2.586
X60.268 Y-48.414 Z59.5 I-1.732 J2.586
X63.732 Y-53.586 Z59. I1.732 J-2.586
X60.268 Y-48.414 Z58.5 I-1.732 J2.586
X63.732 Y-53.586 Z58. I1.732 J-2.586
X60.268 Y-48.414 Z57.5 I-1.732 J2.586
X63.732 Y-53.586 Z57. I1.732 J-2.586
X60.268 Y-48.414 Z56.5 I-1.732 J2.586
X63.732 Y-53.586 Z56. I1.732 J-2.586
X60.268 Y-48.414 Z55.5 I-1.732 J2.586
X63.732 Y-53.586 Z55. I1.732 J-2.586
X60.268 Y-48.414 Z54.5 I-1.732 J2.586
X63.732 Y-53.586 Z54. I1.732 J-2.586
X60.268 Y-48.414 Z53.5 I-1.732 J2.586
X63.732 Y-53.586 Z53. I1.732 J-2.586
X60.268 Y-48.414 Z52.5 I-1.732 J2.586
X63.732 Y-53.586 Z52. I1.732 J-2.586
X60.268 Y-48.414 Z51.5 I-1.732 J2.586
X63.732 Y-53.586 Z51. I1.732 J-2.586
X60.268 Y-48.414 I-1.732 J2.586
X63.732 Y-53.586 I1.732 J-2.586
X64.081 Y-51.824 I-0.707 J1.055
G01 X63.727 Y-51.297
X63.648 Y-51.178 Z51.008
X63.57 Y-51.062 Z51.032
X63.494 Y-50.948 Z51.071
X63.421 Y-50.839 Z51.126
X63.351 Y-50.735 Z51.195
X63.287 Y-50.639 Z51.277
X63.227 Y-50.55 Z51.372
X63.175 Y-50.472 Z51.478
X63.129 Y-50.403 Z51.594
X63.09 Y-50.346 Z51.719
X63.06 Y-50.301 Z51.851
X63.038 Y-50.268 Z51.987
X63.025 Y-50.248 Z52.128
X63.02 Y-50.241 Z52.27
G00 Z87.5
X63.09 Y-18.345
Z82.
G01 Z81.27 F381.
X63.086 Y-18.339 Z81.128
X63.072 Y-18.319 Z80.987
X63.05 Y-18.286 Z80.851
X63.02 Y-18.241 Z80.719
X62.982 Y-18.183 Z80.594
X62.936 Y-18.115 Z80.478
X62.883 Y-18.036 Z80.372
X62.824 Y-17.948 Z80.277
X62.759 Y-17.851 Z80.195
X62.69 Y-17.748 Z80.126
X62.617 Y-17.639 Z80.071
X62.541 Y-17.525 Z80.032
X62.462 Y-17.408 Z80.008
X62.383 Y-17.29 Z80.
X62.03 Y-16.762
G03 X60.268 Y-16.414 I-1.055 J-0.707
X63.732 Y-21.586 Z79.5 I1.732 J-2.586 F1200.
X60.268 Y-16.414 Z79. I-1.732 J2.586
X63.732 Y-21.586 Z78.5 I1.732 J-2.586
X60.268 Y-16.414 Z78. I-1.732 J2.586
X63.732 Y-21.586 Z77.5 I1.732 J-2.586
X60.268 Y-16.414 Z77. I-1.732 J2.586
X63.732 Y-21.586 Z76.5 I1.732 J-2.586
X60.268 Y-16.414 Z76. I-1.732 J2.586
X63.732 Y-21.586 Z75.5 I1.732 J-2.586
X60.268 Y-16.414 Z75. I-1.732 J2.586
X63.732 Y-21.586 Z74.5 I1.732 J-2.586
X60.268 Y-16.414 Z74. I-1.732 J2.586
X63.732 Y-21.586 Z73.5 I1.732 J-2.586
X60.268 Y-16.414 Z73. I-1.732 J2.586
X63.732 Y-21.586 Z72.5 I1.732 J-2.586
X60.268 Y-16.414 Z72. I-1.732 J2.586
X63.732 Y-21.586 Z71.5 I1.732 J-2.586
X60.268 Y-16.414 Z71. I-1.732 J2.586
X63.732 Y-21.586 Z70.5 I1.732 J-2.586
X60.268 Y-16.414 Z70. I-1.732 J2.586
X63.732 Y-21.586 Z69.5 I1.732 J-2.586
X60.268 Y-16.414 Z69. I-1.732 J2.586
X63.732 Y-21.586 Z68.5 I1.732 J-2.586
X60.268 Y-16.414 Z68. I-1.732 J2.586
X63.732 Y-21.586 Z67.5 I1.732 J-2.586
X60.268 Y-16.414 Z67. I-1.732 J2.586
X63.732 Y-21.586 Z66.5 I1.732 J-2.586
X60.268 Y-16.414 Z66. I-1.732 J2.586
X63.732 Y-21.586 Z65.5 I1.732 J-2.586
X60.268 Y-16.414 Z65. I-1.732 J2.586
X63.732 Y-21.586 Z64.5 I1.732 J-2.586
X60.268 Y-16.414 Z64. I-1.732 J2.586
X63.732 Y-21.586 Z63.5 I1.732 J-2.586
X60.268 Y-16.414 Z63. I-1.732 J2.586
X63.732 Y-21.586 Z62.5 I1.732 J-2.586
X60.268 Y-16.414 Z62. I-1.732 J2.586
X63.732 Y-21.586 Z61.5 I1.732 J-2.586
X60.268 Y-16.414 Z61. I-1.732 J2.586
X63.732 Y-21.586 Z60.5 I1.732 J-2.586
X60.268 Y-16.414 Z60. I-1.732 J2.586
X63.732 Y-21.586 Z59.5 I1.732 J-2.586
X60.268 Y-16.414 Z59. I-1.732 J2.586
X63.732 Y-21.586 Z58.5 I1.732 J-2.586
X60.268 Y-16.414 Z58. I-1.732 J2.586
X63.732 Y-21.586 Z57.5 I1.732 J-2.586
X60.268 Y-16.414 Z57. I-1.732 J2.586
X63.732 Y-21.586 Z56.5 I1.732 J-2.586
X60.268 Y-16.414 Z56. I-1.732 J2.586
X63.732 Y-21.586 Z55.5 I1.732 J-2.586
X60.268 Y-16.414 Z55. I-1.732 J2.586
X63.732 Y-21.586 Z54.5 I1.732 J-2.586
X60.268 Y-16.414 Z54. I-1.732 J2.586
X63.732 Y-21.586 Z53.5 I1.732 J-2.586
X60.268 Y-16.414 Z53. I-1.732 J2.586
X63.732 Y-21.586 Z52.5 I1.732 J-2.586
X60.268 Y-16.414 Z52. I-1.732 J2.586
X63.732 Y-21.586 Z51.5 I1.732 J-2.586
X60.268 Y-16.414 Z51. I-1.732 J2.586
X63.732 Y-21.586 I1.732 J-2.586
X60.268 Y-16.414 I-1.732 J2.586
X59.919 Y-18.176 I0.707 J-1.055
G01 X60.273 Y-18.703
X60.352 Y-18.822 Z51.008
X60.43 Y-18.938 Z51.032
X60.506 Y-19.052 Z51.071
X60.579 Y-19.161 Z51.126
X60.649 Y-19.265 Z51.195
X60.713 Y-19.361 Z51.277
X60.773 Y-19.45 Z51.372
X60.825 Y-19.528 Z51.478
X60.871 Y-19.597 Z51.594
X60.91 Y-19.654 Z51.719
X60.94 Y-19.699 Z51.851
X60.962 Y-19.732 Z51.987
X60.975 Y-19.752 Z52.128
X60.98 Y-19.759 Z52.27
G00 Z97.5

(RECTIFICAR HUECO FINAL)
G00 X60.966 Y-51.738
Z97.5
Z82.
G01 Z81.27 F381.
X60.97 Y-51.745 Z81.128
X60.983 Y-51.764 Z80.987
X61.005 Y-51.797 Z80.851
X61.036 Y-51.842 Z80.719
X61.074 Y-51.9 Z80.594
X61.12 Y-51.968 Z80.478
X61.173 Y-52.047 Z80.372
X61.232 Y-52.135 Z80.277
X61.296 Y-52.232 Z80.195
X61.366 Y-52.335 Z80.126
X61.439 Y-52.445 Z80.071
X61.515 Y-52.558 Z80.032
X61.593 Y-52.675 Z80.008
X61.672 Y-52.793 Z80.
X62.026 Y-53.321
G03 X63.788 Y-53.669 I1.055 J0.707
X60.212 Y-48.331 Z79.5 I-1.788 J2.669 F1200.
X63.788 Y-53.669 Z79. I1.788 J-2.669
X60.212 Y-48.331 Z78.5 I-1.788 J2.669
X63.788 Y-53.669 Z78. I1.788 J-2.669
X60.212 Y-48.331 Z77.5 I-1.788 J2.669
X63.788 Y-53.669 Z77. I1.788 J-2.669
X60.212 Y-48.331 Z76.5 I-1.788 J2.669
X63.788 Y-53.669 Z76. I1.788 J-2.669
X60.212 Y-48.331 Z75.5 I-1.788 J2.669
X63.788 Y-53.669 Z75. I1.788 J-2.669
X60.212 Y-48.331 Z74.5 I-1.788 J2.669
X63.788 Y-53.669 Z74. I1.788 J-2.669
X60.212 Y-48.331 Z73.5 I-1.788 J2.669
X63.788 Y-53.669 Z73. I1.788 J-2.669
X60.212 Y-48.331 Z72.5 I-1.788 J2.669
X63.788 Y-53.669 Z72. I1.788 J-2.669
X60.212 Y-48.331 Z71.5 I-1.788 J2.669
X63.788 Y-53.669 Z71. I1.788 J-2.669
X60.212 Y-48.331 Z70.5 I-1.788 J2.669
X63.788 Y-53.669 Z70. I1.788 J-2.669
X60.212 Y-48.331 Z69.5 I-1.788 J2.669
X63.788 Y-53.669 Z69. I1.788 J-2.669
X60.212 Y-48.331 Z68.5 I-1.788 J2.669
X63.788 Y-53.669 Z68. I1.788 J-2.669
X60.212 Y-48.331 Z67.5 I-1.788 J2.669
X63.788 Y-53.669 Z67. I1.788 J-2.669
X60.212 Y-48.331 Z66.5 I-1.788 J2.669
X63.788 Y-53.669 Z66. I1.788 J-2.669
X60.212 Y-48.331 Z65.5 I-1.788 J2.669
X63.788 Y-53.669 Z65. I1.788 J-2.669
X60.212 Y-48.331 Z64.5 I-1.788 J2.669
X63.788 Y-53.669 Z64. I1.788 J-2.669
X60.212 Y-48.331 Z63.5 I-1.788 J2.669
X63.788 Y-53.669 Z63. I1.788 J-2.669
X60.212 Y-48.331 Z62.5 I-1.788 J2.669
X63.788 Y-53.669 Z62. I1.788 J-2.669
X60.212 Y-48.331 Z61.5 I-1.788 J2.669
X63.788 Y-53.669 Z61. I1.788 J-2.669
X60.212 Y-48.331 Z60.5 I-1.788 J2.669
X63.788 Y-53.669 Z60. I1.788 J-2.669
X60.212 Y-48.331 Z59.5 I-1.788 J2.669
X63.788 Y-53.669 Z59. I1.788 J-2.669
X60.212 Y-48.331 Z58.5 I-1.788 J2.669
X63.788 Y-53.669 Z58. I1.788 J-2.669
X60.212 Y-48.331 Z57.5 I-1.788 J2.669
X63.788 Y-53.669 Z57. I1.788 J-2.669
X60.212 Y-48.331 Z56.5 I-1.788 J2.669
X63.788 Y-53.669 Z56. I1.788 J-2.669
X60.212 Y-48.331 Z55.5 I-1.788 J2.669
X63.788 Y-53.669 Z55. I1.788 J-2.669
X60.212 Y-48.331 Z54.5 I-1.788 J2.669
X63.788 Y-53.669 Z54. I1.788 J-2.669
X60.212 Y-48.331 Z53.5 I-1.788 J2.669
X63.788 Y-53.669 Z53. I1.788 J-2.669
X60.212 Y-48.331 Z52.5 I-1.788 J2.669
X63.788 Y-53.669 Z52. I1.788 J-2.669
X60.212 Y-48.331 Z51.5 I-1.788 J2.669
X63.788 Y-53.669 Z51. I1.788 J-2.669
X60.212 Y-48.331 Z50.5 I-1.788 J2.669
X63.788 Y-53.669 Z50. I1.788 J-2.669
X60.212 Y-48.331 I-1.788 J2.669
X63.788 Y-53.669 I1.788 J-2.669
X64.136 Y-51.907 I-0.707 J1.055
G01 X63.783 Y-51.38
X63.704 Y-51.261 Z50.008
X63.626 Y-51.145 Z50.032
X63.549 Y-51.031 Z50.071
X63.476 Y-50.922 Z50.126
X63.407 Y-50.818 Z50.195
X63.342 Y-50.722 Z50.277
X63.283 Y-50.633 Z50.372
X63.23 Y-50.555 Z50.478
X63.184 Y-50.486 Z50.594
X63.146 Y-50.429 Z50.719
X63.116 Y-50.384 Z50.851
X63.094 Y-50.351 Z50.987
X63.081 Y-50.331 Z51.128
X63.076 Y-50.324 Z51.27
G00 Z87.5
X63.034 Y-18.262
Z82.
G01 Z81.27 F381.
X63.03 Y-18.255 Z81.128
X63.017 Y-18.236 Z80.987
X62.995 Y-18.203 Z80.851
X62.964 Y-18.158 Z80.719
X62.926 Y-18.1 Z80.594
X62.88 Y-18.032 Z80.478
X62.827 Y-17.953 Z80.372
X62.768 Y-17.865 Z80.277
X62.704 Y-17.768 Z80.195
X62.634 Y-17.665 Z80.126
X62.561 Y-17.555 Z80.071
X62.485 Y-17.442 Z80.032
X62.407 Y-17.325 Z80.008
X62.328 Y-17.207 Z80.
X61.974 Y-16.679
G03 X60.212 Y-16.331 I-1.055 J-0.707
X63.788 Y-21.669 Z79.5 I1.788 J-2.669 F1200.
X60.212 Y-16.331 Z79. I-1.788 J2.669
X63.788 Y-21.669 Z78.5 I1.788 J-2.669
X60.212 Y-16.331 Z78. I-1.788 J2.669
X63.788 Y-21.669 Z77.5 I1.788 J-2.669
X60.212 Y-16.331 Z77. I-1.788 J2.669
X63.788 Y-21.669 Z76.5 I1.788 J-2.669
X60.212 Y-16.331 Z76. I-1.788 J2.669
X63.788 Y-21.669 Z75.5 I1.788 J-2.669
X60.212 Y-16.331 Z75. I-1.788 J2.669
X63.788 Y-21.669 Z74.5 I1.788 J-2.669
X60.212 Y-16.331 Z74. I-1.788 J2.669
X63.788 Y-21.669 Z73.5 I1.788 J-2.669
X60.212 Y-16.331 Z73. I-1.788 J2.669
X63.788 Y-21.669 Z72.5 I1.788 J-2.669
X60.212 Y-16.331 Z72. I-1.788 J2.669
X63.788 Y-21.669 Z71.5 I1.788 J-2.669
X60.212 Y-16.331 Z71. I-1.788 J2.669
X63.788 Y-21.669 Z70.5 I1.788 J-2.669
X60.212 Y-16.331 Z70. I-1.788 J2.669
X63.788 Y-21.669 Z69.5 I1.788 J-2.669
X60.212 Y-16.331 Z69. I-1.788 J2.669
X63.788 Y-21.669 Z68.5 I1.788 J-2.669
X60.212 Y-16.331 Z68. I-1.788 J2.669
X63.788 Y-21.669 Z67.5 I1.788 J-2.669
X60.212 Y-16.331 Z67. I-1.788 J2.669
X63.788 Y-21.669 Z66.5 I1.788 J-2.669
X60.212 Y-16.331 Z66. I-1.788 J2.669
X63.788 Y-21.669 Z65.5 I1.788 J-2.669
X60.212 Y-16.331 Z65. I-1.788 J2.669
X63.788 Y-21.669 Z64.5 I1.788 J-2.669
X60.212 Y-16.331 Z64. I-1.788 J2.669
X63.788 Y-21.669 Z63.5 I1.788 J-2.669
X60.212 Y-16.331 Z63. I-1.788 J2.669
X63.788 Y-21.669 Z62.5 I1.788 J-2.669
X60.212 Y-16.331 Z62. I-1.788 J2.669
X63.788 Y-21.669 Z61.5 I1.788 J-2.669
X60.212 Y-16.331 Z61. I-1.788 J2.669
X63.788 Y-21.669 Z60.5 I1.788 J-2.669
X60.212 Y-16.331 Z60. I-1.788 J2.669
X63.788 Y-21.669 Z59.5 I1.788 J-2.669
X60.212 Y-16.331 Z59. I-1.788 J2.669
X63.788 Y-21.669 Z58.5 I1.788 J-2.669
X60.212 Y-16.331 Z58. I-1.788 J2.669
X63.788 Y-21.669 Z57.5 I1.788 J-2.669
X60.212 Y-16.331 Z57. I-1.788 J2.669
X63.788 Y-21.669 Z56.5 I1.788 J-2.669
X60.212 Y-16.331 Z56. I-1.788 J2.669
X63.788 Y-21.669 Z55.5 I1.788 J-2.669
X60.212 Y-16.331 Z55. I-1.788 J2.669
X63.788 Y-21.669 Z54.5 I1.788 J-2.669
X60.212 Y-16.331 Z54. I-1.788 J2.669
X63.788 Y-21.669 Z53.5 I1.788 J-2.669
X60.212 Y-16.331 Z53. I-1.788 J2.669
X63.788 Y-21.669 Z52.5 I1.788 J-2.669
X60.212 Y-16.331 Z52. I-1.788 J2.669
X63.788 Y-21.669 Z51.5 I1.788 J-2.669
X60.212 Y-16.331 Z51. I-1.788 J2.669
X63.788 Y-21.669 Z50.5 I1.788 J-2.669
X60.212 Y-16.331 Z50. I-1.788 J2.669
X63.788 Y-21.669 I1.788 J-2.669
X60.212 Y-16.331 I-1.788 J2.669
X59.864 Y-18.093 I0.707 J-1.055
G01 X60.217 Y-18.62
X60.296 Y-18.739 Z50.008
X60.374 Y-18.855 Z50.032
X60.451 Y-18.969 Z50.071
X60.524 Y-19.078 Z50.126
X60.593 Y-19.182 Z50.195
X60.658 Y-19.278 Z50.277
X60.717 Y-19.367 Z50.372
X60.77 Y-19.445 Z50.478
X60.816 Y-19.514 Z50.594
X60.854 Y-19.571 Z50.719
X60.884 Y-19.616 Z50.851
X60.906 Y-19.649 Z50.987
X60.919 Y-19.669 Z51.128
X60.924 Y-19.676 Z51.27
G00 Z97.5

M09
G28 G91 Z0.
G90
G49
G28 G91 X0. Y0.
G90
M30
%
