%
O6652 (TACO 1)
(MACHINE)
(  VENDOR AUTODESK)
(  MODEL GENERIC 3-AXIS)
(  DESCRIPTION THIS MACHINE HAS XY AXIS ON THE TABLE AND Z AXIS ON THE HEAD)
(T3 D=50. CR=0. - ZMIN=75. - FACE MILL)
(T4 D=3.175 CR=0. TAPER=118DEG - ZMIN=72. - CENTER DRILL)
(T5 D=5. CR=0. TAPER=118DEG - ZMIN=32.998 - DRILL)
(T6 D=12. CR=0. - ZMIN=61.945 - RIGHT HAND TAP)
(T7 D=10. CR=0. TAPER=118DEG - ZMIN=34.496 - DRILL)
(T12 D=12.7 CR=0. - ZMIN=36.5 - FLAT END MILL)
G90 G94 G17 G49 G40 G80
G21
G28 G91 Z0.
G90

(RECTIFICAR CARA)
T3 M06
S2300 M03
G57
M08
G00 X108. Y-77.708
G43 Z90.5 H03
G00 Z80.5
G01 Z80. F600.
G18 G03 X103. Z75. I-5.
G01 X75.5
X-0.5
G17 G02 Y-50.792 J13.458
G01 X75.5
G03 Y-23.875 J13.458
G01 X-0.5
G18 G03 X-5.5 Z80. K5.
G00 Z90.5
G17
M05
G28 G91 Z0.
G90
G49

(INDEXAR CENTRO)
M09
M01
T4 M06
S2000 M03
G57
M08
G00 X16. Y-23.
G43 Z90.5 H34
G00 Z80.5
G98 G81 X16. Y-23. Z72. R80. F437.
X62. Y-67.
G80
Z90.5
M05
G28 G91 Z0.
G90
G49

(HUECO 5MM)
M09
M01
T5 M06
S5000 M03
G57
M08
G00 X16. Y-23.
G43 Z90.5 H05
G00 Z80.5
Z80.
Z77.
G01 Z73.75 F250.
G00 Z73.85
G01 Z72.5 F250.
G00 Z72.6
G01 Z71.25 F250.
G00 Z71.35
G01 Z70. F250.
G00 Z70.1
G01 Z68.75 F250.
G00 Z68.85
G01 Z67.5 F250.
G00 Z67.6
G01 Z66.25 F250.
G00 Z66.35
G01 Z65. F250.
G00 Z65.1
G01 Z63.75 F250.
G00 Z63.85
G01 Z62.5 F250.
G00 Z62.6
G01 Z61.25 F250.
G00 Z80.5
Z63.25
G01 Z60. F250.
G00 Z60.1
G01 Z58.75 F250.
G00 Z58.85
G01 Z57.5 F250.
G00 Z57.6
G01 Z56.25 F250.
G00 Z56.35
G01 Z55. F250.
G00 Z55.1
G01 Z53.75 F250.
G00 Z53.85
G01 Z52.5 F250.
G00 Z52.6
G01 Z51.25 F250.
G00 Z51.35
G01 Z50. F250.
G00 Z50.1
G01 Z48.75 F250.
G00 Z48.85
G01 Z47.5 F250.
G00 Z80.5
Z49.5
G01 Z46.25 F250.
G00 Z46.35
G01 Z45. F250.
G00 Z45.1
G01 Z43.75 F250.
G00 Z43.85
G01 Z42.5 F250.
G00 Z42.6
G01 Z41.25 F250.
G00 Z41.35
G01 Z40. F250.
G00 Z40.1
G01 Z38.75 F250.
G00 Z38.85
G01 Z37.5 F250.
G00 Z37.6
G01 Z36.25 F250.
G00 Z36.35
G01 Z35. F250.
G00 Z35.1
G01 Z33.75 F250.
G00 Z80.5
Z35.75
G01 Z32.998 F250.
G00 Z80.5
X62. Y-67.
Z80.
Z77.
G01 Z73.75 F250.
G00 Z73.85
G01 Z72.5 F250.
G00 Z72.6
G01 Z71.25 F250.
G00 Z71.35
G01 Z70. F250.
G00 Z70.1
G01 Z68.75 F250.
G00 Z68.85
G01 Z67.5 F250.
G00 Z67.6
G01 Z66.25 F250.
G00 Z66.35
G01 Z65. F250.
G00 Z65.1
G01 Z63.75 F250.
G00 Z63.85
G01 Z62.5 F250.
G00 Z62.6
G01 Z61.25 F250.
G00 Z80.5
Z63.25
G01 Z60. F250.
G00 Z60.1
G01 Z58.75 F250.
G00 Z58.85
G01 Z57.5 F250.
G00 Z57.6
G01 Z56.443 F250.
G00 Z80.5
Z90.5
M05
G28 G91 Z0.
G90
G49

(HUECO 10MM)
M09
M01
T7 M06
S2911 M03
G57
M08
G00 X62. Y-67.
G43 Z90.5 H37
G00 Z80.5
G73 X62. Y-67. Z57.941 R80. Q2.5 F437.
G80
X16. Y-23. Z80.5
Z80.
Z77.
G01 Z72.5 F437.
G00 Z72.7
G01 Z70. F437.
G00 Z70.2
G01 Z67.5 F437.
G00 Z67.7
G01 Z65. F437.
G00 Z65.2
G01 Z62.5 F437.
G00 Z62.7
G01 Z60. F437.
G00 Z60.2
G01 Z57.5 F437.
G00 Z57.7
G01 Z55. F437.
G00 Z55.2
G01 Z52.5 F437.
G00 Z52.7
G01 Z50. F437.
G00 Z50.2
G01 Z47.5 F437.
G00 Z80.5
Z49.5
G01 Z45. F437.
G00 Z45.2
G01 Z42.5 F437.
G00 Z42.7
G01 Z40. F437.
G00 Z40.2
G01 Z37.5 F437.
G00 Z37.7
G01 Z35. F437.
G00 Z35.2
G01 Z34.496 F437.
G00 Z80.5
Z90.5
M05
G28 G91 Z0.
G90
G49

(RECTIFICAR HUECO)
M09
M01
T12 M06
S4500 M03
G57
M08
G00 X17.777 Y-22.411
G43 Z90.5 H12
G00 Z77.
G01 Z76.27 F381.
X17.781 Y-22.404 Z76.128
X17.792 Y-22.383 Z75.987
X17.811 Y-22.349 Z75.851
X17.838 Y-22.301 Z75.719
X17.871 Y-22.241 Z75.594
X17.911 Y-22.168 Z75.478
X17.957 Y-22.085 Z75.372
X18.008 Y-21.992 Z75.277
X18.064 Y-21.891 Z75.195
X18.124 Y-21.782 Z75.126
X18.188 Y-21.667 Z75.071
X18.254 Y-21.547 Z75.032
X18.322 Y-21.424 Z75.008
X18.391 Y-21.299 Z75.
X18.698 Y-20.744
G03 X18.201 Y-19.018 I-1.112 J0.614
X13.799 Y-26.982 Z74.5 I-2.201 J-3.982 F1200.
X18.201 Y-19.018 Z74. I2.201 J3.982
X13.799 Y-26.982 Z73.5 I-2.201 J-3.982
X18.201 Y-19.018 Z73. I2.201 J3.982
X13.799 Y-26.982 Z72.5 I-2.201 J-3.982
X18.201 Y-19.018 Z72. I2.201 J3.982
X13.799 Y-26.982 Z71.5 I-2.201 J-3.982
X18.201 Y-19.018 Z71. I2.201 J3.982
X13.799 Y-26.982 Z70.5 I-2.201 J-3.982
X18.201 Y-19.018 Z70. I2.201 J3.982
X13.799 Y-26.982 Z69.5 I-2.201 J-3.982
X18.201 Y-19.018 Z69. I2.201 J3.982
X13.799 Y-26.982 Z68.5 I-2.201 J-3.982
X18.201 Y-19.018 Z68. I2.201 J3.982
X13.799 Y-26.982 Z67.5 I-2.201 J-3.982
X18.201 Y-19.018 Z67. I2.201 J3.982
X13.799 Y-26.982 Z66.5 I-2.201 J-3.982
X18.201 Y-19.018 Z66. I2.201 J3.982
X13.799 Y-26.982 Z65.5 I-2.201 J-3.982
X18.201 Y-19.018 Z65. I2.201 J3.982
X13.799 Y-26.982 Z64.5 I-2.201 J-3.982
X18.201 Y-19.018 Z64. I2.201 J3.982
X13.799 Y-26.982 Z63.5 I-2.201 J-3.982
X18.201 Y-19.018 Z63. I2.201 J3.982
X13.799 Y-26.982 Z62.5 I-2.201 J-3.982
X18.201 Y-19.018 Z62. I2.201 J3.982
X13.799 Y-26.982 Z61.5 I-2.201 J-3.982
X18.201 Y-19.018 Z61. I2.201 J3.982
X13.799 Y-26.982 Z60.5 I-2.201 J-3.982
X18.201 Y-19.018 Z60. I2.201 J3.982
X13.799 Y-26.982 Z59.5 I-2.201 J-3.982
X18.201 Y-19.018 Z59. I2.201 J3.982
X13.799 Y-26.982 Z58.5 I-2.201 J-3.982
X18.201 Y-19.018 Z58. I2.201 J3.982
X13.799 Y-26.982 Z57.5 I-2.201 J-3.982
X18.201 Y-19.018 Z57. I2.201 J3.982
X13.799 Y-26.982 Z56.5 I-2.201 J-3.982
X18.201 Y-19.018 Z56. I2.201 J3.982
X13.799 Y-26.982 Z55.5 I-2.201 J-3.982
X18.201 Y-19.018 Z55. I2.201 J3.982
X13.799 Y-26.982 Z54.5 I-2.201 J-3.982
X18.201 Y-19.018 Z54. I2.201 J3.982
X13.799 Y-26.982 Z53.5 I-2.201 J-3.982
X18.201 Y-19.018 Z53. I2.201 J3.982
X13.799 Y-26.982 Z52.5 I-2.201 J-3.982
X18.201 Y-19.018 Z52. I2.201 J3.982
X13.799 Y-26.982 Z51.5 I-2.201 J-3.982
X18.201 Y-19.018 Z51. I2.201 J3.982
X13.799 Y-26.982 Z50.5 I-2.201 J-3.982
X18.201 Y-19.018 Z50. I2.201 J3.982
X13.799 Y-26.982 Z49.5 I-2.201 J-3.982
X18.201 Y-19.018 Z49. I2.201 J3.982
X13.799 Y-26.982 Z48.5 I-2.201 J-3.982
X18.201 Y-19.018 Z48. I2.201 J3.982
X13.799 Y-26.982 Z47.5 I-2.201 J-3.982
X18.201 Y-19.018 Z47. I2.201 J3.982
X13.799 Y-26.982 Z46.5 I-2.201 J-3.982
X18.201 Y-19.018 Z46. I2.201 J3.982
X13.799 Y-26.982 Z45.5 I-2.201 J-3.982
X18.201 Y-19.018 Z45. I2.201 J3.982
X13.799 Y-26.982 Z44.5 I-2.201 J-3.982
X18.201 Y-19.018 Z44. I2.201 J3.982
X13.799 Y-26.982 Z43.5 I-2.201 J-3.982
X18.201 Y-19.018 Z43. I2.201 J3.982
X13.799 Y-26.982 Z42.5 I-2.201 J-3.982
X18.201 Y-19.018 Z42. I2.201 J3.982
X13.799 Y-26.982 Z41.5 I-2.201 J-3.982
X18.201 Y-19.018 Z41. I2.201 J3.982
X13.799 Y-26.982 Z40.5 I-2.201 J-3.982
X18.201 Y-19.018 Z40. I2.201 J3.982
X13.799 Y-26.982 Z39.5 I-2.201 J-3.982
X18.201 Y-19.018 Z39. I2.201 J3.982
X13.799 Y-26.982 Z38.5 I-2.201 J-3.982
X18.201 Y-19.018 Z38. I2.201 J3.982
X13.799 Y-26.982 Z37.5 I-2.201 J-3.982
X18.201 Y-19.018 Z37. I2.201 J3.982
X13.799 Y-26.982 Z36.5 I-2.201 J-3.982
X18.201 Y-19.018 I2.201 J3.982
X13.799 Y-26.982 I-2.201 J-3.982
X15.525 Y-26.485 I0.614 J1.112
G01 X15.832 Y-25.929
X15.901 Y-25.805 Z36.508
X15.969 Y-25.682 Z36.532
X16.035 Y-25.562 Z36.571
X16.099 Y-25.447 Z36.626
X16.159 Y-25.338 Z36.695
X16.215 Y-25.236 Z36.777
X16.266 Y-25.143 Z36.872
X16.312 Y-25.06 Z36.978
X16.352 Y-24.988 Z37.094
X16.386 Y-24.928 Z37.219
X16.412 Y-24.88 Z37.351
X16.431 Y-24.846 Z37.487
X16.442 Y-24.825 Z37.628
X16.446 Y-24.818 Z37.77
G00 Z90.5

(RECTIFICAR HUECO FINAL)
G00 X17.825 Y-22.323
Z90.5
Z77.
G01 Z76.27 F381.
X17.829 Y-22.316 Z76.128
X17.84 Y-22.296 Z75.987
X17.86 Y-22.261 Z75.851
X17.886 Y-22.213 Z75.719
X17.919 Y-22.153 Z75.594
X17.959 Y-22.081 Z75.478
X18.005 Y-21.998 Z75.372
X18.056 Y-21.905 Z75.277
X18.113 Y-21.803 Z75.195
X18.173 Y-21.694 Z75.126
X18.237 Y-21.579 Z75.071
X18.303 Y-21.459 Z75.032
X18.371 Y-21.336 Z75.008
X18.439 Y-21.212 Z75.
X18.747 Y-20.656
G03 X18.249 Y-18.93 I-1.112 J0.614
X13.751 Y-27.07 Z74.5 I-2.249 J-4.07 F1200.
X18.249 Y-18.93 Z74. I2.249 J4.07
X13.751 Y-27.07 Z73.5 I-2.249 J-4.07
X18.249 Y-18.93 Z73. I2.249 J4.07
X13.751 Y-27.07 Z72.5 I-2.249 J-4.07
X18.249 Y-18.93 Z72. I2.249 J4.07
X13.751 Y-27.07 Z71.5 I-2.249 J-4.07
X18.249 Y-18.93 Z71. I2.249 J4.07
X13.751 Y-27.07 Z70.5 I-2.249 J-4.07
X18.249 Y-18.93 Z70. I2.249 J4.07
X13.751 Y-27.07 Z69.5 I-2.249 J-4.07
X18.249 Y-18.93 Z69. I2.249 J4.07
X13.751 Y-27.07 Z68.5 I-2.249 J-4.07
X18.249 Y-18.93 Z68. I2.249 J4.07
X13.751 Y-27.07 Z67.5 I-2.249 J-4.07
X18.249 Y-18.93 Z67. I2.249 J4.07
X13.751 Y-27.07 Z66.5 I-2.249 J-4.07
X18.249 Y-18.93 Z66. I2.249 J4.07
X13.751 Y-27.07 Z65.5 I-2.249 J-4.07
X18.249 Y-18.93 Z65. I2.249 J4.07
X13.751 Y-27.07 Z64.5 I-2.249 J-4.07
X18.249 Y-18.93 Z64. I2.249 J4.07
X13.751 Y-27.07 Z63.5 I-2.249 J-4.07
X18.249 Y-18.93 Z63. I2.249 J4.07
X13.751 Y-27.07 Z62.5 I-2.249 J-4.07
X18.249 Y-18.93 Z62. I2.249 J4.07
X13.751 Y-27.07 Z61.5 I-2.249 J-4.07
X18.249 Y-18.93 Z61. I2.249 J4.07
X13.751 Y-27.07 Z60.5 I-2.249 J-4.07
X18.249 Y-18.93 Z60. I2.249 J4.07
X13.751 Y-27.07 Z59.5 I-2.249 J-4.07
X18.249 Y-18.93 Z59. I2.249 J4.07
X13.751 Y-27.07 Z58.5 I-2.249 J-4.07
X18.249 Y-18.93 Z58. I2.249 J4.07
X13.751 Y-27.07 Z57.5 I-2.249 J-4.07
X18.249 Y-18.93 Z57. I2.249 J4.07
X13.751 Y-27.07 Z56.5 I-2.249 J-4.07
X18.249 Y-18.93 Z56. I2.249 J4.07
X13.751 Y-27.07 Z55.5 I-2.249 J-4.07
X18.249 Y-18.93 Z55. I2.249 J4.07
X13.751 Y-27.07 Z54.5 I-2.249 J-4.07
X18.249 Y-18.93 Z54. I2.249 J4.07
X13.751 Y-27.07 Z53.5 I-2.249 J-4.07
X18.249 Y-18.93 Z53. I2.249 J4.07
X13.751 Y-27.07 Z52.5 I-2.249 J-4.07
X18.249 Y-18.93 Z52. I2.249 J4.07
X13.751 Y-27.07 Z51.5 I-2.249 J-4.07
X18.249 Y-18.93 Z51. I2.249 J4.07
X13.751 Y-27.07 Z50.5 I-2.249 J-4.07
X18.249 Y-18.93 Z50. I2.249 J4.07
X13.751 Y-27.07 Z49.5 I-2.249 J-4.07
X18.249 Y-18.93 Z49. I2.249 J4.07
X13.751 Y-27.07 Z48.5 I-2.249 J-4.07
X18.249 Y-18.93 Z48. I2.249 J4.07
X13.751 Y-27.07 Z47.5 I-2.249 J-4.07
X18.249 Y-18.93 Z47. I2.249 J4.07
X13.751 Y-27.07 Z46.5 I-2.249 J-4.07
X18.249 Y-18.93 Z46. I2.249 J4.07
X13.751 Y-27.07 Z45.5 I-2.249 J-4.07
X18.249 Y-18.93 Z45. I2.249 J4.07
X13.751 Y-27.07 Z44.5 I-2.249 J-4.07
X18.249 Y-18.93 Z44. I2.249 J4.07
X13.751 Y-27.07 Z43.5 I-2.249 J-4.07
X18.249 Y-18.93 Z43. I2.249 J4.07
X13.751 Y-27.07 Z42.5 I-2.249 J-4.07
X18.249 Y-18.93 Z42. I2.249 J4.07
X13.751 Y-27.07 Z41.5 I-2.249 J-4.07
X18.249 Y-18.93 Z41. I2.249 J4.07
X13.751 Y-27.07 Z40.5 I-2.249 J-4.07
X18.249 Y-18.93 Z40. I2.249 J4.07
X13.751 Y-27.07 Z39.5 I-2.249 J-4.07
X18.249 Y-18.93 Z39. I2.249 J4.07
X13.751 Y-27.07 Z38.5 I-2.249 J-4.07
X18.249 Y-18.93 Z38. I2.249 J4.07
X13.751 Y-27.07 Z37.5 I-2.249 J-4.07
X18.249 Y-18.93 I2.249 J4.07
X13.751 Y-27.07 I-2.249 J-4.07
X15.476 Y-26.573 I0.614 J1.112
G01 X15.784 Y-26.017
X15.852 Y-25.892 Z37.508
X15.92 Y-25.769 Z37.532
X15.987 Y-25.65 Z37.571
X16.05 Y-25.535 Z37.626
X16.11 Y-25.425 Z37.695
X16.167 Y-25.324 Z37.777
X16.218 Y-25.231 Z37.872
X16.264 Y-25.148 Z37.978
X16.304 Y-25.076 Z38.094
X16.337 Y-25.015 Z38.219
X16.363 Y-24.968 Z38.351
X16.383 Y-24.933 Z38.487
X16.394 Y-24.912 Z38.628
X16.398 Y-24.905 Z38.77
G00 Z90.5
M05
G28 G91 Z0.
G90
G49

(ROSCA 12MM)
M09
M01
T6 M06
S500 M03
G57
M08
G00 X62. Y-67.
G43 Z90.5 H36
G00 Z80.5
M29 S500
G84 X62. Y-67. Z61.945 R80. P0 F875.
G80
Z90.5

M09
G28 G91 Z0.
G90
G49
G28 G91 X0. Y0.
G90
M30
%
