%
O6653
(MACHINE)
(  VENDOR AUTODESK)
(  MODEL GENERIC 3-AXIS)
(  DESCRIPTION THIS MACHINE HAS XY AXIS ON THE TABLE AND Z AXIS ON THE HEAD)
(T3 D=50. CR=0. - ZMIN=75. - FACE MILL)
(T4 D=3.175 CR=0. TAPER=118DEG - ZMIN=72. - CENTER DRILL)
(T5 D=5. CR=0. TAPER=118DEG - ZMIN=34.998 - DRILL)
(T6 D=12. CR=0. - ZMIN=56.945 - RIGHT HAND TAP)
(T7 D=10. CR=0. TAPER=118DEG - ZMIN=34.496 - DRILL)
(T12 D=12.7 CR=0. - ZMIN=37.5 - FLAT END MILL)
G90 G94 G17 G49 G40 G80
G21
G28 G91 Z0.
G90

(RECTIFICAR CARA)
T3 M06
S2300 M03
G57
M08
G00 X108. Y-77.708
G43 Z90.5 H03
G00 Z80.5
G01 Z80. F600.
G18 G03 X103. Z75. I-5.
G01 X75.5
X-0.5
G17 G02 Y-50.792 J13.458
G01 X75.5
G03 Y-23.875 J13.458
G01 X-0.5
G18 G03 X-5.5 Z80. K5.
G00 Z90.5
G17
M05
G28 G91 Z0.
G90
G49

(INDEXAR CENTRO)
M09
M01
T4 M06
S2000 M03
G57
M08
G00 X59. Y-23.
G43 Z90.5 H34
G00 Z80.5
G98 G81 X59. Y-23. Z72. R80. F437.
X13. Y-67.
G80
Z90.5
M05
G28 G91 Z0.
G90
G49

(HUECO 5MM)
M09
M01
T5 M06
S5000 M03
G57
M08
G00 X59. Y-23.
G43 Z90.5 H05
G00 Z80.5
Z80.
Z77.
G01 Z73.75 F250.
G00 Z73.85
G01 Z72.5 F250.
G00 Z72.6
G01 Z71.25 F250.
G00 Z71.35
G01 Z70. F250.
G00 Z70.1
G01 Z68.75 F250.
G00 Z68.85
G01 Z67.5 F250.
G00 Z67.6
G01 Z66.25 F250.
G00 Z66.35
G01 Z65. F250.
G00 Z65.1
G01 Z63.75 F250.
G00 Z63.85
G01 Z62.5 F250.
G00 Z62.6
G01 Z61.25 F250.
G00 Z80.5
Z63.25
G01 Z60. F250.
G00 Z60.1
G01 Z58.75 F250.
G00 Z58.85
G01 Z57.5 F250.
G00 Z57.6
G01 Z56.25 F250.
G00 Z56.35
G01 Z55. F250.
G00 Z55.1
G01 Z53.75 F250.
G00 Z53.85
G01 Z52.5 F250.
G00 Z52.6
G01 Z51.25 F250.
G00 Z51.35
G01 Z50. F250.
G00 Z50.1
G01 Z48.75 F250.
G00 Z48.85
G01 Z47.5 F250.
G00 Z80.5
Z49.5
G01 Z46.25 F250.
G00 Z46.35
G01 Z45. F250.
G00 Z45.1
G01 Z43.75 F250.
G00 Z43.85
G01 Z42.5 F250.
G00 Z42.6
G01 Z41.25 F250.
G00 Z41.35
G01 Z40. F250.
G00 Z40.1
G01 Z38.75 F250.
G00 Z38.85
G01 Z37.5 F250.
G00 Z37.6
G01 Z36.25 F250.
G00 Z36.35
G01 Z35. F250.
G00 Z35.1
G01 Z34.998 F250.
G00 Z80.5
X13. Y-67.
Z80.
Z77.
G01 Z73.75 F250.
G00 Z73.85
G01 Z72.5 F250.
G00 Z72.6
G01 Z71.25 F250.
G00 Z71.35
G01 Z70. F250.
G00 Z70.1
G01 Z68.75 F250.
G00 Z68.85
G01 Z67.5 F250.
G00 Z67.6
G01 Z66.25 F250.
G00 Z66.35
G01 Z65. F250.
G00 Z65.1
G01 Z63.75 F250.
G00 Z63.85
G01 Z62.5 F250.
G00 Z62.6
G01 Z61.25 F250.
G00 Z80.5
Z63.25
G01 Z60. F250.
G00 Z60.1
G01 Z58.75 F250.
G00 Z58.85
G01 Z57.5 F250.
G00 Z57.6
G01 Z56.25 F250.
G00 Z56.35
G01 Z55. F250.
G00 Z55.1
G01 Z53.75 F250.
G00 Z53.85
G01 Z53.443 F250.
G00 Z80.5
Z90.5
M05
G28 G91 Z0.
G90
G49

(HUECO 10MM)
M09
M01
T7 M06
S2911 M03
G57
M08
G00 X13. Y-67.
G43 Z90.5 H37
G00 Z80.5
G73 X13. Y-67. Z52.941 R80. Q2.5 F437.
G80
X59. Y-23. Z80.5
Z80.
Z77.
G01 Z72.5 F437.
G00 Z72.7
G01 Z70. F437.
G00 Z70.2
G01 Z67.5 F437.
G00 Z67.7
G01 Z65. F437.
G00 Z65.2
G01 Z62.5 F437.
G00 Z62.7
G01 Z60. F437.
G00 Z60.2
G01 Z57.5 F437.
G00 Z57.7
G01 Z55. F437.
G00 Z55.2
G01 Z52.5 F437.
G00 Z52.7
G01 Z50. F437.
G00 Z50.2
G01 Z47.5 F437.
G00 Z80.5
Z49.5
G01 Z45. F437.
G00 Z45.2
G01 Z42.5 F437.
G00 Z42.7
G01 Z40. F437.
G00 Z40.2
G01 Z37.5 F437.
G00 Z37.7
G01 Z35. F437.
G00 Z35.2
G01 Z34.496 F437.
G00 Z80.5
Z90.5
M05
G28 G91 Z0.
G90
G49

(RECTIFICAR HUECO)
M09
M01
T12 M06
S4500 M03
G57
M08
G00 X57.625 Y-21.73
G43 Z90.5 H12
G00 Z77.
G01 Z76.27 F381.
G18 G03 X56.355 Z75. I-1.27
G01 X55.72
G17 G03 X54.45 Y-23. J-1.27
X63.55 Z74.5 I4.55 F1200.
X54.45 Z74. I-4.55
X63.55 Z73.5 I4.55
X54.45 Z73. I-4.55
X63.55 Z72.5 I4.55
X54.45 Z72. I-4.55
X63.55 Z71.5 I4.55
X54.45 Z71. I-4.55
X63.55 Z70.5 I4.55
X54.45 Z70. I-4.55
X63.55 Z69.5 I4.55
X54.45 Z69. I-4.55
X63.55 Z68.5 I4.55
X54.45 Z68. I-4.55
X63.55 Z67.5 I4.55
X54.45 Z67. I-4.55
X63.55 Z66.5 I4.55
X54.45 Z66. I-4.55
X63.55 Z65.5 I4.55
X54.45 Z65. I-4.55
X63.55 Z64.5 I4.55
X54.45 Z64. I-4.55
X63.55 Z63.5 I4.55
X54.45 Z63. I-4.55
X63.55 Z62.5 I4.55
X54.45 Z62. I-4.55
X63.55 Z61.5 I4.55
X54.45 Z61. I-4.55
X63.55 Z60.5 I4.55
X54.45 Z60. I-4.55
X63.55 Z59.5 I4.55
X54.45 Z59. I-4.55
X63.55 Z58.5 I4.55
X54.45 Z58. I-4.55
X63.55 Z57.5 I4.55
X54.45 Z57. I-4.55
X63.55 Z56.5 I4.55
X54.45 Z56. I-4.55
X63.55 Z55.5 I4.55
X54.45 Z55. I-4.55
X63.55 Z54.5 I4.55
X54.45 Z54. I-4.55
X63.55 Z53.5 I4.55
X54.45 Z53. I-4.55
X63.55 Z52.5 I4.55
X54.45 Z52. I-4.55
X63.55 Z51.5 I4.55
X54.45 Z51. I-4.55
X63.55 Z50.5 I4.55
X54.45 Z50. I-4.55
X63.55 Z49.5 I4.55
X54.45 Z49. I-4.55
X63.55 Z48.5 I4.55
X54.45 Z48. I-4.55
X63.55 Z47.5 I4.55
X54.45 Z47. I-4.55
X63.55 Z46.5 I4.55
X54.45 Z46. I-4.55
X63.55 Z45.5 I4.55
X54.45 Z45. I-4.55
X63.55 Z44.5 I4.55
X54.45 Z44. I-4.55
X63.55 Z43.5 I4.55
X54.45 Z43. I-4.55
X63.55 Z42.5 I4.55
X54.45 Z42. I-4.55
X63.55 Z41.5 I4.55
X54.45 Z41. I-4.55
X63.55 Z40.5 I4.55
X54.45 Z40. I-4.55
X63.55 Z39.5 I4.55
X54.45 Z39. I-4.55
X63.55 Z38.5 I4.55
X54.45 Z38. I-4.55
X63.55 Z37.5 I4.55
X54.45 I-4.55
X63.55 I4.55
X62.28 Y-21.73 I-1.27
G01 X61.645
G18 G03 X60.375 Z38.77 K1.27
G00 Z90.5
G17

(RECTIFICAR HUECO FINAL)
G00 X57.525 Y-21.73
Z90.5
Z77.
G01 Z76.27 F381.
G18 G03 X56.255 Z75. I-1.27
G01 X55.62
G17 G03 X54.35 Y-23. J-1.27
X63.65 Z74.5 I4.65 F1200.
X54.35 Z74. I-4.65
X63.65 Z73.5 I4.65
X54.35 Z73. I-4.65
X63.65 Z72.5 I4.65
X54.35 Z72. I-4.65
X63.65 Z71.5 I4.65
X54.35 Z71. I-4.65
X63.65 Z70.5 I4.65
X54.35 Z70. I-4.65
X63.65 Z69.5 I4.65
X54.35 Z69. I-4.65
X63.65 Z68.5 I4.65
X54.35 Z68. I-4.65
X63.65 Z67.5 I4.65
X54.35 Z67. I-4.65
X63.65 Z66.5 I4.65
X54.35 Z66. I-4.65
X63.65 Z65.5 I4.65
X54.35 Z65. I-4.65
X63.65 Z64.5 I4.65
X54.35 Z64. I-4.65
X63.65 Z63.5 I4.65
X54.35 Z63. I-4.65
X63.65 Z62.5 I4.65
X54.35 Z62. I-4.65
X63.65 Z61.5 I4.65
X54.35 Z61. I-4.65
X63.65 Z60.5 I4.65
X54.35 Z60. I-4.65
X63.65 Z59.5 I4.65
X54.35 Z59. I-4.65
X63.65 Z58.5 I4.65
X54.35 Z58. I-4.65
X63.65 Z57.5 I4.65
X54.35 Z57. I-4.65
X63.65 Z56.5 I4.65
X54.35 Z56. I-4.65
X63.65 Z55.5 I4.65
X54.35 Z55. I-4.65
X63.65 Z54.5 I4.65
X54.35 Z54. I-4.65
X63.65 Z53.5 I4.65
X54.35 Z53. I-4.65
X63.65 Z52.5 I4.65
X54.35 Z52. I-4.65
X63.65 Z51.5 I4.65
X54.35 Z51. I-4.65
X63.65 Z50.5 I4.65
X54.35 Z50. I-4.65
X63.65 Z49.5 I4.65
X54.35 Z49. I-4.65
X63.65 Z48.5 I4.65
X54.35 Z48. I-4.65
X63.65 Z47.5 I4.65
X54.35 Z47. I-4.65
X63.65 Z46.5 I4.65
X54.35 Z46. I-4.65
X63.65 Z45.5 I4.65
X54.35 Z45. I-4.65
X63.65 Z44.5 I4.65
X54.35 Z44. I-4.65
X63.65 Z43.5 I4.65
X54.35 Z43. I-4.65
X63.65 Z42.5 I4.65
X54.35 Z42. I-4.65
X63.65 Z41.5 I4.65
X54.35 Z41. I-4.65
X63.65 Z40.5 I4.65
X54.35 Z40. I-4.65
X63.65 Z39.5 I4.65
X54.35 Z39. I-4.65
X63.65 Z38.5 I4.65
X54.35 Z38. I-4.65
X63.65 Z37.5 I4.65
X54.35 I-4.65
X63.65 I4.65
X62.38 Y-21.73 I-1.27
G01 X61.745
G18 G03 X60.475 Z38.77 K1.27
G00 Z90.5
G17
M05
G28 G91 Z0.
G90
G49

(ROSCA 12MM)
M09
M01
T6 M06
S500 M03
G57
M08
G00 X13. Y-67.
G43 Z90.5 H36
G00 Z80.5
M29 S500
G84 X13. Y-67. Z56.945 R80. P0 F875.
G80
Z90.5

M09
G28 G91 Z0.
G90
G49
G28 G91 X0. Y0.
G90
M30
%
