%
O6655
(MACHINE)
(  VENDOR AUTODESK)
(  MODEL GENERIC 3-AXIS)
(  DESCRIPTION THIS MACHINE HAS XY AXIS ON THE TABLE AND Z AXIS ON THE HEAD)
(T3 D=50. CR=0. - ZMIN=32. - FACE MILL)
G90 G94 G17 G49 G40 G80
G21
G28 G91 Z0.
G90

(RECTIFICAR CARA)
T3 M06
S2300 M03
G57
M08
G00 X107.5 Y-77.708
G43 Z90.5 H03
G00 Z80.5
G01 Z80. F600.
G18 G03 X102.5 Z75. I-5.
G01 X75.
X0.
G17 G02 Y-50.792 J13.458
G01 X75.
G03 Y-23.875 J13.458
G01 X0.
G18 G03 X-5. Z80. K5.
G00 Z90.5
G17

(2D CONTOUR4)
S3600 M03
G00 X-28.834 Y13.
Z90.5
Z80.5
G01 Z78.5 F2000.
G18 G02 X-23.834 Z73.5 I5.
G01 X103.668
G17 G02 X98.668 Y8. I-5.
G01 X-23.668
G02 X-28.668 Y13. J5.
G01 X6.332
G18 G02 X11.332 Z78.5 K5.
G00 Z80.5
X110.486 Y-21.5
G01 Z78.5 F460.
G03 X105.486 Z73.5 I-5. F2000.
G17
G01 G41 X-32.489 D03
G03 X-24.989 Y-29. I7.5
G01 X99.99 F600.
G03 X107.49 Y-21.5 J7.5 F2000.
G01 G40 X69.99
G18 G03 X64.99 Z78.5 K5.
G00 Z80.5
X-28.834 Y13.
G01 Z76.5 F460.
G02 X-23.834 Z71.5 I5. F2000.
G01 X103.668
G17 G02 X98.668 Y8. I-5.
G01 X-23.668
G02 X-28.668 Y13. J5.
G01 X6.332
G18 G02 X11.332 Z76.5 K5.
G00 Z80.5
X110.486 Y-21.5
G01 Z76.5 F460.
G03 X105.486 Z71.5 I-5. F2000.
G17
G01 G41 X-32.489 D03
G03 X-24.989 Y-29. I7.5
G01 X99.99 F600.
G03 X107.49 Y-21.5 J7.5 F2000.
G01 G40 X69.99
G18 G03 X64.99 Z76.5 K5.
G00 Z80.5
X-28.834 Y13.
G01 Z74.5 F460.
G02 X-23.834 Z69.5 I5. F2000.
G01 X103.668
G17 G02 X98.668 Y8. I-5.
G01 X-23.668
G02 X-28.668 Y13. J5.
G01 X6.332
G18 G02 X11.332 Z74.5 K5.
G00 Z80.5
X110.486 Y-21.5
G01 Z74.5 F460.
G03 X105.486 Z69.5 I-5. F2000.
G17
G01 G41 X-32.489 D03
G03 X-24.989 Y-29. I7.5
G01 X99.99 F600.
G03 X107.49 Y-21.5 J7.5 F2000.
G01 G40 X69.99
G18 G03 X64.99 Z74.5 K5.
G00 Z80.5
X-28.834 Y13.
G01 Z72.5 F460.
G02 X-23.834 Z67.5 I5. F2000.
G01 X103.668
G17 G02 X98.668 Y8. I-5.
G01 X-23.668
G02 X-28.668 Y13. J5.
G01 X6.332
G18 G02 X11.332 Z72.5 K5.
G00 Z80.5
X110.486 Y-21.5
G01 Z72.5 F460.
G03 X105.486 Z67.5 I-5. F2000.
G17
G01 G41 X-32.489 D03
G03 X-24.989 Y-29. I7.5
G01 X99.99 F600.
G03 X107.49 Y-21.5 J7.5 F2000.
G01 G40 X69.99
G18 G03 X64.99 Z72.5 K5.
G00 Z80.5
X-28.834 Y13.
G01 Z70.5 F460.
G02 X-23.834 Z65.5 I5. F2000.
G01 X103.668
G17 G02 X98.668 Y8. I-5.
G01 X-23.668
G02 X-28.668 Y13. J5.
G01 X6.332
G18 G02 X11.332 Z70.5 K5.
G00 Z80.5
X110.486 Y-21.5
G01 Z70.5 F460.
G03 X105.486 Z65.5 I-5. F2000.
G17
G01 G41 X-32.489 D03
G03 X-24.989 Y-29. I7.5
G01 X99.99 F600.
G03 X107.49 Y-21.5 J7.5 F2000.
G01 G40 X69.99
G18 G03 X64.99 Z70.5 K5.
G00 Z80.5
X-28.834 Y13.
G01 Z68.5 F460.
G02 X-23.834 Z63.5 I5. F2000.
G01 X103.668
G17 G02 X98.668 Y8. I-5.
G01 X-23.668
G02 X-28.668 Y13. J5.
G01 X6.332
G18 G02 X11.332 Z68.5 K5.
G00 Z80.5
X110.486 Y-21.5
G01 Z68.5 F460.
G03 X105.486 Z63.5 I-5. F2000.
G17
G01 G41 X-32.489 D03
G03 X-24.989 Y-29. I7.5
G01 X99.99 F600.
G03 X107.49 Y-21.5 J7.5 F2000.
G01 G40 X69.99
G18 G03 X64.99 Z68.5 K5.
G00 Z80.5
X-28.834 Y13.
G01 Z66.5 F460.
G02 X-23.834 Z61.5 I5. F2000.
G01 X103.668
G17 G02 X98.668 Y8. I-5.
G01 X-23.668
G02 X-28.668 Y13. J5.
G01 X6.332
G18 G02 X11.332 Z66.5 K5.
G00 Z80.5
X110.486 Y-21.5
G01 Z66.5 F460.
G03 X105.486 Z61.5 I-5. F2000.
G17
G01 G41 X-32.489 D03
G03 X-24.989 Y-29. I7.5
G01 X99.99 F600.
G03 X107.49 Y-21.5 J7.5 F2000.
G01 G40 X69.99
G18 G03 X64.99 Z66.5 K5.
G00 Z80.5
X-28.834 Y13.
G01 Z64.5 F460.
G02 X-23.834 Z59.5 I5. F2000.
G01 X103.668
G17 G02 X98.668 Y8. I-5.
G01 X-23.668
G02 X-28.668 Y13. J5.
G01 X6.332
G18 G02 X11.332 Z64.5 K5.
G00 Z80.5
X110.486 Y-21.5
G01 Z64.5 F460.
G03 X105.486 Z59.5 I-5. F2000.
G17
G01 G41 X-32.489 D03
G03 X-24.989 Y-29. I7.5
G01 X99.99 F600.
G03 X107.49 Y-21.5 J7.5 F2000.
G01 G40 X69.99
G18 G03 X64.99 Z64.5 K5.
G00 Z80.5
X-28.834 Y13.
G01 Z62.5 F460.
G02 X-23.834 Z57.5 I5. F2000.
G01 X103.668
G17 G02 X98.668 Y8. I-5.
G01 X-23.668
G02 X-28.668 Y13. J5.
G01 X6.332
G18 G02 X11.332 Z62.5 K5.
G00 Z80.5
X110.486 Y-21.5
G01 Z62.5 F460.
G03 X105.486 Z57.5 I-5. F2000.
G17
G01 G41 X-32.489 D03
G03 X-24.989 Y-29. I7.5
G01 X99.99 F600.
G03 X107.49 Y-21.5 J7.5 F2000.
G01 G40 X69.99
G18 G03 X64.99 Z62.5 K5.
G00 Z80.5
X-28.834 Y13.
G01 Z60.5 F460.
G02 X-23.834 Z55.5 I5. F2000.
G01 X103.668
G17 G02 X98.668 Y8. I-5.
G01 X-23.668
G02 X-28.668 Y13. J5.
G01 X6.332
G18 G02 X11.332 Z60.5 K5.
G00 Z80.5
X110.486 Y-21.5
G01 Z60.5 F460.
G03 X105.486 Z55.5 I-5. F2000.
G17
G01 G41 X-32.489 D03
G03 X-24.989 Y-29. I7.5
G01 X99.99 F600.
G03 X107.49 Y-21.5 J7.5 F2000.
G01 G40 X69.99
G18 G03 X64.99 Z60.5 K5.
G00 Z80.5
X-28.834 Y13.
G01 Z58.5 F460.
G02 X-23.834 Z53.5 I5. F2000.
G01 X103.668
G17 G02 X98.668 Y8. I-5.
G01 X-23.668
G02 X-28.668 Y13. J5.
G01 X6.332
G18 G02 X11.332 Z58.5 K5.
G00 Z80.5
X110.486 Y-21.5
G01 Z58.5 F460.
G03 X105.486 Z53.5 I-5. F2000.
G17
G01 G41 X-32.489 D03
G03 X-24.989 Y-29. I7.5
G01 X99.99 F600.
G03 X107.49 Y-21.5 J7.5 F2000.
G01 G40 X69.99
G18 G03 X64.99 Z58.5 K5.
G00 Z80.5
X-28.834 Y13.
G01 Z56.5 F460.
G02 X-23.834 Z51.5 I5. F2000.
G01 X103.668
G17 G02 X98.668 Y8. I-5.
G01 X-23.668
G02 X-28.668 Y13. J5.
G01 X6.332
G18 G02 X11.332 Z56.5 K5.
G00 Z80.5
X110.486 Y-21.5
G01 Z56.5 F460.
G03 X105.486 Z51.5 I-5. F2000.
G17
G01 G41 X-32.489 D03
G03 X-24.989 Y-29. I7.5
G01 X99.99 F600.
G03 X107.49 Y-21.5 J7.5 F2000.
G01 G40 X69.99
G18 G03 X64.99 Z56.5 K5.
G00 Z80.5
X-28.834 Y13.
G01 Z54.5 F460.
G02 X-23.834 Z49.5 I5. F2000.
G01 X103.668
G17 G02 X98.668 Y8. I-5.
G01 X-23.668
G02 X-28.668 Y13. J5.
G01 X6.332
G18 G02 X11.332 Z54.5 K5.
G00 Z80.5
X110.486 Y-21.5
G01 Z54.5 F460.
G03 X105.486 Z49.5 I-5. F2000.
G17
G01 G41 X-32.489 D03
G03 X-24.989 Y-29. I7.5
G01 X99.99 F600.
G03 X107.49 Y-21.5 J7.5 F2000.
G01 G40 X69.99
G18 G03 X64.99 Z54.5 K5.
G00 Z80.5
X-28.834 Y13.
G01 Z52.5 F460.
G02 X-23.834 Z47.5 I5. F2000.
G01 X103.668
G17 G02 X98.668 Y8. I-5.
G01 X-23.668
G02 X-28.668 Y13. J5.
G01 X6.332
G18 G02 X11.332 Z52.5 K5.
G00 Z80.5
X110.486 Y-21.5
G01 Z52.5 F460.
G03 X105.486 Z47.5 I-5. F2000.
G17
G01 G41 X-32.489 D03
G03 X-24.989 Y-29. I7.5
G01 X99.99 F600.
G03 X107.49 Y-21.5 J7.5 F2000.
G01 G40 X69.99
G18 G03 X64.99 Z52.5 K5.
G00 Z80.5
X-28.834 Y13.
G01 Z50.5 F460.
G02 X-23.834 Z45.5 I5. F2000.
G01 X103.668
G17 G02 X98.668 Y8. I-5.
G01 X-23.668
G02 X-28.668 Y13. J5.
G01 X6.332
G18 G02 X11.332 Z50.5 K5.
G00 Z80.5
X110.486 Y-21.5
G01 Z50.5 F460.
G03 X105.486 Z45.5 I-5. F2000.
G17
G01 G41 X-32.489 D03
G03 X-24.989 Y-29. I7.5
G01 X99.99 F600.
G03 X107.49 Y-21.5 J7.5 F2000.
G01 G40 X69.99
G18 G03 X64.99 Z50.5 K5.
G00 Z80.5
X-28.834 Y13.
G01 Z48.5 F460.
G02 X-23.834 Z43.5 I5. F2000.
G01 X103.668
G17 G02 X98.668 Y8. I-5.
G01 X-23.668
G02 X-28.668 Y13. J5.
G01 X6.332
G18 G02 X11.332 Z48.5 K5.
G00 Z80.5
X110.486 Y-21.5
G01 Z48.5 F460.
G03 X105.486 Z43.5 I-5. F2000.
G17
G01 G41 X-32.489 D03
G03 X-24.989 Y-29. I7.5
G01 X99.99 F600.
G03 X107.49 Y-21.5 J7.5 F2000.
G01 G40 X69.99
G18 G03 X64.99 Z48.5 K5.
G00 Z80.5
X-28.834 Y13.
G01 Z46.5 F460.
G02 X-23.834 Z41.5 I5. F2000.
G01 X103.668
G17 G02 X98.668 Y8. I-5.
G01 X-23.668
G02 X-28.668 Y13. J5.
G01 X6.332
G18 G02 X11.332 Z46.5 K5.
G00 Z80.5
X110.486 Y-21.5
G01 Z46.5 F460.
G03 X105.486 Z41.5 I-5. F2000.
G17
G01 G41 X-32.489 D03
G03 X-24.989 Y-29. I7.5
G01 X99.99 F600.
G03 X107.49 Y-21.5 J7.5 F2000.
G01 G40 X69.99
G18 G03 X64.99 Z46.5 K5.
G00 Z80.5
X-28.834 Y13.
G01 Z44.5 F460.
G02 X-23.834 Z39.5 I5. F2000.
G01 X103.668
G17 G02 X98.668 Y8. I-5.
G01 X-23.668
G02 X-28.668 Y13. J5.
G01 X6.332
G18 G02 X11.332 Z44.5 K5.
G00 Z80.5
X110.486 Y-21.5
G01 Z44.5 F460.
G03 X105.486 Z39.5 I-5. F2000.
G17
G01 G41 X-32.489 D03
G03 X-24.989 Y-29. I7.5
G01 X99.99 F600.
G03 X107.49 Y-21.5 J7.5 F2000.
G01 G40 X69.99
G18 G03 X64.99 Z44.5 K5.
G00 Z80.5
X-28.834 Y13.
G01 Z42.5 F460.
G02 X-23.834 Z37.5 I5. F2000.
G01 X103.668
G17 G02 X98.668 Y8. I-5.
G01 X-23.668
G02 X-28.668 Y13. J5.
G01 X6.332
G18 G02 X11.332 Z42.5 K5.
G00 Z80.5
X110.486 Y-21.5
G01 Z42.5 F460.
G03 X105.486 Z37.5 I-5. F2000.
G17
G01 G41 X-32.489 D03
G03 X-24.989 Y-29. I7.5
G01 X99.99 F600.
G03 X107.49 Y-21.5 J7.5 F2000.
G01 G40 X69.99
G18 G03 X64.99 Z42.5 K5.
G00 Z80.5
X-28.834 Y13.
G01 Z40.5 F460.
G02 X-23.834 Z35.5 I5. F2000.
G01 X103.668
G17 G02 X98.668 Y8. I-5.
G01 X-23.668
G02 X-28.668 Y13. J5.
G01 X6.332
G18 G02 X11.332 Z40.5 K5.
G00 Z80.5
X110.486 Y-21.5
G01 Z40.5 F460.
G03 X105.486 Z35.5 I-5. F2000.
G17
G01 G41 X-32.489 D03
G03 X-24.989 Y-29. I7.5
G01 X99.99 F600.
G03 X107.49 Y-21.5 J7.5 F2000.
G01 G40 X69.99
G18 G03 X64.99 Z40.5 K5.
G00 Z80.5
X-28.834 Y13.
G01 Z38.5 F460.
G02 X-23.834 Z33.5 I5. F2000.
G01 X103.668
G17 G02 X98.668 Y8. I-5.
G01 X-23.668
G02 X-28.668 Y13. J5.
G01 X6.332
G18 G02 X11.332 Z38.5 K5.
G00 Z80.5
X110.486 Y-21.5
G01 Z38.5 F460.
G03 X105.486 Z33.5 I-5. F2000.
G17
G01 G41 X-32.489 D03
G03 X-24.989 Y-29. I7.5
G01 X99.99 F600.
G03 X107.49 Y-21.5 J7.5 F2000.
G01 G40 X69.99
G18 G03 X64.99 Z38.5 K5.
G00 Z80.5
X-28.834 Y13.
G01 Z37.5 F460.
G02 X-23.834 Z32.5 I5. F2000.
G01 X103.668
G17 G02 X98.668 Y8. I-5.
G01 X-23.668
G02 X-28.668 Y13. J5.
G01 X6.332
G18 G02 X11.332 Z37.5 K5.
G00 Z80.5
X110.486 Y-21.5
G01 Z37.5 F460.
G03 X105.486 Z32.5 I-5. F2000.
G17
G01 G41 X-32.489 D03
G03 X-24.989 Y-29. I7.5
G01 X99.99 F600.
G03 X107.49 Y-21.5 J7.5 F2000.
G01 G40 X69.99
G18 G03 X64.99 Z37.5 K5.
G00 Z80.5
X-28.834 Y13.
G01 Z37. F460.
G02 X-23.834 Z32. I5. F2000.
G01 X103.668
G17 G02 X98.668 Y8. I-5.
G01 X-23.668
G02 X-28.668 Y13. J5.
G01 X6.332
G18 G02 X11.332 Z37. K5.
G00 Z80.5
X110.486 Y-21.5
G01 Z37. F460.
G03 X105.486 Z32. I-5. F2000.
G17
G01 G41 X-32.489 D03
G03 X-24.989 Y-29. I7.5
G01 X99.99 F600.
G03 X107.49 Y-21.5 J7.5 F2000.
G01 G40 X69.99
G18 G03 X64.99 Z37. K5.
G00 Z90.5
G17

M09
G28 G91 Z0.
G90
G49
G28 G91 X0. Y0.
G90
M30
%
