%
O6656
(MACHINE)
(  VENDOR AUTODESK)
(  MODEL GENERIC 3-AXIS)
(  DESCRIPTION THIS MACHINE HAS XY AXIS ON THE TABLE AND Z AXIS ON THE HEAD)
(T3 D=50. CR=0. - ZMIN=80. - FACE MILL)
(T4 D=3.175 CR=0. TAPER=118DEG - ZMIN=77. - CENTER DRILL)
(T5 D=5. CR=0. TAPER=118DEG - ZMIN=62.125 - DRILL)
(T6 D=12. CR=0. - ZMIN=64.627 - RIGHT HAND TAP)
(T7 D=10. CR=0. TAPER=118DEG - ZMIN=60.623 - DRILL)
(T11 D=10. CR=5. - ZMIN=68.75 - BALL END MILL)
(T13 D=0.127 CR=0. TAPER=45DEG - ZMIN=68.5 - TAPERED MILL)
(T14 D=6.35 CR=0. - ZMIN=42. - FLAT END MILL)
G90 G94 G17 G49 G40 G80
G21
G28 G91 Z0.
G90

(RECTIFICAR CARA)
T3 M06
S3000 M03
G57
M08
G00 X16. Y32.5
G43 Z95.25 H03
G00 Z85.25
G01 Z85. F600.
G19 G02 Y27.5 Z80. J-5.
G01 Y0.
Y-75.
G02 Y-80. Z85. K5.
G00 Z95.25
G17
M05
G28 G91 Z0.
G90
G49

(INDEXAR CENTROS)
M09
M01
T4 M06
S2000 M03
G57
M08
G00 X16. Y-12.
G43 Z95.25 H34
G00 Z85.25
G98 G81 X16. Y-12. Z77. R85. F250.
Y-63.
G80
Z95.25
M05
G28 G91 Z0.
G90
G49

(HUECO 5MM)
M09
M01
T5 M06
S5000 M03
G57
M08
G00 X16. Y-63.
G43 Z95.25 H05
G00 Z85.25
G81 X16. Y-63. Z62.125 R85. F250.
Y-12.
G80
Z95.25
M05
G28 G91 Z0.
G90
G49

(HUECO 10MM)
M09
M01
T7 M06
S5000 M03
G57
M08
G00 X16. Y-12.
G43 Z95.25 H37
G00 Z85.25
G73 X16. Y-12. Z60.623 R85. Q2.5 F250.
Y-63.
G80
Z95.25
M05
G28 G91 Z0.
G90
G49

(ROSCA 12MM)
M09
M01
T6 M06
S500 M03
G57
M08
G00 X16. Y-12.
G43 Z95.25 H36
G00 Z85.25
M29 S500
G84 X16. Y-12. Z64.627 R85. P0 F875.
Y-63.
G80
Z95.25
M05
G28 G91 Z0.
G90
G49

(REMOVER MATERIAL V)
M09
M01
T11 M06
S6600 M03
G57
M08
G00 X-2.219 Y-47.197
G43 Z95.25 H41
G00 Z80.056
G01 Z79.25 F1070.
G03 X-0.998 Y-48.584 I0.898 J-0.441
G01 X-0.993 Y-48.582
X-0.987 Y-48.58
X-0.973 Y-48.575
X-0.946 Y-48.567
X-0.892 Y-48.55
X-0.785 Y-48.519
X-0.568 Y-48.471
X-0.352 Y-48.438
X-0.135 Y-48.421
X0.082 Y-48.418
X31.918
X32.135 Y-48.421
X32.352 Y-48.438
X32.568 Y-48.471
X32.785 Y-48.519
X32.892 Y-48.55
X32.946 Y-48.567
X32.973 Y-48.575
X32.987 Y-48.58
X32.997 Y-48.583
X32.998 Y-48.584
G03 X34.322 Y-47.638 I0.324 J0.946
G01 X34.321 Y-27.362
G03 X32.998 Y-26.416 I-1.
G01 X32.993 Y-26.418
X32.987 Y-26.42
X32.973 Y-26.425
X32.946 Y-26.433
X32.892 Y-26.45
X32.785 Y-26.481
X32.568 Y-26.529
X32.352 Y-26.562
X32.135 Y-26.579
X31.918 Y-26.582
X0.082
X-0.135 Y-26.579
X-0.352 Y-26.562
X-0.568 Y-26.529
X-0.785 Y-26.481
X-0.892 Y-26.45
X-0.946 Y-26.433
X-0.973 Y-26.425
X-0.987 Y-26.42
X-0.997 Y-26.417
X-0.998 Y-26.416
G03 X-2.322 Y-27.341 I-0.324 J-0.946
G01 X-2.715 Y-45.988
G03 X-2.672 Y-46.342 I1.25 J-0.026
X-1.063 Y-47.197 I1.206 J0.328 F3206.
G01 X-1.03 Y-47.186 Z79.249
G03 X-1.901 Y-44.842 Z79.112 I-0.435 J1.172
X-1.03 Y-47.186 Z78.975 I0.435 J-1.172
X-1.901 Y-44.842 Z78.838 I-0.435 J1.172
X-1.03 Y-47.186 Z78.701 I0.435 J-1.172
X-1.901 Y-44.842 Z78.564 I-0.435 J1.172
X-2.68 Y-46.309 Z78.501 I0.435 J-1.172
G01 X-2.672 Y-46.342 Z78.5
X-2.539 Y-46.83 F1070.
G03 X-0.998 Y-47.711 I1.211 J0.33
G01 X-0.987 Y-47.708
X-0.973 Y-47.704
X-0.946 Y-47.697
X-0.892 Y-47.683
X-0.785 Y-47.659
X-0.568 Y-47.619
X-0.352 Y-47.592
X-0.135 Y-47.578
X0.082 Y-47.575
X31.918
X32.135 Y-47.578
X32.352 Y-47.592
X32.568 Y-47.619
X32.785 Y-47.659
X32.892 Y-47.683
X32.946 Y-47.697
X32.973 Y-47.704
X32.987 Y-47.708
X32.998 Y-47.711
G03 X34.261 Y-46.746 I0.263 J0.965
G01 Y-28.254
G03 X32.998 Y-27.289 I-1.
G01 X32.987 Y-27.292
X32.973 Y-27.296
X32.946 Y-27.303
X32.892 Y-27.317
X32.785 Y-27.341
X32.568 Y-27.381
X32.352 Y-27.408
X32.135 Y-27.422
X31.918 Y-27.425
X0.082
X-0.135 Y-27.422
X-0.352 Y-27.408
X-0.568 Y-27.381
X-0.785 Y-27.341
X-0.892 Y-27.317
X-0.946 Y-27.303
X-0.973 Y-27.296
X-0.987 Y-27.292
X-0.998 Y-27.289
G03 X-2.261 Y-28.227 I-0.263 J-0.965
G01 X-2.715 Y-45.231
G03 X-2.672 Y-45.592 I1.25 J-0.033
X-1.063 Y-46.447 I1.206 J0.328 F3206.
G01 X-1.03 Y-46.436 Z78.499
G03 X-1.901 Y-44.092 Z78.362 I-0.435 J1.172
X-1.03 Y-46.436 Z78.225 I0.435 J-1.172
X-1.901 Y-44.092 Z78.088 I-0.435 J1.172
X-1.03 Y-46.436 Z77.951 I0.435 J-1.172
X-1.901 Y-44.092 Z77.814 I-0.435 J1.172
X-2.68 Y-45.559 Z77.751 I0.435 J-1.172
G01 X-2.672 Y-45.592 Z77.75
X-2.539 Y-46.08 F1070.
G03 X-0.998 Y-46.961 I1.211 J0.33
G01 X-0.987 Y-46.958
X-0.973 Y-46.954
X-0.946 Y-46.947
X-0.892 Y-46.933
X-0.785 Y-46.909
X-0.568 Y-46.869
X-0.411 Y-46.848
X-0.352 Y-46.842
X-0.135 Y-46.828
X0.082 Y-46.825
X31.918
X32.135 Y-46.828
X32.352 Y-46.842
X32.411 Y-46.848
X32.568 Y-46.869
X32.785 Y-46.909
X32.892 Y-46.933
X32.946 Y-46.947
X32.973 Y-46.954
X32.987 Y-46.958
X32.998 Y-46.961
G03 X34.261 Y-45.996 I0.263 J0.965
G01 Y-29.004
G03 X32.998 Y-28.039 I-1.
G01 X32.987 Y-28.042
X32.973 Y-28.046
X32.946 Y-28.053
X32.892 Y-28.067
X32.785 Y-28.091
X32.568 Y-28.131
X32.411 Y-28.152
X32.352 Y-28.158
X32.135 Y-28.172
X31.918 Y-28.175
X0.082
X-0.135 Y-28.172
X-0.352 Y-28.158
X-0.411 Y-28.152
X-0.568 Y-28.131
X-0.785 Y-28.091
X-0.892 Y-28.067
X-0.946 Y-28.053
X-0.973 Y-28.046
X-0.987 Y-28.042
X-0.998 Y-28.039
G03 X-2.261 Y-28.975 I-0.263 J-0.965
G01 X-2.716 Y-44.478
G03 X-2.673 Y-44.844 I1.249 J-0.037
X-1.063 Y-45.697 I1.206 J0.329 F3206.
G01 X-1.03 Y-45.686 Z77.749
G03 X-1.903 Y-43.343 Z77.612 I-0.436 J1.171
X-1.03 Y-45.686 Z77.475 I0.436 J-1.171
X-1.903 Y-43.343 Z77.338 I-0.436 J1.171
X-1.03 Y-45.686 Z77.201 I0.436 J-1.171
X-1.903 Y-43.343 Z77.064 I-0.436 J1.171
X-2.681 Y-44.81 Z77.001 I0.436 J-1.171
G01 X-2.673 Y-44.844 Z77.
X-2.54 Y-45.331 F1070.
G03 X-0.998 Y-46.211 I1.211 J0.331
G01 X-0.993 Y-46.209
X-0.986 Y-46.207
X-0.971 Y-46.204
X-0.942 Y-46.196
X-0.785 Y-46.159
X-0.568 Y-46.119
X-0.352 Y-46.092
X-0.135 Y-46.078
X0.082 Y-46.075
X31.918
X32.135 Y-46.078
X32.352 Y-46.092
X32.568 Y-46.119
X32.785 Y-46.159
X32.942 Y-46.196
X32.971 Y-46.204
X32.986 Y-46.207
X32.996 Y-46.21
X32.998 Y-46.211
G03 X34.262 Y-45.246 I0.264 J0.965
G01 Y-29.754
G03 X32.998 Y-28.789 I-1.
G01 X32.993 Y-28.791
X32.986 Y-28.793
X32.971 Y-28.796
X32.942 Y-28.804
X32.785 Y-28.841
X32.568 Y-28.881
X32.352 Y-28.908
X32.135 Y-28.922
X31.918 Y-28.925
X0.082
X-0.135 Y-28.922
X-0.352 Y-28.908
X-0.568 Y-28.881
X-0.785 Y-28.841
X-0.942 Y-28.804
X-0.971 Y-28.796
X-0.986 Y-28.793
X-0.996 Y-28.79
X-0.998 Y-28.789
G03 X-2.262 Y-29.721 I-0.264 J-0.965
G01 X-2.715 Y-43.724
G03 X-2.672 Y-44.092 I1.249 J-0.04
X-1.063 Y-44.947 I1.206 J0.328 F3206.
G01 X-1.03 Y-44.936 Z76.999
G03 X-1.901 Y-42.592 Z76.862 I-0.435 J1.172
X-1.03 Y-44.936 Z76.725 I0.435 J-1.172
X-1.901 Y-42.592 Z76.588 I-0.435 J1.172
X-1.03 Y-44.936 Z76.451 I0.435 J-1.172
X-1.901 Y-42.592 Z76.314 I-0.435 J1.172
X-2.68 Y-44.059 Z76.251 I0.435 J-1.172
G01 X-2.672 Y-44.092 Z76.25
X-2.539 Y-44.58 F1070.
G03 X-0.998 Y-45.461 I1.211 J0.33
G01 X-0.987 Y-45.458
X-0.973 Y-45.454
X-0.946 Y-45.447
X-0.892 Y-45.433
X-0.785 Y-45.409
X-0.568 Y-45.369
X-0.352 Y-45.342
X-0.135 Y-45.328
X-0.085 Y-45.326
X0.082 Y-45.325
X31.918
X32.085 Y-45.326
X32.135 Y-45.328
X32.352 Y-45.342
X32.568 Y-45.369
X32.785 Y-45.409
X32.892 Y-45.433
X32.946 Y-45.447
X32.973 Y-45.454
X32.987 Y-45.458
X32.998 Y-45.461
G03 X34.261 Y-44.496 I0.263 J0.965
G01 Y-30.504
G03 X32.998 Y-29.539 I-1.
G01 X32.987 Y-29.542
X32.973 Y-29.546
X32.946 Y-29.553
X32.892 Y-29.567
X32.785 Y-29.591
X32.568 Y-29.631
X32.352 Y-29.658
X32.135 Y-29.672
X32.085 Y-29.674
X31.918 Y-29.675
X0.082
X-0.085 Y-29.674
X-0.135 Y-29.672
X-0.352 Y-29.658
X-0.568 Y-29.631
X-0.785 Y-29.591
X-0.892 Y-29.567
X-0.946 Y-29.553
X-0.973 Y-29.546
X-0.987 Y-29.542
X-0.998 Y-29.539
G03 X-2.26 Y-30.468 I-0.263 J-0.965
G01 X-2.715 Y-42.969
G03 X-2.672 Y-43.343 I1.249 J-0.045
X-1.063 Y-44.197 I1.206 J0.329 F3206.
G01 X-1.03 Y-44.186 Z76.249
G03 X-1.902 Y-41.843 Z76.112 I-0.436 J1.171
X-1.03 Y-44.186 Z75.975 I0.436 J-1.171
X-1.902 Y-41.843 Z75.838 I-0.436 J1.171
X-1.03 Y-44.186 Z75.701 I0.436 J-1.171
X-1.902 Y-41.843 Z75.564 I-0.436 J1.171
X-2.68 Y-43.309 Z75.501 I0.436 J-1.171
G01 X-2.672 Y-43.343 Z75.5
X-2.539 Y-43.83 F1070.
G03 X-0.998 Y-44.711 I1.211 J0.33
G01 X-0.991 Y-44.709
X-0.982 Y-44.706
X-0.963 Y-44.701
X-0.927 Y-44.692
X-0.854 Y-44.674
X-0.785 Y-44.659
X-0.568 Y-44.619
X-0.352 Y-44.592
X-0.135 Y-44.578
X0.082 Y-44.575
X31.918
X32.135 Y-44.578
X32.352 Y-44.592
X32.568 Y-44.619
X32.785 Y-44.659
X32.854 Y-44.674
X32.927 Y-44.692
X32.963 Y-44.701
X32.982 Y-44.706
X32.991 Y-44.709
X32.998 Y-44.711
G03 X34.261 Y-43.746 I0.263 J0.965
G01 Y-31.254
G03 X32.998 Y-30.289 I-1.
G01 X32.991 Y-30.291
X32.982 Y-30.294
X32.963 Y-30.299
X32.927 Y-30.308
X32.854 Y-30.326
X32.785 Y-30.341
X32.568 Y-30.381
X32.352 Y-30.408
X32.135 Y-30.422
X31.918 Y-30.425
X0.082
X-0.135 Y-30.422
X-0.352 Y-30.408
X-0.568 Y-30.381
X-0.785 Y-30.341
X-0.854 Y-30.326
X-0.927 Y-30.308
X-0.963 Y-30.299
X-0.982 Y-30.294
X-0.991 Y-30.291
X-0.998 Y-30.289
G03 X-2.26 Y-31.213 I-0.263 J-0.965
G01 X-2.714 Y-42.212
G03 X-2.672 Y-42.592 I1.249 J-0.052
X-1.063 Y-43.447 I1.206 J0.328 F3206.
G01 X-1.03 Y-43.436 Z75.499
G03 X-1.901 Y-41.092 Z75.362 I-0.435 J1.172
X-1.03 Y-43.436 Z75.225 I0.435 J-1.172
X-1.901 Y-41.092 Z75.088 I-0.435 J1.172
X-1.03 Y-43.436 Z74.951 I0.435 J-1.172
X-1.901 Y-41.092 Z74.814 I-0.435 J1.172
X-2.68 Y-42.559 Z74.751 I0.435 J-1.172
G01 X-2.672 Y-42.592 Z74.75
X-2.539 Y-43.08 F1070.
G03 X-0.998 Y-43.961 I1.211 J0.33
G01 X-0.987 Y-43.958
X-0.973 Y-43.954
X-0.946 Y-43.947
X-0.892 Y-43.933
X-0.785 Y-43.909
X-0.568 Y-43.869
X-0.352 Y-43.842
X-0.135 Y-43.828
X0.082 Y-43.825
X31.918
X32.135 Y-43.828
X32.352 Y-43.842
X32.568 Y-43.869
X32.785 Y-43.909
X32.892 Y-43.933
X32.946 Y-43.947
X32.973 Y-43.954
X32.987 Y-43.958
X32.998 Y-43.961
G03 X34.261 Y-42.996 I0.263 J0.965
G01 Y-32.004
G03 X32.998 Y-31.039 I-1.
G01 X32.987 Y-31.042
X32.973 Y-31.046
X32.946 Y-31.053
X32.892 Y-31.067
X32.785 Y-31.091
X32.568 Y-31.131
X32.352 Y-31.158
X32.135 Y-31.172
X31.918 Y-31.175
X0.082
X-0.135 Y-31.172
X-0.352 Y-31.158
X-0.568 Y-31.131
X-0.785 Y-31.091
X-0.892 Y-31.067
X-0.946 Y-31.053
X-0.973 Y-31.046
X-0.987 Y-31.042
X-0.998 Y-31.039
G03 X-2.26 Y-31.956 I-0.263 J-0.965
G01 X-2.714 Y-41.454
G03 X-2.672 Y-41.842 I1.249 J-0.06
X-1.063 Y-42.697 I1.206 J0.328 F3206.
G01 X-1.03 Y-42.686 Z74.749
G03 X-1.901 Y-40.342 Z74.612 I-0.435 J1.172
X-1.03 Y-42.686 Z74.475 I0.435 J-1.172
X-1.901 Y-40.342 Z74.338 I-0.435 J1.172
X-1.03 Y-42.686 Z74.201 I0.435 J-1.172
X-1.901 Y-40.342 Z74.064 I-0.435 J1.172
X-2.68 Y-41.809 Z74.001 I0.435 J-1.172
G01 X-2.672 Y-41.842 Z74.
X-2.539 Y-42.33 F1070.
G03 X-0.998 Y-43.211 I1.211 J0.33
G01 X-0.987 Y-43.208
X-0.973 Y-43.204
X-0.946 Y-43.197
X-0.892 Y-43.183
X-0.785 Y-43.159
X-0.754 Y-43.152
X-0.568 Y-43.119
X-0.352 Y-43.092
X-0.135 Y-43.078
X0.082 Y-43.075
X31.918
X32.135 Y-43.078
X32.352 Y-43.092
X32.568 Y-43.119
X32.754 Y-43.152
X32.785 Y-43.159
X32.892 Y-43.183
X32.946 Y-43.197
X32.973 Y-43.204
X32.987 Y-43.208
X32.998 Y-43.211
G03 X34.261 Y-42.246 I0.263 J0.965
G01 Y-32.754
G03 X32.998 Y-31.789 I-1.
G01 X32.987 Y-31.792
X32.973 Y-31.796
X32.946 Y-31.803
X32.892 Y-31.817
X32.785 Y-31.841
X32.754 Y-31.848
X32.568 Y-31.881
X32.352 Y-31.908
X32.135 Y-31.922
X31.918 Y-31.925
X0.082
X-0.135 Y-31.922
X-0.352 Y-31.908
X-0.568 Y-31.881
X-0.754 Y-31.848
X-0.785 Y-31.841
X-0.892 Y-31.817
X-0.946 Y-31.803
X-0.973 Y-31.796
X-0.987 Y-31.792
X-0.998 Y-31.789
G03 X-2.259 Y-32.697 I-0.263 J-0.965
G01 X-2.713 Y-40.693
G03 X-2.672 Y-41.092 I1.248 J-0.071
X-1.063 Y-41.947 I1.206 J0.328 F3206.
G01 X-1.03 Y-41.936 Z73.999
G03 X-1.901 Y-39.592 Z73.862 I-0.435 J1.172
X-1.03 Y-41.936 Z73.725 I0.435 J-1.172
X-1.901 Y-39.592 Z73.588 I-0.435 J1.172
X-1.03 Y-41.936 Z73.451 I0.435 J-1.172
X-1.901 Y-39.592 Z73.314 I-0.435 J1.172
X-2.68 Y-41.059 Z73.251 I0.435 J-1.172
G01 X-2.672 Y-41.092 Z73.25
X-2.539 Y-41.58 F1070.
G03 X-0.998 Y-42.461 I1.211 J0.33
G01 X-0.987 Y-42.458
X-0.973 Y-42.454
X-0.946 Y-42.447
X-0.892 Y-42.433
X-0.785 Y-42.409
X-0.568 Y-42.369
X-0.352 Y-42.342
X-0.135 Y-42.328
X0.082 Y-42.325
X31.918
X32.135 Y-42.328
X32.352 Y-42.342
X32.568 Y-42.369
X32.785 Y-42.409
X32.892 Y-42.433
X32.946 Y-42.447
X32.973 Y-42.454
X32.987 Y-42.458
X32.998 Y-42.461
G03 X34.261 Y-41.496 I0.263 J0.965
G01 Y-33.504
G03 X32.998 Y-32.539 I-1.
G01 X32.987 Y-32.542
X32.973 Y-32.546
X32.946 Y-32.553
X32.892 Y-32.567
X32.785 Y-32.591
X32.568 Y-32.631
X32.352 Y-32.658
X32.135 Y-32.672
X31.918 Y-32.675
X0.082
X-0.135 Y-32.672
X-0.352 Y-32.658
X-0.568 Y-32.631
X-0.785 Y-32.591
X-0.892 Y-32.567
X-0.946 Y-32.553
X-0.973 Y-32.546
X-0.987 Y-32.542
X-0.998 Y-32.539
G03 X-2.259 Y-33.434 I-0.263 J-0.965
G01 X-2.712 Y-39.927
G03 X-2.672 Y-40.342 I1.247 J-0.087
X-1.063 Y-41.197 I1.206 J0.328 F3206.
G01 X-1.03 Y-41.186 Z73.249
G03 X-1.901 Y-38.842 Z73.112 I-0.435 J1.172
X-1.03 Y-41.186 Z72.975 I0.435 J-1.172
X-1.901 Y-38.842 Z72.838 I-0.435 J1.172
X-1.03 Y-41.186 Z72.701 I0.435 J-1.172
X-1.901 Y-38.842 Z72.564 I-0.435 J1.172
X-2.68 Y-40.309 Z72.501 I0.435 J-1.172
G01 X-2.672 Y-40.342 Z72.5
X-2.539 Y-40.83 F1070.
G03 X-0.998 Y-41.711 I1.211 J0.33
G01 X-0.987 Y-41.708
X-0.973 Y-41.704
X-0.946 Y-41.697
X-0.892 Y-41.683
X-0.785 Y-41.659
X-0.639 Y-41.631
X-0.568 Y-41.619
X-0.352 Y-41.592
X-0.135 Y-41.578
X0.082 Y-41.575
X31.918
X32.135 Y-41.578
X32.352 Y-41.592
X32.568 Y-41.619
X32.639 Y-41.631
X32.785 Y-41.659
X32.892 Y-41.683
X32.946 Y-41.697
X32.973 Y-41.704
X32.987 Y-41.708
X32.998 Y-41.711
G03 X34.261 Y-40.746 I0.263 J0.965
G01 Y-34.254
G03 X32.998 Y-33.289 I-1.
G01 X32.987 Y-33.292
X32.973 Y-33.296
X32.946 Y-33.303
X32.892 Y-33.317
X32.785 Y-33.341
X32.639 Y-33.369
X32.568 Y-33.381
X32.352 Y-33.408
X32.135 Y-33.422
X31.918 Y-33.425
X0.082
X-0.135 Y-33.422
X-0.352 Y-33.408
X-0.568 Y-33.381
X-0.639 Y-33.369
X-0.785 Y-33.341
X-0.892 Y-33.317
X-0.946 Y-33.303
X-0.973 Y-33.296
X-0.987 Y-33.292
X-0.998 Y-33.289
G03 X-2.257 Y-34.163 I-0.263 J-0.965
G01 X-2.71 Y-39.151
G03 X-2.672 Y-39.592 I1.245 J-0.113
X-1.063 Y-40.447 I1.206 J0.328 F3206.
G01 X-1.03 Y-40.436 Z72.499
G03 X-1.901 Y-38.092 Z72.362 I-0.435 J1.172
X-1.03 Y-40.436 Z72.225 I0.435 J-1.172
X-1.901 Y-38.092 Z72.088 I-0.435 J1.172
X-1.03 Y-40.436 Z71.951 I0.435 J-1.172
X-1.901 Y-38.092 Z71.814 I-0.435 J1.172
X-2.68 Y-39.559 Z71.751 I0.435 J-1.172
G01 X-2.672 Y-39.592 Z71.75
X-2.539 Y-40.08 F1070.
G03 X-0.998 Y-40.961 I1.211 J0.33
G01 X-0.987 Y-40.958
X-0.973 Y-40.954
X-0.946 Y-40.947
X-0.892 Y-40.933
X-0.785 Y-40.909
X-0.568 Y-40.869
X-0.352 Y-40.842
X-0.135 Y-40.828
X0.082 Y-40.825
X31.918
X32.135 Y-40.828
X32.352 Y-40.842
X32.568 Y-40.869
X32.785 Y-40.909
X32.892 Y-40.933
X32.946 Y-40.947
X32.973 Y-40.954
X32.987 Y-40.958
X32.998 Y-40.961
G03 X34.261 Y-39.996 I0.263 J0.965
G01 Y-35.004
G03 X32.998 Y-34.039 I-1.
G01 X32.987 Y-34.042
X32.973 Y-34.046
X32.946 Y-34.053
X32.892 Y-34.067
X32.785 Y-34.091
X32.568 Y-34.131
X32.352 Y-34.158
X32.135 Y-34.172
X31.918 Y-34.175
X0.082
X-0.135 Y-34.172
X-0.352 Y-34.158
X-0.568 Y-34.131
X-0.785 Y-34.091
X-0.892 Y-34.067
X-0.946 Y-34.053
X-0.973 Y-34.046
X-0.987 Y-34.042
X-0.998 Y-34.039
G03 X-2.253 Y-34.875 I-0.263 J-0.965
G01 X-2.705 Y-38.353
G03 X-2.672 Y-38.842 I1.24 J-0.161
X-1.063 Y-39.697 I1.206 J0.328 F3206.
G01 X-1.03 Y-39.686 Z71.749
G03 X-1.901 Y-37.342 Z71.612 I-0.435 J1.172
X-1.03 Y-39.686 Z71.475 I0.435 J-1.172
X-1.901 Y-37.342 Z71.338 I-0.435 J1.172
X-1.03 Y-39.686 Z71.201 I0.435 J-1.172
X-1.901 Y-37.342 Z71.064 I-0.435 J1.172
X-2.68 Y-38.809 Z71.001 I0.435 J-1.172
G01 X-2.672 Y-38.842 Z71.
X-2.539 Y-39.33 F1070.
G03 X-0.998 Y-40.211 I1.211 J0.33
G01 X-0.987 Y-40.208
X-0.973 Y-40.204
X-0.946 Y-40.197
X-0.892 Y-40.183
X-0.785 Y-40.159
X-0.568 Y-40.119
X-0.497 Y-40.109
X-0.352 Y-40.092
X-0.135 Y-40.078
X0.082 Y-40.075
X31.918
X32.135 Y-40.078
X32.352 Y-40.092
X32.497 Y-40.109
X32.568 Y-40.119
X32.785 Y-40.159
X32.892 Y-40.183
X32.946 Y-40.197
X32.973 Y-40.204
X32.987 Y-40.208
X32.998 Y-40.211
G03 X34.261 Y-39.246 I0.263 J0.965
G01 Y-35.754
G03 X32.998 Y-34.789 I-1.
G01 X32.987 Y-34.792
X32.973 Y-34.796
X32.946 Y-34.803
X32.892 Y-34.817
X32.785 Y-34.841
X32.568 Y-34.881
X32.497 Y-34.891
X32.352 Y-34.908
X32.135 Y-34.922
X31.918 Y-34.925
X0.082
X-0.135 Y-34.922
X-0.352 Y-34.908
X-0.497 Y-34.891
X-0.568 Y-34.881
X-0.785 Y-34.841
X-0.892 Y-34.817
X-0.946 Y-34.803
X-0.973 Y-34.796
X-0.987 Y-34.792
X-0.998 Y-34.789
G03 X-2.236 Y-35.53 I-0.263 J-0.965
G01 X-2.684 Y-37.484
G03 X-2.672 Y-38.093 I1.218 J-0.28
X-1.063 Y-38.947 I1.206 J0.329 F3206.
G01 X-1.03 Y-38.936 Z70.999
G03 X-1.902 Y-36.593 Z70.862 I-0.436 J1.171
X-1.03 Y-38.936 Z70.725 I0.436 J-1.171
X-1.902 Y-36.593 Z70.588 I-0.436 J1.171
X-1.03 Y-38.936 Z70.451 I0.436 J-1.171
X-1.902 Y-36.593 Z70.314 I-0.436 J1.171
X-2.681 Y-38.059 Z70.251 I0.436 J-1.171
G01 X-2.672 Y-38.093 Z70.25
X-2.539 Y-38.58 F1070.
G03 X-0.998 Y-39.461 I1.211 J0.33
G01 X-0.991 Y-39.459
X-0.983 Y-39.457
X-0.785 Y-39.409
X-0.568 Y-39.369
X-0.352 Y-39.342
X-0.135 Y-39.328
X0.082 Y-39.325
X31.918
X32.135 Y-39.328
X32.352 Y-39.342
X32.568 Y-39.369
X32.785 Y-39.409
X32.983 Y-39.457
X32.991 Y-39.459
X32.998 Y-39.461
G03 X33.757 Y-39.364 I0.263 J0.965
X34.227 Y-38.555 I-0.462 J0.809
G01 Y-36.445
G03 X33.757 Y-35.636 I-0.932
X32.998 Y-35.539 I-0.496 J-0.868
G01 X32.991 Y-35.541
X32.983 Y-35.543
X32.785 Y-35.591
X32.568 Y-35.631
X32.352 Y-35.658
X32.135 Y-35.672
X31.918 Y-35.675
X0.082
X-0.135 Y-35.672
X-0.352 Y-35.658
X-0.568 Y-35.631
X-0.785 Y-35.591
X-0.983 Y-35.543
X-0.991 Y-35.541
X-0.998 Y-35.539
G03 X-2.129 Y-37. I-0.263 J-0.965
G00 Z85.25
X-1.865 Y-37.591
Z70.633
G01 Z69.5 F1070.
G03 X-0.998 Y-38.711 I0.665 J-0.38
G01 X-0.987 Y-38.708
X-0.973 Y-38.704
X-0.946 Y-38.697
X-0.892 Y-38.683
X-0.785 Y-38.659
X-0.568 Y-38.619
X-0.352 Y-38.592
X-0.294 Y-38.587
X-0.135 Y-38.578
X0.082 Y-38.575
X31.918
X32.135 Y-38.578
X32.294 Y-38.587
X32.352 Y-38.592
X32.568 Y-38.619
X32.785 Y-38.659
X32.892 Y-38.683
X32.946 Y-38.697
X32.973 Y-38.704
X32.987 Y-38.708
X32.998 Y-38.711
G03 X33.734 Y-38.617 I0.254 J0.935
X34.015 Y-38.132 I-0.277 J0.485
G01 Y-36.868
G03 X33.734 Y-36.383 I-0.559
X32.998 Y-36.289 I-0.481 J-0.841
G01 X32.987 Y-36.292
X32.973 Y-36.296
X32.946 Y-36.303
X32.892 Y-36.317
X32.785 Y-36.341
X32.568 Y-36.381
X32.352 Y-36.408
X32.294 Y-36.413
X32.135 Y-36.422
X31.918 Y-36.425
X0.082
X-0.135 Y-36.422
X-0.294 Y-36.413
X-0.352 Y-36.408
X-0.568 Y-36.381
X-0.785 Y-36.341
X-0.892 Y-36.317
X-0.946 Y-36.303
X-0.973 Y-36.296
X-0.987 Y-36.292
X-0.998 Y-36.289
G03 X-1.865 Y-37.409 I-0.201 J-0.739
G00 Z85.25
X-1.02 Y-37.949
Z71.243
G01 Z68.75 F1070.
X-1.012 Y-37.959
X-0.998 Y-37.961
X-0.987 Y-37.958
X-0.975 Y-37.954
X-0.949 Y-37.948
X-0.898 Y-37.935
X-0.785 Y-37.909
X-0.568 Y-37.869
X-0.352 Y-37.842
X-0.135 Y-37.828
X0.082 Y-37.825
X31.918
X32.135 Y-37.828
X32.352 Y-37.842
X32.568 Y-37.869
X32.785 Y-37.909
X32.898 Y-37.935
X32.949 Y-37.948
X32.974 Y-37.954
X32.987 Y-37.958
X32.998 Y-37.961
G03 X33.278 Y-37.925 I0.097 J0.356
G01 X33.323 Y-37.891
X33.357 Y-37.847
X33.378 Y-37.796
X33.385 Y-37.741
Y-37.259
X33.378 Y-37.204
X33.357 Y-37.153
X33.323 Y-37.109
X33.278 Y-37.075
G03 X32.998 Y-37.039 I-0.183 J-0.32
G01 X32.987 Y-37.042
X32.974 Y-37.046
X32.949 Y-37.052
X32.898 Y-37.065
X32.785 Y-37.091
X32.568 Y-37.131
X32.352 Y-37.158
X32.135 Y-37.172
X31.918 Y-37.175
X0.082
X-0.135 Y-37.172
X-0.352 Y-37.158
X-0.568 Y-37.131
X-0.785 Y-37.091
X-0.898 Y-37.065
X-0.949 Y-37.052
X-0.975 Y-37.046
X-0.987 Y-37.042
X-0.998 Y-37.039
X-1.012 Y-37.041
X-1.02 Y-37.051
G00 Z95.25
M05
G28 G91 Z0.
G90
G49

(RANURA 14)
M09
M01
T14 M06
S10000 M03
G57
M08
G00 X38.635 Y-39.58
G43 Z88. H44
G00 Z78.
G01 Z75. F333.
Z72.635
G19 G03 Y-38.945 Z72. J0.635 F2526.
G01 Y-38.31
G17 G03 X38. Y-37.675 I-0.635
G01 X-6. F1000.
G03 X-6.635 Y-38.31 J-0.635 F2526.
G01 Y-38.945
G19 G02 Y-39.58 Z72.635 K0.635
G00 Z78.
X38.635
G01 Z74. F333.
Z71.635
G03 Y-38.945 Z71. J0.635 F2526.
G01 Y-38.31
G17 G03 X38. Y-37.675 I-0.635
G01 X-6. F1000.
G03 X-6.635 Y-38.31 J-0.635 F2526.
G01 Y-38.945
G19 G02 Y-39.58 Z71.635 K0.635
G00 Z78.
X38.635
G01 Z73. F333.
Z70.635
G03 Y-38.945 Z70. J0.635 F2526.
G01 Y-38.31
G17 G03 X38. Y-37.675 I-0.635
G01 X-6. F1000.
G03 X-6.635 Y-38.31 J-0.635 F2526.
G01 Y-38.945
G19 G02 Y-39.58 Z70.635 K0.635
G00 Z78.
X38.635
G01 Z72. F333.
Z69.635
G03 Y-38.945 Z69. J0.635 F2526.
G01 Y-38.31
G17 G03 X38. Y-37.675 I-0.635
G01 X-6. F1000.
G03 X-6.635 Y-38.31 J-0.635 F2526.
G01 Y-38.945
G19 G02 Y-39.58 Z69.635 K0.635
G00 Z78.
X38.635
G01 Z71. F333.
Z68.635
G03 Y-38.945 Z68. J0.635 F2526.
G01 Y-38.31
G17 G03 X38. Y-37.675 I-0.635
G01 X-6. F1000.
G03 X-6.635 Y-38.31 J-0.635 F2526.
G01 Y-38.945
G19 G02 Y-39.58 Z68.635 K0.635
G00 Z78.
X38.635
G01 Z70. F333.
Z67.635
G03 Y-38.945 Z67. J0.635 F2526.
G01 Y-38.31
G17 G03 X38. Y-37.675 I-0.635
G01 X-6. F1000.
G03 X-6.635 Y-38.31 J-0.635 F2526.
G01 Y-38.945
G19 G02 Y-39.58 Z67.635 K0.635
G00 Z78.
X38.635
G01 Z69. F333.
Z66.635
G03 Y-38.945 Z66. J0.635 F2526.
G01 Y-38.31
G17 G03 X38. Y-37.675 I-0.635
G01 X-6. F1000.
G03 X-6.635 Y-38.31 J-0.635 F2526.
G01 Y-38.945
G19 G02 Y-39.58 Z66.635 K0.635
G00 Z78.
X38.635
G01 Z68. F333.
Z65.635
G03 Y-38.945 Z65. J0.635 F2526.
G01 Y-38.31
G17 G03 X38. Y-37.675 I-0.635
G01 X-6. F1000.
G03 X-6.635 Y-38.31 J-0.635 F2526.
G01 Y-38.945
G19 G02 Y-39.58 Z65.635 K0.635
G00 Z78.
X38.635
G01 Z67. F333.
Z64.635
G03 Y-38.945 Z64. J0.635 F2526.
G01 Y-38.31
G17 G03 X38. Y-37.675 I-0.635
G01 X-6. F1000.
G03 X-6.635 Y-38.31 J-0.635 F2526.
G01 Y-38.945
G19 G02 Y-39.58 Z64.635 K0.635
G00 Z78.
X38.635
G01 Z66. F333.
Z63.635
G03 Y-38.945 Z63. J0.635 F2526.
G01 Y-38.31
G17 G03 X38. Y-37.675 I-0.635
G01 X-6. F1000.
G03 X-6.635 Y-38.31 J-0.635 F2526.
G01 Y-38.945
G19 G02 Y-39.58 Z63.635 K0.635
G00 Z78.
X38.635
G01 Z65. F333.
Z62.635
G03 Y-38.945 Z62. J0.635 F2526.
G01 Y-38.31
G17 G03 X38. Y-37.675 I-0.635
G01 X-6. F1000.
G03 X-6.635 Y-38.31 J-0.635 F2526.
G01 Y-38.945
G19 G02 Y-39.58 Z62.635 K0.635
G00 Z78.
X38.635
G01 Z64. F333.
Z61.635
G03 Y-38.945 Z61. J0.635 F2526.
G01 Y-38.31
G17 G03 X38. Y-37.675 I-0.635
G01 X-6. F1000.
G03 X-6.635 Y-38.31 J-0.635 F2526.
G01 Y-38.945
G19 G02 Y-39.58 Z61.635 K0.635
G00 Z78.
X38.635
G01 Z63. F333.
Z60.635
G03 Y-38.945 Z60. J0.635 F2526.
G01 Y-38.31
G17 G03 X38. Y-37.675 I-0.635
G01 X-6. F1000.
G03 X-6.635 Y-38.31 J-0.635 F2526.
G01 Y-38.945
G19 G02 Y-39.58 Z60.635 K0.635
G00 Z78.
X38.635
G01 Z62. F333.
Z59.635
G03 Y-38.945 Z59. J0.635 F2526.
G01 Y-38.31
G17 G03 X38. Y-37.675 I-0.635
G01 X-6. F1000.
G03 X-6.635 Y-38.31 J-0.635 F2526.
G01 Y-38.945
G19 G02 Y-39.58 Z59.635 K0.635
G00 Z78.
X38.635
G01 Z61. F333.
Z58.635
G03 Y-38.945 Z58. J0.635 F2526.
G01 Y-38.31
G17 G03 X38. Y-37.675 I-0.635
G01 X-6. F1000.
G03 X-6.635 Y-38.31 J-0.635 F2526.
G01 Y-38.945
G19 G02 Y-39.58 Z58.635 K0.635
G00 Z78.
X38.635
G01 Z60. F333.
Z57.635
G03 Y-38.945 Z57. J0.635 F2526.
G01 Y-38.31
G17 G03 X38. Y-37.675 I-0.635
G01 X-6. F1000.
G03 X-6.635 Y-38.31 J-0.635 F2526.
G01 Y-38.945
G19 G02 Y-39.58 Z57.635 K0.635
G00 Z78.
X38.635
G01 Z59. F333.
Z56.635
G03 Y-38.945 Z56. J0.635 F2526.
G01 Y-38.31
G17 G03 X38. Y-37.675 I-0.635
G01 X-6. F1000.
G03 X-6.635 Y-38.31 J-0.635 F2526.
G01 Y-38.945
G19 G02 Y-39.58 Z56.635 K0.635
G00 Z78.
X38.635
G01 Z58. F333.
Z55.635
G03 Y-38.945 Z55. J0.635 F2526.
G01 Y-38.31
G17 G03 X38. Y-37.675 I-0.635
G01 X-6. F1000.
G03 X-6.635 Y-38.31 J-0.635 F2526.
G01 Y-38.945
G19 G02 Y-39.58 Z55.635 K0.635
G00 Z78.
X38.635
G01 Z57. F333.
Z54.635
G03 Y-38.945 Z54. J0.635 F2526.
G01 Y-38.31
G17 G03 X38. Y-37.675 I-0.635
G01 X-6. F1000.
G03 X-6.635 Y-38.31 J-0.635 F2526.
G01 Y-38.945
G19 G02 Y-39.58 Z54.635 K0.635
G00 Z78.
X38.635
G01 Z56. F333.
Z53.635
G03 Y-38.945 Z53. J0.635 F2526.
G01 Y-38.31
G17 G03 X38. Y-37.675 I-0.635
G01 X-6. F1000.
G03 X-6.635 Y-38.31 J-0.635 F2526.
G01 Y-38.945
G19 G02 Y-39.58 Z53.635 K0.635
G00 Z78.
X38.635
G01 Z55. F333.
Z52.635
G03 Y-38.945 Z52. J0.635 F2526.
G01 Y-38.31
G17 G03 X38. Y-37.675 I-0.635
G01 X-6. F1000.
G03 X-6.635 Y-38.31 J-0.635 F2526.
G01 Y-38.945
G19 G02 Y-39.58 Z52.635 K0.635
G00 Z78.
X38.635
G01 Z54. F333.
Z51.635
G03 Y-38.945 Z51. J0.635 F2526.
G01 Y-38.31
G17 G03 X38. Y-37.675 I-0.635
G01 X-6. F1000.
G03 X-6.635 Y-38.31 J-0.635 F2526.
G01 Y-38.945
G19 G02 Y-39.58 Z51.635 K0.635
G00 Z78.
X38.635
G01 Z53. F333.
Z50.635
G03 Y-38.945 Z50. J0.635 F2526.
G01 Y-38.31
G17 G03 X38. Y-37.675 I-0.635
G01 X-6. F1000.
G03 X-6.635 Y-38.31 J-0.635 F2526.
G01 Y-38.945
G19 G02 Y-39.58 Z50.635 K0.635
G00 Z78.
X38.635
G01 Z52. F333.
Z49.635
G03 Y-38.945 Z49. J0.635 F2526.
G01 Y-38.31
G17 G03 X38. Y-37.675 I-0.635
G01 X-6. F1000.
G03 X-6.635 Y-38.31 J-0.635 F2526.
G01 Y-38.945
G19 G02 Y-39.58 Z49.635 K0.635
G00 Z78.
X38.635
G01 Z51. F333.
Z48.635
G03 Y-38.945 Z48. J0.635 F2526.
G01 Y-38.31
G17 G03 X38. Y-37.675 I-0.635
G01 X-6. F1000.
G03 X-6.635 Y-38.31 J-0.635 F2526.
G01 Y-38.945
G19 G02 Y-39.58 Z48.635 K0.635
G00 Z78.
X38.635
G01 Z50. F333.
Z47.635
G03 Y-38.945 Z47. J0.635 F2526.
G01 Y-38.31
G17 G03 X38. Y-37.675 I-0.635
G01 X-6. F1000.
G03 X-6.635 Y-38.31 J-0.635 F2526.
G01 Y-38.945
G19 G02 Y-39.58 Z47.635 K0.635
G00 Z78.
X38.635
G01 Z49. F333.
Z46.635
G03 Y-38.945 Z46. J0.635 F2526.
G01 Y-38.31
G17 G03 X38. Y-37.675 I-0.635
G01 X-6. F1000.
G03 X-6.635 Y-38.31 J-0.635 F2526.
G01 Y-38.945
G19 G02 Y-39.58 Z46.635 K0.635
G00 Z78.
X38.635
G01 Z48. F333.
Z45.635
G03 Y-38.945 Z45. J0.635 F2526.
G01 Y-38.31
G17 G03 X38. Y-37.675 I-0.635
G01 X-6. F1000.
G03 X-6.635 Y-38.31 J-0.635 F2526.
G01 Y-38.945
G19 G02 Y-39.58 Z45.635 K0.635
G00 Z78.
X38.635
G01 Z47. F333.
Z44.635
G03 Y-38.945 Z44. J0.635 F2526.
G01 Y-38.31
G17 G03 X38. Y-37.675 I-0.635
G01 X-6. F1000.
G03 X-6.635 Y-38.31 J-0.635 F2526.
G01 Y-38.945
G19 G02 Y-39.58 Z44.635 K0.635
G00 Z78.
X38.635
G01 Z46. F333.
Z43.635
G03 Y-38.945 Z43. J0.635 F2526.
G01 Y-38.31
G17 G03 X38. Y-37.675 I-0.635
G01 X-6. F1000.
G03 X-6.635 Y-38.31 J-0.635 F2526.
G01 Y-38.945
G19 G02 Y-39.58 Z43.635 K0.635
G00 Z78.
X38.635
G01 Z45. F333.
Z42.635
G03 Y-38.945 Z42. J0.635 F2526.
G01 Y-38.31
G17 G03 X38. Y-37.675 I-0.635
G01 X-6. F1000.
G03 X-6.635 Y-38.31 J-0.635 F2526.
G01 Y-38.945
G19 G02 Y-39.58 Z42.635 K0.635
G00 Z88.
G17
M05
G28 G91 Z0.
G90
G49

(RECTIFICAR V)
M09
M01
T13 M06
S2000 M03
G57
M08
G00 X35.553 Y-52.498
G43 Z95.25 H43
G00 Z81.01
G01 Z78.763 F500.
X35.549 Z78.754
X35.54 Z78.75
X33.326 Y-52.511
X33.317 Y-52.507
X33.313 Y-52.498
Y-51.595 F1000.
Y-51.466
X33.303 Y-51.337
X33.28 Y-51.207
X33.268 Y-51.159
X33.244 Y-51.078
X33.192 Y-50.949
X33.139 Y-50.846
X33.123 Y-50.819
X33.034 Y-50.69
X33.01 Y-50.66
X32.918 Y-50.561
X32.88 Y-50.525
X32.764 Y-50.431
X32.751 Y-50.422
X32.622 Y-50.343
X32.539 Y-50.302
X32.492 Y-50.282
X32.363 Y-50.238
X32.234 Y-50.207
X32.104 Y-50.191
X31.975 Y-50.187
X0.025
X-0.104 Y-50.191
X-0.234 Y-50.207
X-0.363 Y-50.238
X-0.492 Y-50.282
X-0.539 Y-50.302
X-0.622 Y-50.343
X-0.751 Y-50.422
X-0.764 Y-50.431
X-0.88 Y-50.525
X-0.918 Y-50.561
X-1.01 Y-50.66
X-1.034 Y-50.69
X-1.123 Y-50.819
X-1.139 Y-50.846
X-1.192 Y-50.949
X-1.244 Y-51.078
X-1.268 Y-51.159
X-1.28 Y-51.207
X-1.303 Y-51.337
X-1.313 Y-51.466
X-1.314 Y-51.595
Y-52.498
X-1.32 Y-52.509
X-1.333
X-1.339 Y-52.498
Y-22.502
X-1.335 Y-22.493
X-1.326 Y-22.489
X-1.317 Y-22.493
X-1.314 Y-22.502 F500.
Y-23.405 F1000.
X-1.313 Y-23.534
X-1.303 Y-23.663
X-1.28 Y-23.793
X-1.268 Y-23.841
X-1.244 Y-23.922
X-1.192 Y-24.051
X-1.139 Y-24.154
X-1.123 Y-24.181
X-1.034 Y-24.31
X-1.01 Y-24.34
X-0.918 Y-24.439
X-0.88 Y-24.475
X-0.764 Y-24.569
X-0.751 Y-24.578
X-0.622 Y-24.657
X-0.539 Y-24.698
X-0.492 Y-24.718
X-0.363 Y-24.762
X-0.234 Y-24.793
X-0.104 Y-24.809
X0.025 Y-24.813
X31.975
X32.104 Y-24.809
X32.234 Y-24.793
X32.363 Y-24.762
X32.492 Y-24.718
X32.539 Y-24.698
X32.622 Y-24.657
X32.751 Y-24.578
X32.764 Y-24.569
X32.88 Y-24.475
X32.918 Y-24.439
X33.01 Y-24.34
X33.034 Y-24.31
X33.123 Y-24.181
X33.139 Y-24.154
X33.192 Y-24.051
X33.244 Y-23.922
X33.268 Y-23.841
X33.28 Y-23.793
X33.303 Y-23.663
X33.313 Y-23.534
Y-23.405
Y-22.502
X33.32 Y-22.491
X33.332
X33.339 Y-22.501
X34.589 Y-52.511
Z77.513 F500.
X34.585 Z77.504
X34.576 Z77.5
X34.567 Y-52.507
X34.563 Y-52.498
Y-51.595 F1000.
Y-51.466
X34.562 Y-51.411
X34.558 Y-51.337
X34.547 Y-51.207
X34.529 Y-51.078
X34.504 Y-50.949
X34.471 Y-50.819
X34.433 Y-50.691
X34.432 Y-50.69
X34.385 Y-50.561
X34.33 Y-50.431
X34.303 Y-50.375
X34.266 Y-50.302
X34.193 Y-50.173
X34.174 Y-50.141
X34.109 Y-50.043
X34.045 Y-49.954
X34.014 Y-49.914
X33.915 Y-49.796
X33.905 Y-49.785
X33.786 Y-49.661
X33.78 Y-49.655
X33.656 Y-49.544
X33.636 Y-49.526
X33.527 Y-49.441
X33.466 Y-49.397
X33.398 Y-49.351
X33.268 Y-49.272
X33.26 Y-49.268
X33.139 Y-49.203
X33.01 Y-49.144
X32.997 Y-49.138
X32.88 Y-49.092
X32.751 Y-49.049
X32.622 Y-49.013
X32.605 Y-49.009
X32.492 Y-48.984
X32.363 Y-48.962
X32.234 Y-48.947
X32.104 Y-48.939
X31.975 Y-48.937
X0.025
X-0.104 Y-48.939
X-0.234 Y-48.947
X-0.363 Y-48.962
X-0.492 Y-48.984
X-0.605 Y-49.009
X-0.622 Y-49.013
X-0.751 Y-49.049
X-0.88 Y-49.092
X-0.997 Y-49.138
X-1.01 Y-49.144
X-1.139 Y-49.203
X-1.26 Y-49.268
X-1.268 Y-49.272
X-1.398 Y-49.351
X-1.466 Y-49.397
X-1.527 Y-49.441
X-1.636 Y-49.526
X-1.656 Y-49.544
X-1.78 Y-49.655
X-1.786 Y-49.661
X-1.905 Y-49.785
X-1.915 Y-49.796
X-2.014 Y-49.914
X-2.045 Y-49.954
X-2.109 Y-50.043
X-2.174 Y-50.141
X-2.193 Y-50.173
X-2.266 Y-50.302
X-2.303 Y-50.375
X-2.33 Y-50.431
X-2.385 Y-50.561
X-2.432 Y-50.69
X-2.433 Y-50.691
X-2.471 Y-50.819
X-2.504 Y-50.949
X-2.529 Y-51.078
X-2.547 Y-51.207
X-2.558 Y-51.337
X-2.562 Y-51.411
X-2.563 Y-51.466
Y-51.595
Y-52.498
X-2.57 Y-52.509
X-2.583
X-2.589 Y-52.498
Y-22.502
X-2.585 Y-22.493
X-2.576 Y-22.489
X-2.567 Y-22.493
X-2.563 Y-22.502 F500.
Y-23.405 F1000.
Y-23.534
X-2.562 Y-23.589
X-2.558 Y-23.663
X-2.547 Y-23.793
X-2.529 Y-23.922
X-2.504 Y-24.051
X-2.471 Y-24.181
X-2.433 Y-24.309
X-2.432 Y-24.31
X-2.385 Y-24.439
X-2.33 Y-24.569
X-2.303 Y-24.625
X-2.266 Y-24.698
X-2.193 Y-24.827
X-2.174 Y-24.859
X-2.109 Y-24.957
X-2.045 Y-25.046
X-2.014 Y-25.086
X-1.915 Y-25.204
X-1.905 Y-25.215
X-1.786 Y-25.339
X-1.78 Y-25.345
X-1.656 Y-25.456
X-1.636 Y-25.474
X-1.527 Y-25.559
X-1.466 Y-25.603
X-1.398 Y-25.649
X-1.268 Y-25.728
X-1.26 Y-25.732
X-1.139 Y-25.797
X-1.01 Y-25.856
X-0.997 Y-25.862
X-0.88 Y-25.908
X-0.751 Y-25.951
X-0.622 Y-25.987
X-0.605 Y-25.991
X-0.492 Y-26.016
X-0.363 Y-26.038
X-0.234 Y-26.053
X-0.104 Y-26.061
X0.025 Y-26.063
X31.975
X32.104 Y-26.061
X32.234 Y-26.053
X32.363 Y-26.038
X32.492 Y-26.016
X32.605 Y-25.991
X32.622 Y-25.987
X32.751 Y-25.951
X32.88 Y-25.908
X32.997 Y-25.862
X33.01 Y-25.856
X33.139 Y-25.797
X33.26 Y-25.732
X33.268 Y-25.728
X33.398 Y-25.649
X33.466 Y-25.603
X33.527 Y-25.559
X33.636 Y-25.474
X33.656 Y-25.456
X33.78 Y-25.345
X33.786 Y-25.339
X33.905 Y-25.215
X33.915 Y-25.204
X34.014 Y-25.086
X34.045 Y-25.046
X34.109 Y-24.957
X34.174 Y-24.859
X34.193 Y-24.827
X34.266 Y-24.698
X34.303 Y-24.625
X34.33 Y-24.569
X34.385 Y-24.439
X34.432 Y-24.31
X34.433 Y-24.309
X34.471 Y-24.181
X34.504 Y-24.051
X34.529 Y-23.922
X34.547 Y-23.793
X34.558 Y-23.663
X34.562 Y-23.589
X34.563 Y-23.534
Y-23.405
Y-22.502
X34.57 Y-22.491
X34.582
X34.589 Y-22.501
X35.839 Y-52.511
Z76.263 F500.
X35.835 Z76.254
X35.826 Z76.25
X35.817 Y-52.507
X35.813 Y-52.498
Y-51.595 F1000.
Y-51.466
X35.81 Y-51.337
X35.802 Y-51.207
X35.79 Y-51.078
X35.773 Y-50.949
X35.752 Y-50.819
X35.726 Y-50.69
Y-50.688
X35.696 Y-50.561
X35.661 Y-50.431
X35.62 Y-50.302
X35.597 Y-50.233
X35.575 Y-50.173
X35.524 Y-50.043
X35.468 Y-49.914
X35.467 Y-49.913
X35.406 Y-49.785
X35.338 Y-49.656
Y-49.655
X35.263 Y-49.526
X35.209 Y-49.439
X35.181 Y-49.397
X35.092 Y-49.268
X35.079 Y-49.25
X34.994 Y-49.138
X34.95 Y-49.083
X34.887 Y-49.009
X34.821 Y-48.934
X34.771 Y-48.88
X34.691 Y-48.798
X34.642 Y-48.75
X34.562 Y-48.675
X34.501 Y-48.621
X34.433 Y-48.563
X34.344 Y-48.492
X34.303 Y-48.461
X34.174 Y-48.367
X34.167 Y-48.362
X34.045 Y-48.281
X33.967 Y-48.233
X33.915 Y-48.202
X33.786 Y-48.13
X33.734 Y-48.104
X33.656 Y-48.065
X33.527 Y-48.006
X33.454 Y-47.974
X33.398 Y-47.952
X33.268 Y-47.904
X33.139 Y-47.861
X33.088 Y-47.845
X33.01 Y-47.823
X32.88 Y-47.79
X32.751 Y-47.761
X32.622 Y-47.738
X32.492 Y-47.718
X32.472 Y-47.716
X32.363 Y-47.704
X32.234 Y-47.694
X32.104 Y-47.688
X31.975 Y-47.687
X0.025
X-0.104 Y-47.688
X-0.234 Y-47.694
X-0.363 Y-47.704
X-0.472 Y-47.716
X-0.492 Y-47.718
X-0.622 Y-47.738
X-0.751 Y-47.761
X-0.88 Y-47.79
X-1.01 Y-47.823
X-1.088 Y-47.845
X-1.139 Y-47.861
X-1.268 Y-47.904
X-1.398 Y-47.952
X-1.454 Y-47.974
X-1.527 Y-48.006
X-1.656 Y-48.065
X-1.734 Y-48.104
X-1.786 Y-48.13
X-1.915 Y-48.202
X-1.967 Y-48.233
X-2.045 Y-48.281
X-2.167 Y-48.362
X-2.174 Y-48.367
X-2.303 Y-48.461
X-2.344 Y-48.492
X-2.433 Y-48.563
X-2.501 Y-48.621
X-2.562 Y-48.675
X-2.642 Y-48.75
X-2.691 Y-48.798
X-2.771 Y-48.88
X-2.821 Y-48.934
X-2.887 Y-49.009
X-2.95 Y-49.083
X-2.994 Y-49.138
X-3.079 Y-49.25
X-3.092 Y-49.268
X-3.181 Y-49.397
X-3.209 Y-49.439
X-3.263 Y-49.526
X-3.338 Y-49.655
Y-49.656
X-3.406 Y-49.785
X-3.467 Y-49.913
X-3.468 Y-49.914
X-3.524 Y-50.043
X-3.575 Y-50.173
X-3.597 Y-50.233
X-3.62 Y-50.302
X-3.661 Y-50.431
X-3.696 Y-50.561
X-3.726 Y-50.688
Y-50.69
X-3.752 Y-50.819
X-3.773 Y-50.949
X-3.79 Y-51.078
X-3.802 Y-51.207
X-3.81 Y-51.337
X-3.813 Y-51.466
Y-51.595
Y-52.498
X-3.82 Y-52.509
X-3.833
X-3.839 Y-52.498
Y-22.502
X-3.835 Y-22.493
X-3.826 Y-22.489
X-3.817 Y-22.493
X-3.813 Y-22.502 F500.
Y-23.405 F1000.
Y-23.534
X-3.81 Y-23.663
X-3.802 Y-23.793
X-3.79 Y-23.922
X-3.773 Y-24.051
X-3.752 Y-24.181
X-3.726 Y-24.31
Y-24.312
X-3.696 Y-24.439
X-3.661 Y-24.569
X-3.62 Y-24.698
X-3.597 Y-24.767
X-3.575 Y-24.827
X-3.524 Y-24.957
X-3.468 Y-25.086
X-3.467 Y-25.087
X-3.406 Y-25.215
X-3.338 Y-25.344
Y-25.345
X-3.263 Y-25.474
X-3.209 Y-25.561
X-3.181 Y-25.603
X-3.092 Y-25.732
X-3.079 Y-25.75
X-2.994 Y-25.862
X-2.95 Y-25.917
X-2.887 Y-25.991
X-2.821 Y-26.066
X-2.771 Y-26.12
X-2.691 Y-26.202
X-2.642 Y-26.25
X-2.562 Y-26.325
X-2.501 Y-26.379
X-2.433 Y-26.437
X-2.344 Y-26.508
X-2.303 Y-26.539
X-2.174 Y-26.633
X-2.167 Y-26.638
X-2.045 Y-26.719
X-1.967 Y-26.767
X-1.915 Y-26.798
X-1.786 Y-26.87
X-1.734 Y-26.896
X-1.656 Y-26.935
X-1.527 Y-26.994
X-1.454 Y-27.026
X-1.398 Y-27.048
X-1.268 Y-27.096
X-1.139 Y-27.139
X-1.088 Y-27.155
X-1.01 Y-27.177
X-0.88 Y-27.21
X-0.751 Y-27.239
X-0.622 Y-27.262
X-0.492 Y-27.282
X-0.472 Y-27.284
X-0.363 Y-27.296
X-0.234 Y-27.306
X-0.104 Y-27.312
X0.025 Y-27.313
X31.975
X32.104 Y-27.312
X32.234 Y-27.306
X32.363 Y-27.296
X32.472 Y-27.284
X32.492 Y-27.282
X32.622 Y-27.262
X32.751 Y-27.239
X32.88 Y-27.21
X33.01 Y-27.177
X33.088 Y-27.155
X33.139 Y-27.139
X33.268 Y-27.096
X33.398 Y-27.048
X33.454 Y-27.026
X33.527 Y-26.994
X33.656 Y-26.935
X33.734 Y-26.896
X33.786 Y-26.87
X33.915 Y-26.798
X33.967 Y-26.767
X34.045 Y-26.719
X34.167 Y-26.638
X34.174 Y-26.633
X34.303 Y-26.539
X34.344 Y-26.508
X34.433 Y-26.437
X34.501 Y-26.379
X34.562 Y-26.325
X34.642 Y-26.25
X34.691 Y-26.202
X34.771 Y-26.12
X34.821 Y-26.066
X34.887 Y-25.991
X34.95 Y-25.917
X34.994 Y-25.862
X35.079 Y-25.75
X35.092 Y-25.732
X35.181 Y-25.603
X35.209 Y-25.561
X35.263 Y-25.474
X35.338 Y-25.345
Y-25.344
X35.406 Y-25.215
X35.467 Y-25.087
X35.468 Y-25.086
X35.524 Y-24.957
X35.575 Y-24.827
X35.597 Y-24.767
X35.62 Y-24.698
X35.661 Y-24.569
X35.696 Y-24.439
X35.726 Y-24.312
Y-24.31
X35.752 Y-24.181
X35.773 Y-24.051
X35.79 Y-23.922
X35.802 Y-23.793
X35.81 Y-23.663
X35.813 Y-23.534
Y-23.405
Y-22.502
X35.82 Y-22.491
X35.832
X35.839 Y-22.501
X37.089 Y-52.511
Z75.013 F500.
X37.085 Z75.004
X37.076 Z75.
X37.067 Y-52.507
X37.063 Y-52.498
Y-51.595 F1000.
Y-51.466
X37.061 Y-51.337
X37.055 Y-51.207
X37.046 Y-51.078
X37.033 Y-50.949
X37.02 Y-50.835
X37.018 Y-50.819
X36.998 Y-50.69
X36.976 Y-50.561
X36.949 Y-50.431
X36.92 Y-50.302
X36.89 Y-50.187
X36.886 Y-50.173
X36.849 Y-50.043
X36.809 Y-49.914
X36.764 Y-49.785
X36.761 Y-49.776
X36.716 Y-49.655
X36.663 Y-49.526
X36.632 Y-49.454
X36.606 Y-49.397
X36.545 Y-49.268
X36.502 Y-49.183
X36.479 Y-49.138
X36.408 Y-49.009
X36.373 Y-48.947
X36.333 Y-48.88
X36.252 Y-48.75
X36.244 Y-48.737
X36.165 Y-48.621
X36.114 Y-48.548
X36.073 Y-48.492
X35.985 Y-48.376
X35.974 Y-48.362
X35.869 Y-48.233
X35.855 Y-48.218
X35.756 Y-48.104
X35.726 Y-48.071
X35.634 Y-47.974
X35.597 Y-47.936
X35.504 Y-47.845
X35.467 Y-47.81
X35.364 Y-47.716
X35.338 Y-47.693
X35.213 Y-47.586
X35.209 Y-47.583
X35.079 Y-47.48
X35.049 Y-47.457
X34.95 Y-47.385
X34.869 Y-47.328
X34.821 Y-47.295
X34.691 Y-47.211
X34.671 Y-47.199
X34.562 Y-47.132
X34.451 Y-47.069
X34.433 Y-47.059
X34.303 Y-46.991
X34.201 Y-46.94
X34.174 Y-46.927
X34.045 Y-46.868
X33.915 Y-46.813
X33.91 Y-46.811
X33.786 Y-46.762
X33.656 Y-46.715
X33.555 Y-46.681
X33.527 Y-46.672
X33.398 Y-46.633
X33.268 Y-46.598
X33.139 Y-46.566
X33.075 Y-46.552
X33.01 Y-46.538
X32.88 Y-46.514
X32.751 Y-46.493
X32.622 Y-46.475
X32.492 Y-46.46
X32.363 Y-46.45
X32.234 Y-46.442
X32.104 Y-46.438
X31.975 Y-46.437
X0.025
X-0.104 Y-46.438
X-0.234 Y-46.442
X-0.363 Y-46.45
X-0.492 Y-46.46
X-0.622 Y-46.475
X-0.751 Y-46.493
X-0.88 Y-46.514
X-1.01 Y-46.538
X-1.075 Y-46.552
X-1.139 Y-46.566
X-1.268 Y-46.598
X-1.398 Y-46.633
X-1.527 Y-46.672
X-1.555 Y-46.681
X-1.656 Y-46.715
X-1.786 Y-46.762
X-1.91 Y-46.811
X-1.915 Y-46.813
X-2.045 Y-46.868
X-2.174 Y-46.927
X-2.201 Y-46.94
X-2.303 Y-46.991
X-2.433 Y-47.059
X-2.451 Y-47.069
X-2.562 Y-47.132
X-2.671 Y-47.199
X-2.691 Y-47.211
X-2.821 Y-47.295
X-2.869 Y-47.328
X-2.95 Y-47.385
X-3.049 Y-47.457
X-3.079 Y-47.48
X-3.209 Y-47.583
X-3.213 Y-47.586
X-3.338 Y-47.693
X-3.364 Y-47.716
X-3.467 Y-47.81
X-3.504 Y-47.845
X-3.597 Y-47.936
X-3.634 Y-47.974
X-3.726 Y-48.071
X-3.756 Y-48.104
X-3.855 Y-48.218
X-3.869 Y-48.233
X-3.974 Y-48.362
X-3.985 Y-48.376
X-4.073 Y-48.492
X-4.114 Y-48.548
X-4.165 Y-48.621
X-4.244 Y-48.737
X-4.252 Y-48.75
X-4.333 Y-48.88
X-4.373 Y-48.947
X-4.408 Y-49.009
X-4.479 Y-49.138
X-4.502 Y-49.183
X-4.545 Y-49.268
X-4.606 Y-49.397
X-4.632 Y-49.454
X-4.663 Y-49.526
X-4.716 Y-49.655
X-4.761 Y-49.776
X-4.764 Y-49.785
X-4.809 Y-49.914
X-4.849 Y-50.043
X-4.886 Y-50.173
X-4.89 Y-50.187
X-4.92 Y-50.302
X-4.949 Y-50.431
X-4.976 Y-50.561
X-4.998 Y-50.69
X-5.018 Y-50.819
X-5.02 Y-50.835
X-5.033 Y-50.949
X-5.046 Y-51.078
X-5.055 Y-51.207
X-5.061 Y-51.337
X-5.063 Y-51.466
Y-51.595
Y-52.498
X-5.07 Y-52.509
X-5.083
X-5.089 Y-52.498
Y-22.502
X-5.085 Y-22.493
X-5.076 Y-22.489
X-5.067 Y-22.493
X-5.063 Y-22.502 F500.
Y-23.405 F1000.
Y-23.534
X-5.061 Y-23.663
X-5.055 Y-23.793
X-5.046 Y-23.922
X-5.033 Y-24.051
X-5.02 Y-24.165
X-5.018 Y-24.181
X-4.998 Y-24.31
X-4.976 Y-24.439
X-4.949 Y-24.569
X-4.92 Y-24.698
X-4.89 Y-24.813
X-4.886 Y-24.827
X-4.849 Y-24.957
X-4.809 Y-25.086
X-4.764 Y-25.215
X-4.761 Y-25.224
X-4.716 Y-25.345
X-4.663 Y-25.474
X-4.632 Y-25.546
X-4.606 Y-25.603
X-4.545 Y-25.732
X-4.502 Y-25.817
X-4.479 Y-25.862
X-4.408 Y-25.991
X-4.373 Y-26.053
X-4.333 Y-26.12
X-4.252 Y-26.25
X-4.244 Y-26.263
X-4.165 Y-26.379
X-4.114 Y-26.452
X-4.073 Y-26.508
X-3.985 Y-26.624
X-3.974 Y-26.638
X-3.869 Y-26.767
X-3.855 Y-26.782
X-3.756 Y-26.896
X-3.726 Y-26.929
X-3.634 Y-27.026
X-3.597 Y-27.064
X-3.504 Y-27.155
X-3.467 Y-27.19
X-3.364 Y-27.284
X-3.338 Y-27.307
X-3.213 Y-27.414
X-3.209 Y-27.417
X-3.079 Y-27.52
X-3.049 Y-27.543
X-2.95 Y-27.615
X-2.869 Y-27.672
X-2.821 Y-27.705
X-2.691 Y-27.789
X-2.671 Y-27.801
X-2.562 Y-27.868
X-2.451 Y-27.931
X-2.433 Y-27.941
X-2.303 Y-28.009
X-2.201 Y-28.06
X-2.174 Y-28.073
X-2.045 Y-28.132
X-1.915 Y-28.187
X-1.91 Y-28.189
X-1.786 Y-28.238
X-1.656 Y-28.285
X-1.555 Y-28.319
X-1.527 Y-28.328
X-1.398 Y-28.367
X-1.268 Y-28.402
X-1.139 Y-28.434
X-1.075 Y-28.448
X-1.01 Y-28.462
X-0.88 Y-28.486
X-0.751 Y-28.507
X-0.622 Y-28.525
X-0.492 Y-28.54
X-0.363 Y-28.55
X-0.234 Y-28.558
X-0.104 Y-28.562
X0.025 Y-28.563
X31.975
X32.104 Y-28.562
X32.234 Y-28.558
X32.363 Y-28.55
X32.492 Y-28.54
X32.622 Y-28.525
X32.751 Y-28.507
X32.88 Y-28.486
X33.01 Y-28.462
X33.075 Y-28.448
X33.139 Y-28.434
X33.268 Y-28.402
X33.398 Y-28.367
X33.527 Y-28.328
X33.555 Y-28.319
X33.656 Y-28.285
X33.786 Y-28.238
X33.91 Y-28.189
X33.915 Y-28.187
X34.045 Y-28.132
X34.174 Y-28.073
X34.201 Y-28.06
X34.303 Y-28.009
X34.433 Y-27.941
X34.451 Y-27.931
X34.562 Y-27.868
X34.671 Y-27.801
X34.691 Y-27.789
X34.821 Y-27.705
X34.869 Y-27.672
X34.95 Y-27.615
X35.049 Y-27.543
X35.079 Y-27.52
X35.209 Y-27.417
X35.213 Y-27.414
X35.338 Y-27.307
X35.364 Y-27.284
X35.467 Y-27.19
X35.504 Y-27.155
X35.597 Y-27.064
X35.634 Y-27.026
X35.726 Y-26.929
X35.756 Y-26.896
X35.855 Y-26.782
X35.869 Y-26.767
X35.974 Y-26.638
X35.985 Y-26.624
X36.073 Y-26.508
X36.114 Y-26.452
X36.165 Y-26.379
X36.244 Y-26.263
X36.252 Y-26.25
X36.333 Y-26.12
X36.373 Y-26.053
X36.408 Y-25.991
X36.479 Y-25.862
X36.502 Y-25.817
X36.545 Y-25.732
X36.606 Y-25.603
X36.632 Y-25.546
X36.663 Y-25.474
X36.716 Y-25.345
X36.761 Y-25.224
X36.764 Y-25.215
X36.809 Y-25.086
X36.849 Y-24.957
X36.886 Y-24.827
X36.89 Y-24.813
X36.92 Y-24.698
X36.949 Y-24.569
X36.976 Y-24.439
X36.998 Y-24.31
X37.018 Y-24.181
X37.02 Y-24.165
X37.033 Y-24.051
X37.046 Y-23.922
X37.055 Y-23.793
X37.061 Y-23.663
X37.063 Y-23.534
Y-23.405
Y-22.502
X37.07 Y-22.491
X37.082
X37.089 Y-22.501
X38.339 Y-52.511
Z73.763 F500.
X38.335 Z73.754
X38.326 Z73.75
X38.317 Y-52.507
X38.313 Y-52.498
Y-51.595 F1000.
Y-51.466
Y-51.432
X38.311 Y-51.337
X38.307 Y-51.207
X38.299 Y-51.078
X38.289 Y-50.949
X38.277 Y-50.819
X38.261 Y-50.69
X38.243 Y-50.561
X38.222 Y-50.431
X38.199 Y-50.302
X38.184 Y-50.227
X38.172 Y-50.173
X38.143 Y-50.043
X38.111 Y-49.914
X38.076 Y-49.785
X38.054 Y-49.71
X38.038 Y-49.655
X37.997 Y-49.526
X37.953 Y-49.397
X37.925 Y-49.32
X37.906 Y-49.268
X37.855 Y-49.138
X37.801 Y-49.009
X37.796 Y-48.996
X37.744 Y-48.88
X37.683 Y-48.75
X37.666 Y-48.716
X37.619 Y-48.621
X37.551 Y-48.492
X37.537 Y-48.467
X37.479 Y-48.362
X37.408 Y-48.242
X37.403 Y-48.233
X37.322 Y-48.104
X37.278 Y-48.036
X37.237 Y-47.974
X37.149 Y-47.846
X37.148 Y-47.845
X37.054 Y-47.716
X37.02 Y-47.671
X36.954 Y-47.586
X36.89 Y-47.507
X36.849 Y-47.457
X36.761 Y-47.353
X36.739 Y-47.328
X36.632 Y-47.209
X36.621 Y-47.199
X36.502 Y-47.074
X36.498 Y-47.069
X36.373 Y-46.946
X36.366 Y-46.94
X36.244 Y-46.825
X36.227 Y-46.811
X36.114 Y-46.711
X36.079 Y-46.681
X35.985 Y-46.603
X35.921 Y-46.552
X35.855 Y-46.5
X35.752 Y-46.423
X35.726 Y-46.403
X35.597 Y-46.311
X35.571 Y-46.293
X35.467 Y-46.224
X35.375 Y-46.164
X35.338 Y-46.141
X35.209 Y-46.063
X35.161 Y-46.035
X35.079 Y-45.988
X34.95 Y-45.918
X34.926 Y-45.905
X34.821 Y-45.852
X34.691 Y-45.789
X34.664 Y-45.776
X34.562 Y-45.73
X34.433 Y-45.674
X34.366 Y-45.647
X34.303 Y-45.622
X34.174 Y-45.573
X34.045 Y-45.527
X34.017 Y-45.517
X33.915 Y-45.484
X33.786 Y-45.444
X33.656 Y-45.408
X33.583 Y-45.388
X33.527 Y-45.374
X33.398 Y-45.343
X33.268 Y-45.315
X33.139 Y-45.29
X33.01 Y-45.268
X32.953 Y-45.259
X32.88 Y-45.248
X32.751 Y-45.231
X32.622 Y-45.217
X32.492 Y-45.206
X32.363 Y-45.197
X32.234 Y-45.191
X32.104 Y-45.187
X31.975
X0.025
X-0.104
X-0.234 Y-45.191
X-0.363 Y-45.197
X-0.492 Y-45.206
X-0.622 Y-45.217
X-0.751 Y-45.231
X-0.88 Y-45.248
X-0.953 Y-45.259
X-1.01 Y-45.268
X-1.139 Y-45.29
X-1.268 Y-45.315
X-1.398 Y-45.343
X-1.527 Y-45.374
X-1.583 Y-45.388
X-1.656 Y-45.408
X-1.786 Y-45.444
X-1.915 Y-45.484
X-2.017 Y-45.517
X-2.045 Y-45.527
X-2.174 Y-45.573
X-2.303 Y-45.622
X-2.366 Y-45.647
X-2.433 Y-45.674
X-2.562 Y-45.73
X-2.664 Y-45.776
X-2.691 Y-45.789
X-2.821 Y-45.852
X-2.926 Y-45.905
X-2.95 Y-45.918
X-3.079 Y-45.988
X-3.161 Y-46.035
X-3.209 Y-46.063
X-3.338 Y-46.141
X-3.375 Y-46.164
X-3.467 Y-46.224
X-3.571 Y-46.293
X-3.597 Y-46.311
X-3.726 Y-46.403
X-3.752 Y-46.423
X-3.855 Y-46.5
X-3.921 Y-46.552
X-3.985 Y-46.603
X-4.079 Y-46.681
X-4.114 Y-46.711
X-4.227 Y-46.811
X-4.244 Y-46.825
X-4.366 Y-46.94
X-4.373 Y-46.946
X-4.498 Y-47.069
X-4.502 Y-47.074
X-4.621 Y-47.199
X-4.632 Y-47.209
X-4.739 Y-47.328
X-4.761 Y-47.353
X-4.849 Y-47.457
X-4.89 Y-47.507
X-4.954 Y-47.586
X-5.02 Y-47.671
X-5.054 Y-47.716
X-5.148 Y-47.845
X-5.149 Y-47.846
X-5.237 Y-47.974
X-5.278 Y-48.036
X-5.322 Y-48.104
X-5.403 Y-48.233
X-5.408 Y-48.242
X-5.479 Y-48.362
X-5.537 Y-48.467
X-5.551 Y-48.492
X-5.619 Y-48.621
X-5.666 Y-48.716
X-5.683 Y-48.75
X-5.744 Y-48.88
X-5.796 Y-48.996
X-5.801 Y-49.009
X-5.855 Y-49.138
X-5.906 Y-49.268
X-5.925 Y-49.32
X-5.953 Y-49.397
X-5.997 Y-49.526
X-6.038 Y-49.655
X-6.054 Y-49.71
X-6.076 Y-49.785
X-6.111 Y-49.914
X-6.143 Y-50.043
X-6.172 Y-50.173
X-6.184 Y-50.227
X-6.199 Y-50.302
X-6.222 Y-50.431
X-6.243 Y-50.561
X-6.261 Y-50.69
X-6.277 Y-50.819
X-6.289 Y-50.949
X-6.299 Y-51.078
X-6.307 Y-51.207
X-6.311 Y-51.337
X-6.313 Y-51.432
Y-51.466
Y-51.595
Y-52.498
X-6.32 Y-52.509
X-6.333
X-6.339 Y-52.498
Y-22.502
X-6.335 Y-22.493
X-6.326 Y-22.489
X-6.317 Y-22.493
X-6.313 Y-22.502 F500.
Y-23.405 F1000.
Y-23.534
Y-23.568
X-6.311 Y-23.663
X-6.307 Y-23.793
X-6.299 Y-23.922
X-6.289 Y-24.051
X-6.277 Y-24.181
X-6.261 Y-24.31
X-6.243 Y-24.439
X-6.222 Y-24.569
X-6.199 Y-24.698
X-6.184 Y-24.773
X-6.172 Y-24.827
X-6.143 Y-24.957
X-6.111 Y-25.086
X-6.076 Y-25.215
X-6.054 Y-25.29
X-6.038 Y-25.345
X-5.997 Y-25.474
X-5.953 Y-25.603
X-5.925 Y-25.68
X-5.906 Y-25.732
X-5.855 Y-25.862
X-5.801 Y-25.991
X-5.796 Y-26.004
X-5.744 Y-26.12
X-5.683 Y-26.25
X-5.666 Y-26.284
X-5.619 Y-26.379
X-5.551 Y-26.508
X-5.537 Y-26.533
X-5.479 Y-26.638
X-5.408 Y-26.758
X-5.403 Y-26.767
X-5.322 Y-26.896
X-5.278 Y-26.964
X-5.237 Y-27.026
X-5.149 Y-27.154
X-5.148 Y-27.155
X-5.054 Y-27.284
X-5.02 Y-27.329
X-4.954 Y-27.414
X-4.89 Y-27.493
X-4.849 Y-27.543
X-4.761 Y-27.647
X-4.739 Y-27.672
X-4.632 Y-27.791
X-4.621 Y-27.801
X-4.502 Y-27.926
X-4.498 Y-27.931
X-4.373 Y-28.054
X-4.366 Y-28.06
X-4.244 Y-28.175
X-4.227 Y-28.189
X-4.114 Y-28.289
X-4.079 Y-28.319
X-3.985 Y-28.397
X-3.921 Y-28.448
X-3.855 Y-28.5
X-3.752 Y-28.577
X-3.726 Y-28.597
X-3.597 Y-28.689
X-3.571 Y-28.707
X-3.467 Y-28.776
X-3.375 Y-28.836
X-3.338 Y-28.859
X-3.209 Y-28.937
X-3.161 Y-28.965
X-3.079 Y-29.012
X-2.95 Y-29.082
X-2.926 Y-29.095
X-2.821 Y-29.148
X-2.691 Y-29.211
X-2.664 Y-29.224
X-2.562 Y-29.27
X-2.433 Y-29.326
X-2.366 Y-29.353
X-2.303 Y-29.378
X-2.174 Y-29.427
X-2.045 Y-29.473
X-2.017 Y-29.483
X-1.915 Y-29.516
X-1.786 Y-29.556
X-1.656 Y-29.592
X-1.583 Y-29.612
X-1.527 Y-29.626
X-1.398 Y-29.657
X-1.268 Y-29.685
X-1.139 Y-29.71
X-1.01 Y-29.732
X-0.953 Y-29.741
X-0.88 Y-29.752
X-0.751 Y-29.769
X-0.622 Y-29.783
X-0.492 Y-29.794
X-0.363 Y-29.803
X-0.234 Y-29.809
X-0.104 Y-29.813
X0.025
X31.975
X32.104
X32.234 Y-29.809
X32.363 Y-29.803
X32.492 Y-29.794
X32.622 Y-29.783
X32.751 Y-29.769
X32.88 Y-29.752
X32.953 Y-29.741
X33.01 Y-29.732
X33.139 Y-29.71
X33.268 Y-29.685
X33.398 Y-29.657
X33.527 Y-29.626
X33.583 Y-29.612
X33.656 Y-29.592
X33.786 Y-29.556
X33.915 Y-29.516
X34.017 Y-29.483
X34.045 Y-29.473
X34.174 Y-29.427
X34.303 Y-29.378
X34.366 Y-29.353
X34.433 Y-29.326
X34.562 Y-29.27
X34.664 Y-29.224
X34.691 Y-29.211
X34.821 Y-29.148
X34.926 Y-29.095
X34.95 Y-29.082
X35.079 Y-29.012
X35.161 Y-28.965
X35.209 Y-28.937
X35.338 Y-28.859
X35.375 Y-28.836
X35.467 Y-28.776
X35.571 Y-28.707
X35.597 Y-28.689
X35.726 Y-28.597
X35.752 Y-28.577
X35.855 Y-28.5
X35.921 Y-28.448
X35.985 Y-28.397
X36.079 Y-28.319
X36.114 Y-28.289
X36.227 Y-28.189
X36.244 Y-28.175
X36.366 Y-28.06
X36.373 Y-28.054
X36.498 Y-27.931
X36.502 Y-27.926
X36.621 Y-27.801
X36.632 Y-27.791
X36.739 Y-27.672
X36.761 Y-27.647
X36.849 Y-27.543
X36.89 Y-27.493
X36.954 Y-27.414
X37.02 Y-27.329
X37.054 Y-27.284
X37.148 Y-27.155
X37.149 Y-27.154
X37.237 Y-27.026
X37.278 Y-26.964
X37.322 Y-26.896
X37.403 Y-26.767
X37.408 Y-26.758
X37.479 Y-26.638
X37.537 Y-26.533
X37.551 Y-26.508
X37.619 Y-26.379
X37.666 Y-26.284
X37.683 Y-26.25
X37.744 Y-26.12
X37.796 Y-26.004
X37.801 Y-25.991
X37.855 Y-25.862
X37.906 Y-25.732
X37.925 Y-25.68
X37.953 Y-25.603
X37.997 Y-25.474
X38.038 Y-25.345
X38.054 Y-25.29
X38.076 Y-25.215
X38.111 Y-25.086
X38.143 Y-24.957
X38.172 Y-24.827
X38.184 Y-24.773
X38.199 Y-24.698
X38.222 Y-24.569
X38.243 Y-24.439
X38.261 Y-24.31
X38.277 Y-24.181
X38.289 Y-24.051
X38.299 Y-23.922
X38.307 Y-23.793
X38.311 Y-23.663
X38.313 Y-23.568
Y-23.534
Y-23.405
Y-22.502
X38.32 Y-22.491
X38.332
X38.339 Y-22.501
X39.589 Y-52.511
Z72.513 F500.
X39.585 Z72.504
X39.576 Z72.5
X39.567 Y-52.507
X39.563 Y-52.498
Y-51.595 F1000.
Y-51.466
X39.562 Y-51.337
X39.558 Y-51.207
X39.552 Y-51.078
X39.543 Y-50.949
X39.533 Y-50.819
X39.52 Y-50.69
X39.505 Y-50.561
X39.488 Y-50.431
X39.477 Y-50.361
X39.468 Y-50.302
X39.446 Y-50.173
X39.422 Y-50.043
X39.395 Y-49.914
X39.366 Y-49.785
X39.348 Y-49.707
X39.335 Y-49.655
X39.301 Y-49.526
X39.265 Y-49.397
X39.227 Y-49.268
X39.219 Y-49.242
X39.185 Y-49.138
X39.142 Y-49.009
X39.095 Y-48.88
X39.089 Y-48.864
X39.046 Y-48.75
X38.994 Y-48.621
X38.96 Y-48.539
X38.939 Y-48.492
X38.882 Y-48.362
X38.831 Y-48.252
X38.822 Y-48.233
X38.758 Y-48.104
X38.701 Y-47.993
X38.692 Y-47.974
X38.622 Y-47.845
X38.572 Y-47.756
X38.549 Y-47.716
X38.472 Y-47.586
X38.442 Y-47.538
X38.392 Y-47.457
X38.313 Y-47.335
X38.309 Y-47.328
X38.221 Y-47.199
X38.184 Y-47.145
X38.13 Y-47.069
X38.054 Y-46.967
X38.034 Y-46.94
X37.934 Y-46.811
X37.925 Y-46.799
X37.83 Y-46.681
X37.796 Y-46.64
X37.72 Y-46.552
X37.666 Y-46.49
X37.606 Y-46.423
X37.537 Y-46.348
X37.486 Y-46.293
X37.408 Y-46.212
X37.36 Y-46.164
X37.278 Y-46.083
X37.228 Y-46.035
X37.149 Y-45.96
X37.09 Y-45.905
X37.02 Y-45.842
X36.944 Y-45.776
X36.89 Y-45.73
X36.79 Y-45.647
X36.761 Y-45.623
X36.632 Y-45.52
X36.628 Y-45.517
X36.502 Y-45.422
X36.456 Y-45.388
X36.373 Y-45.329
X36.272 Y-45.259
X36.244 Y-45.239
X36.114 Y-45.153
X36.077 Y-45.13
X35.985 Y-45.071
X35.868 Y-45.
X35.855 Y-44.993
X35.726 Y-44.918
X35.642 Y-44.871
X35.597 Y-44.846
X35.467 Y-44.778
X35.396 Y-44.742
X35.338 Y-44.713
X35.209 Y-44.651
X35.125 Y-44.612
X35.079 Y-44.592
X34.95 Y-44.536
X34.823 Y-44.483
X34.821 Y-44.482
X34.691 Y-44.432
X34.562 Y-44.384
X34.477 Y-44.354
X34.433 Y-44.338
X34.303 Y-44.296
X34.174 Y-44.256
X34.067 Y-44.224
X34.045 Y-44.218
X33.915 Y-44.183
X33.786 Y-44.15
X33.656 Y-44.12
X33.54 Y-44.095
X33.527 Y-44.092
X33.398 Y-44.067
X33.268 Y-44.044
X33.139 Y-44.023
X33.01 Y-44.004
X32.88 Y-43.988
X32.751 Y-43.974
X32.664 Y-43.966
X32.622 Y-43.962
X32.492 Y-43.953
X32.363 Y-43.945
X32.234 Y-43.94
X32.104 Y-43.937
X31.975
X0.025
X-0.104
X-0.234 Y-43.94
X-0.363 Y-43.945
X-0.492 Y-43.953
X-0.622 Y-43.962
X-0.664 Y-43.966
X-0.751 Y-43.974
X-0.88 Y-43.988
X-1.01 Y-44.004
X-1.139 Y-44.023
X-1.268 Y-44.044
X-1.398 Y-44.067
X-1.527 Y-44.092
X-1.54 Y-44.095
X-1.656 Y-44.12
X-1.786 Y-44.15
X-1.915 Y-44.183
X-2.045 Y-44.218
X-2.067 Y-44.224
X-2.174 Y-44.256
X-2.303 Y-44.296
X-2.433 Y-44.338
X-2.477 Y-44.354
X-2.562 Y-44.384
X-2.691 Y-44.432
X-2.821 Y-44.482
X-2.823 Y-44.483
X-2.95 Y-44.536
X-3.079 Y-44.592
X-3.125 Y-44.612
X-3.209 Y-44.651
X-3.338 Y-44.713
X-3.396 Y-44.742
X-3.467 Y-44.778
X-3.597 Y-44.846
X-3.642 Y-44.871
X-3.726 Y-44.918
X-3.855 Y-44.993
X-3.868 Y-45.
X-3.985 Y-45.071
X-4.077 Y-45.13
X-4.114 Y-45.153
X-4.244 Y-45.239
X-4.273 Y-45.259
X-4.373 Y-45.329
X-4.456 Y-45.388
X-4.502 Y-45.422
X-4.628 Y-45.517
X-4.632 Y-45.52
X-4.761 Y-45.623
X-4.79 Y-45.647
X-4.89 Y-45.73
X-4.944 Y-45.776
X-5.02 Y-45.842
X-5.09 Y-45.905
X-5.149 Y-45.96
X-5.228 Y-46.035
X-5.278 Y-46.083
X-5.36 Y-46.164
X-5.408 Y-46.212
X-5.486 Y-46.293
X-5.537 Y-46.348
X-5.606 Y-46.423
X-5.666 Y-46.49
X-5.72 Y-46.552
X-5.796 Y-46.64
X-5.83 Y-46.681
X-5.925 Y-46.799
X-5.934 Y-46.811
X-6.034 Y-46.94
X-6.054 Y-46.967
X-6.13 Y-47.069
X-6.184 Y-47.145
X-6.221 Y-47.199
X-6.309 Y-47.328
X-6.313 Y-47.335
X-6.392 Y-47.457
X-6.442 Y-47.538
X-6.472 Y-47.586
X-6.549 Y-47.716
X-6.572 Y-47.756
X-6.622 Y-47.845
X-6.692 Y-47.974
X-6.701 Y-47.993
X-6.758 Y-48.104
X-6.822 Y-48.233
X-6.831 Y-48.252
X-6.882 Y-48.362
X-6.939 Y-48.492
X-6.96 Y-48.539
X-6.994 Y-48.621
X-7.046 Y-48.75
X-7.089 Y-48.864
X-7.095 Y-48.88
X-7.142 Y-49.009
X-7.185 Y-49.138
X-7.219 Y-49.242
X-7.227 Y-49.268
X-7.265 Y-49.397
X-7.301 Y-49.526
X-7.335 Y-49.655
X-7.348 Y-49.707
X-7.366 Y-49.785
X-7.395 Y-49.914
X-7.422 Y-50.043
X-7.446 Y-50.173
X-7.468 Y-50.302
X-7.477 Y-50.361
X-7.488 Y-50.431
X-7.505 Y-50.561
X-7.52 Y-50.69
X-7.533 Y-50.819
X-7.543 Y-50.949
X-7.552 Y-51.078
X-7.558 Y-51.207
X-7.562 Y-51.337
X-7.563 Y-51.466
Y-51.595
Y-52.498
X-7.57 Y-52.509
X-7.583
X-7.589 Y-52.498
Y-22.502
X-7.585 Y-22.493
X-7.576 Y-22.489
X-7.567 Y-22.493
X-7.563 Y-22.502 F500.
Y-23.405 F1000.
Y-23.534
X-7.562 Y-23.663
X-7.558 Y-23.793
X-7.552 Y-23.922
X-7.543 Y-24.051
X-7.533 Y-24.181
X-7.52 Y-24.31
X-7.505 Y-24.439
X-7.488 Y-24.569
X-7.477 Y-24.639
X-7.468 Y-24.698
X-7.446 Y-24.827
X-7.422 Y-24.957
X-7.395 Y-25.086
X-7.366 Y-25.215
X-7.348 Y-25.293
X-7.335 Y-25.345
X-7.301 Y-25.474
X-7.265 Y-25.603
X-7.227 Y-25.732
X-7.219 Y-25.758
X-7.185 Y-25.862
X-7.142 Y-25.991
X-7.095 Y-26.12
X-7.089 Y-26.136
X-7.046 Y-26.25
X-6.994 Y-26.379
X-6.96 Y-26.461
X-6.939 Y-26.508
X-6.882 Y-26.638
X-6.831 Y-26.748
X-6.822 Y-26.767
X-6.758 Y-26.896
X-6.701 Y-27.007
X-6.692 Y-27.026
X-6.622 Y-27.155
X-6.572 Y-27.244
X-6.549 Y-27.284
X-6.472 Y-27.414
X-6.442 Y-27.462
X-6.392 Y-27.543
X-6.313 Y-27.665
X-6.309 Y-27.672
X-6.221 Y-27.801
X-6.184 Y-27.855
X-6.13 Y-27.931
X-6.054 Y-28.033
X-6.034 Y-28.06
X-5.934 Y-28.189
X-5.925 Y-28.201
X-5.83 Y-28.319
X-5.796 Y-28.36
X-5.72 Y-28.448
X-5.666 Y-28.51
X-5.606 Y-28.577
X-5.537 Y-28.652
X-5.486 Y-28.707
X-5.408 Y-28.788
X-5.36 Y-28.836
X-5.278 Y-28.917
X-5.228 Y-28.965
X-5.149 Y-29.04
X-5.09 Y-29.095
X-5.02 Y-29.158
X-4.944 Y-29.224
X-4.89 Y-29.27
X-4.79 Y-29.353
X-4.761 Y-29.377
X-4.632 Y-29.48
X-4.628 Y-29.483
X-4.502 Y-29.578
X-4.456 Y-29.612
X-4.373 Y-29.671
X-4.273 Y-29.741
X-4.244 Y-29.761
X-4.114 Y-29.847
X-4.077 Y-29.87
X-3.985 Y-29.929
X-3.868 Y-30.
X-3.855 Y-30.007
X-3.726 Y-30.082
X-3.642 Y-30.129
X-3.597 Y-30.154
X-3.467 Y-30.222
X-3.396 Y-30.258
X-3.338 Y-30.287
X-3.209 Y-30.349
X-3.125 Y-30.388
X-3.079 Y-30.408
X-2.95 Y-30.464
X-2.823 Y-30.517
X-2.821 Y-30.518
X-2.691 Y-30.568
X-2.562 Y-30.616
X-2.477 Y-30.646
X-2.433 Y-30.662
X-2.303 Y-30.704
X-2.174 Y-30.744
X-2.067 Y-30.776
X-2.045 Y-30.782
X-1.915 Y-30.817
X-1.786 Y-30.85
X-1.656 Y-30.88
X-1.54 Y-30.905
X-1.527 Y-30.908
X-1.398 Y-30.933
X-1.268 Y-30.956
X-1.139 Y-30.977
X-1.01 Y-30.996
X-0.88 Y-31.012
X-0.751 Y-31.026
X-0.664 Y-31.034
X-0.622 Y-31.038
X-0.492 Y-31.047
X-0.363 Y-31.055
X-0.234 Y-31.06
X-0.104 Y-31.063
X0.025
X31.975
X32.104
X32.234 Y-31.06
X32.363 Y-31.055
X32.492 Y-31.047
X32.622 Y-31.038
X32.664 Y-31.034
X32.751 Y-31.026
X32.88 Y-31.012
X33.01 Y-30.996
X33.139 Y-30.977
X33.268 Y-30.956
X33.398 Y-30.933
X33.527 Y-30.908
X33.54 Y-30.905
X33.656 Y-30.88
X33.786 Y-30.85
X33.915 Y-30.817
X34.045 Y-30.782
X34.067 Y-30.776
X34.174 Y-30.744
X34.303 Y-30.704
X34.433 Y-30.662
X34.477 Y-30.646
X34.562 Y-30.616
X34.691 Y-30.568
X34.821 Y-30.518
X34.823 Y-30.517
X34.95 Y-30.464
X35.079 Y-30.408
X35.125 Y-30.388
X35.209 Y-30.349
X35.338 Y-30.287
X35.396 Y-30.258
X35.467 Y-30.222
X35.597 Y-30.154
X35.642 Y-30.129
X35.726 Y-30.082
X35.855 Y-30.007
X35.868 Y-30.
X35.985 Y-29.929
X36.077 Y-29.87
X36.114 Y-29.847
X36.244 Y-29.761
X36.272 Y-29.741
X36.373 Y-29.671
X36.456 Y-29.612
X36.502 Y-29.578
X36.628 Y-29.483
X36.632 Y-29.48
X36.761 Y-29.377
X36.79 Y-29.353
X36.89 Y-29.27
X36.944 Y-29.224
X37.02 Y-29.158
X37.09 Y-29.095
X37.149 Y-29.04
X37.228 Y-28.965
X37.278 Y-28.917
X37.36 Y-28.836
X37.408 Y-28.788
X37.486 Y-28.707
X37.537 Y-28.652
X37.606 Y-28.577
X37.666 Y-28.51
X37.72 Y-28.448
X37.796 Y-28.36
X37.83 Y-28.319
X37.925 Y-28.201
X37.934 Y-28.189
X38.034 Y-28.06
X38.054 Y-28.033
X38.13 Y-27.931
X38.184 Y-27.855
X38.221 Y-27.801
X38.309 Y-27.672
X38.313 Y-27.665
X38.392 Y-27.543
X38.442 Y-27.462
X38.472 Y-27.414
X38.549 Y-27.284
X38.572 Y-27.244
X38.622 Y-27.155
X38.692 Y-27.026
X38.701 Y-27.007
X38.758 Y-26.896
X38.822 Y-26.767
X38.831 Y-26.748
X38.882 Y-26.638
X38.939 Y-26.508
X38.96 Y-26.461
X38.994 Y-26.379
X39.046 Y-26.25
X39.089 Y-26.136
X39.095 Y-26.12
X39.142 Y-25.991
X39.185 Y-25.862
X39.219 Y-25.758
X39.227 Y-25.732
X39.265 Y-25.603
X39.301 Y-25.474
X39.335 Y-25.345
X39.348 Y-25.293
X39.366 Y-25.215
X39.395 Y-25.086
X39.422 Y-24.957
X39.446 Y-24.827
X39.468 Y-24.698
X39.477 Y-24.639
X39.488 Y-24.569
X39.505 Y-24.439
X39.52 Y-24.31
X39.533 Y-24.181
X39.543 Y-24.051
X39.552 Y-23.922
X39.558 Y-23.793
X39.562 Y-23.663
X39.563 Y-23.534
Y-23.405
Y-22.502
X39.57 Y-22.491
X39.582
X39.589 Y-22.501
X40.839 Y-52.511
Z71.263 F500.
X40.835 Z71.254
X40.826 Z71.25
X40.817 Y-52.507
X40.813 Y-52.498
Y-51.595 F1000.
Y-51.466
X40.812 Y-51.337
X40.809 Y-51.207
X40.803 Y-51.078
X40.796 Y-50.949
X40.787 Y-50.819
X40.776 Y-50.69
X40.771 Y-50.634
X40.763 Y-50.561
X40.748 Y-50.431
X40.732 Y-50.302
X40.713 Y-50.173
X40.692 Y-50.043
X40.67 Y-49.914
X40.645 Y-49.785
X40.641 Y-49.767
X40.618 Y-49.655
X40.59 Y-49.526
X40.559 Y-49.397
X40.526 Y-49.268
X40.512 Y-49.215
X40.491 Y-49.138
X40.454 Y-49.009
X40.415 Y-48.88
X40.383 Y-48.778
X40.374 Y-48.75
X40.33 Y-48.621
X40.284 Y-48.492
X40.253 Y-48.408
X40.236 Y-48.362
X40.186 Y-48.233
X40.133 Y-48.104
X40.124 Y-48.083
X40.078 Y-47.974
X40.02 Y-47.845
X39.995 Y-47.79
X39.96 Y-47.716
X39.897 Y-47.586
X39.865 Y-47.523
X39.832 Y-47.457
X39.763 Y-47.328
X39.736 Y-47.277
X39.693 Y-47.199
X39.619 Y-47.069
X39.607 Y-47.048
X39.542 Y-46.94
X39.477 Y-46.834
X39.462 Y-46.811
X39.38 Y-46.681
X39.348 Y-46.633
X39.293 Y-46.552
X39.219 Y-46.443
X39.204 Y-46.423
X39.111 Y-46.293
X39.089 Y-46.264
X39.015 Y-46.164
X38.96 Y-46.093
X38.914 Y-46.035
X38.831 Y-45.93
X38.81 Y-45.905
X38.702 Y-45.776
X38.701 Y-45.775
X38.589 Y-45.647
X38.572 Y-45.627
X38.472 Y-45.517
X38.442 Y-45.486
X38.35 Y-45.388
X38.313 Y-45.35
X38.223 Y-45.259
X38.184 Y-45.22
X38.091 Y-45.13
X38.054 Y-45.095
X37.952 Y-45.
X37.925 Y-44.975
X37.808 Y-44.871
X37.796 Y-44.86
X37.666 Y-44.749
X37.657 Y-44.742
X37.537 Y-44.643
X37.499 Y-44.612
X37.408 Y-44.54
X37.333 Y-44.483
X37.278 Y-44.442
X37.158 Y-44.354
X37.149 Y-44.347
X37.02 Y-44.256
X36.974 Y-44.224
X36.89 Y-44.168
X36.78 Y-44.095
X36.761 Y-44.083
X36.632 Y-44.002
X36.573 Y-43.966
X36.502 Y-43.923
X36.373 Y-43.848
X36.353 Y-43.836
X36.244 Y-43.775
X36.117 Y-43.707
X36.114 Y-43.706
X35.985 Y-43.639
X35.862 Y-43.578
X35.855 Y-43.575
X35.726 Y-43.513
X35.597 Y-43.454
X35.585 Y-43.448
X35.467 Y-43.397
X35.338 Y-43.343
X35.279 Y-43.319
X35.209 Y-43.291
X35.079 Y-43.242
X34.95 Y-43.195
X34.936 Y-43.19
X34.821 Y-43.15
X34.691 Y-43.107
X34.562 Y-43.067
X34.54 Y-43.06
X34.433 Y-43.029
X34.303 Y-42.993
X34.174 Y-42.959
X34.062 Y-42.931
X34.045 Y-42.927
X33.915 Y-42.897
X33.786 Y-42.869
X33.656 Y-42.844
X33.527 Y-42.82
X33.421 Y-42.802
X33.398 Y-42.798
X33.268 Y-42.778
X33.139 Y-42.76
X33.01 Y-42.745
X32.88 Y-42.731
X32.751 Y-42.719
X32.622 Y-42.708
X32.492 Y-42.7
X32.363 Y-42.694
X32.234 Y-42.69
X32.104 Y-42.687
X31.975
X0.025
X-0.104
X-0.234 Y-42.69
X-0.363 Y-42.694
X-0.492 Y-42.7
X-0.622 Y-42.708
X-0.751 Y-42.719
X-0.88 Y-42.731
X-1.01 Y-42.745
X-1.139 Y-42.76
X-1.268 Y-42.778
X-1.398 Y-42.798
X-1.421 Y-42.802
X-1.527 Y-42.82
X-1.656 Y-42.844
X-1.786 Y-42.869
X-1.915 Y-42.897
X-2.045 Y-42.927
X-2.062 Y-42.931
X-2.174 Y-42.959
X-2.303 Y-42.993
X-2.433 Y-43.029
X-2.54 Y-43.06
X-2.562 Y-43.067
X-2.691 Y-43.107
X-2.821 Y-43.15
X-2.936 Y-43.19
X-2.95 Y-43.195
X-3.079 Y-43.242
X-3.209 Y-43.291
X-3.279 Y-43.319
X-3.338 Y-43.343
X-3.467 Y-43.397
X-3.585 Y-43.448
X-3.597 Y-43.454
X-3.726 Y-43.513
X-3.855 Y-43.575
X-3.862 Y-43.578
X-3.985 Y-43.639
X-4.114 Y-43.706
X-4.117 Y-43.707
X-4.244 Y-43.775
X-4.353 Y-43.836
X-4.373 Y-43.848
X-4.502 Y-43.923
X-4.573 Y-43.966
X-4.632 Y-44.002
X-4.761 Y-44.083
X-4.78 Y-44.095
X-4.89 Y-44.168
X-4.974 Y-44.224
X-5.02 Y-44.256
X-5.149 Y-44.347
X-5.158 Y-44.354
X-5.278 Y-44.442
X-5.333 Y-44.483
X-5.408 Y-44.54
X-5.499 Y-44.612
X-5.537 Y-44.643
X-5.657 Y-44.742
X-5.666 Y-44.749
X-5.796 Y-44.86
X-5.808 Y-44.871
X-5.925 Y-44.975
X-5.952 Y-45.
X-6.054 Y-45.095
X-6.091 Y-45.13
X-6.184 Y-45.22
X-6.223 Y-45.259
X-6.313 Y-45.35
X-6.35 Y-45.388
X-6.442 Y-45.486
X-6.472 Y-45.517
X-6.572 Y-45.627
X-6.589 Y-45.647
X-6.701 Y-45.775
X-6.702 Y-45.776
X-6.81 Y-45.905
X-6.831 Y-45.93
X-6.914 Y-46.035
X-6.96 Y-46.093
X-7.015 Y-46.164
X-7.089 Y-46.264
X-7.111 Y-46.293
X-7.204 Y-46.423
X-7.219 Y-46.443
X-7.293 Y-46.552
X-7.348 Y-46.633
X-7.38 Y-46.681
X-7.462 Y-46.811
X-7.477 Y-46.834
X-7.542 Y-46.94
X-7.607 Y-47.048
X-7.619 Y-47.069
X-7.693 Y-47.199
X-7.736 Y-47.277
X-7.763 Y-47.328
X-7.832 Y-47.457
X-7.865 Y-47.523
X-7.897 Y-47.586
X-7.96 Y-47.716
X-7.995 Y-47.79
X-8.02 Y-47.845
X-8.078 Y-47.974
X-8.124 Y-48.083
X-8.133 Y-48.104
X-8.186 Y-48.233
X-8.236 Y-48.362
X-8.253 Y-48.408
X-8.284 Y-48.492
X-8.33 Y-48.621
X-8.374 Y-48.75
X-8.383 Y-48.778
X-8.415 Y-48.88
X-8.454 Y-49.009
X-8.491 Y-49.138
X-8.512 Y-49.215
X-8.526 Y-49.268
X-8.559 Y-49.397
X-8.59 Y-49.526
X-8.618 Y-49.655
X-8.641 Y-49.767
X-8.645 Y-49.785
X-8.67 Y-49.914
X-8.692 Y-50.043
X-8.713 Y-50.173
X-8.732 Y-50.302
X-8.748 Y-50.431
X-8.763 Y-50.561
X-8.771 Y-50.634
X-8.776 Y-50.69
X-8.787 Y-50.819
X-8.796 Y-50.949
X-8.803 Y-51.078
X-8.809 Y-51.207
X-8.812 Y-51.337
X-8.813 Y-51.466
X-8.814 Y-51.595
Y-52.498
X-8.82 Y-52.509
X-8.833
X-8.839 Y-52.498
Y-22.502
X-8.835 Y-22.493
X-8.826 Y-22.489
X-8.817 Y-22.493
X-8.814 Y-22.502 F500.
Y-23.405 F1000.
X-8.813 Y-23.534
X-8.812 Y-23.663
X-8.809 Y-23.793
X-8.803 Y-23.922
X-8.796 Y-24.051
X-8.787 Y-24.181
X-8.776 Y-24.31
X-8.771 Y-24.366
X-8.763 Y-24.439
X-8.748 Y-24.569
X-8.732 Y-24.698
X-8.713 Y-24.827
X-8.692 Y-24.957
X-8.67 Y-25.086
X-8.645 Y-25.215
X-8.641 Y-25.233
X-8.618 Y-25.345
X-8.59 Y-25.474
X-8.559 Y-25.603
X-8.526 Y-25.732
X-8.512 Y-25.785
X-8.491 Y-25.862
X-8.454 Y-25.991
X-8.415 Y-26.12
X-8.383 Y-26.222
X-8.374 Y-26.25
X-8.33 Y-26.379
X-8.284 Y-26.508
X-8.253 Y-26.592
X-8.236 Y-26.638
X-8.186 Y-26.767
X-8.133 Y-26.896
X-8.124 Y-26.917
X-8.078 Y-27.026
X-8.02 Y-27.155
X-7.995 Y-27.21
X-7.96 Y-27.284
X-7.897 Y-27.414
X-7.865 Y-27.477
X-7.832 Y-27.543
X-7.763 Y-27.672
X-7.736 Y-27.723
X-7.693 Y-27.801
X-7.619 Y-27.931
X-7.607 Y-27.952
X-7.542 Y-28.06
X-7.477 Y-28.166
X-7.462 Y-28.189
X-7.38 Y-28.319
X-7.348 Y-28.367
X-7.293 Y-28.448
X-7.219 Y-28.557
X-7.204 Y-28.577
X-7.111 Y-28.707
X-7.089 Y-28.736
X-7.015 Y-28.836
X-6.96 Y-28.907
X-6.914 Y-28.965
X-6.831 Y-29.07
X-6.81 Y-29.095
X-6.702 Y-29.224
X-6.701 Y-29.225
X-6.589 Y-29.353
X-6.572 Y-29.373
X-6.472 Y-29.483
X-6.442 Y-29.514
X-6.35 Y-29.612
X-6.313 Y-29.65
X-6.223 Y-29.741
X-6.184 Y-29.78
X-6.091 Y-29.87
X-6.054 Y-29.905
X-5.952 Y-30.
X-5.925 Y-30.025
X-5.808 Y-30.129
X-5.796 Y-30.14
X-5.666 Y-30.251
X-5.657 Y-30.258
X-5.537 Y-30.357
X-5.499 Y-30.388
X-5.408 Y-30.46
X-5.333 Y-30.517
X-5.278 Y-30.558
X-5.158 Y-30.646
X-5.149 Y-30.653
X-5.02 Y-30.744
X-4.974 Y-30.776
X-4.89 Y-30.832
X-4.78 Y-30.905
X-4.761 Y-30.917
X-4.632 Y-30.998
X-4.573 Y-31.034
X-4.502 Y-31.077
X-4.373 Y-31.152
X-4.353 Y-31.164
X-4.244 Y-31.225
X-4.117 Y-31.293
X-4.114 Y-31.294
X-3.985 Y-31.361
X-3.862 Y-31.422
X-3.855 Y-31.425
X-3.726 Y-31.487
X-3.597 Y-31.546
X-3.585 Y-31.552
X-3.467 Y-31.603
X-3.338 Y-31.657
X-3.279 Y-31.681
X-3.209 Y-31.709
X-3.079 Y-31.758
X-2.95 Y-31.805
X-2.936 Y-31.81
X-2.821 Y-31.85
X-2.691 Y-31.893
X-2.562 Y-31.933
X-2.54 Y-31.94
X-2.433 Y-31.971
X-2.303 Y-32.007
X-2.174 Y-32.041
X-2.062 Y-32.069
X-2.045 Y-32.073
X-1.915 Y-32.103
X-1.786 Y-32.131
X-1.656 Y-32.156
X-1.527 Y-32.18
X-1.421 Y-32.198
X-1.398 Y-32.202
X-1.268 Y-32.222
X-1.139 Y-32.24
X-1.01 Y-32.255
X-0.88 Y-32.269
X-0.751 Y-32.281
X-0.622 Y-32.292
X-0.492 Y-32.3
X-0.363 Y-32.306
X-0.234 Y-32.31
X-0.104 Y-32.313
X0.025
X31.975
X32.104
X32.234 Y-32.31
X32.363 Y-32.306
X32.492 Y-32.3
X32.622 Y-32.292
X32.751 Y-32.281
X32.88 Y-32.269
X33.01 Y-32.255
X33.139 Y-32.24
X33.268 Y-32.222
X33.398 Y-32.202
X33.421 Y-32.198
X33.527 Y-32.18
X33.656 Y-32.156
X33.786 Y-32.131
X33.915 Y-32.103
X34.045 Y-32.073
X34.062 Y-32.069
X34.174 Y-32.041
X34.303 Y-32.007
X34.433 Y-31.971
X34.54 Y-31.94
X34.562 Y-31.933
X34.691 Y-31.893
X34.821 Y-31.85
X34.936 Y-31.81
X34.95 Y-31.805
X35.079 Y-31.758
X35.209 Y-31.709
X35.279 Y-31.681
X35.338 Y-31.657
X35.467 Y-31.603
X35.585 Y-31.552
X35.597 Y-31.546
X35.726 Y-31.487
X35.855 Y-31.425
X35.862 Y-31.422
X35.985 Y-31.361
X36.114 Y-31.294
X36.117 Y-31.293
X36.244 Y-31.225
X36.353 Y-31.164
X36.373 Y-31.152
X36.502 Y-31.077
X36.573 Y-31.034
X36.632 Y-30.998
X36.761 Y-30.917
X36.78 Y-30.905
X36.89 Y-30.832
X36.974 Y-30.776
X37.02 Y-30.744
X37.149 Y-30.653
X37.158 Y-30.646
X37.278 Y-30.558
X37.333 Y-30.517
X37.408 Y-30.46
X37.499 Y-30.388
X37.537 Y-30.357
X37.657 Y-30.258
X37.666 Y-30.251
X37.796 Y-30.14
X37.808 Y-30.129
X37.925 Y-30.025
X37.952 Y-30.
X38.054 Y-29.905
X38.091 Y-29.87
X38.184 Y-29.78
X38.223 Y-29.741
X38.313 Y-29.65
X38.35 Y-29.612
X38.442 Y-29.514
X38.472 Y-29.483
X38.572 Y-29.373
X38.589 Y-29.353
X38.701 Y-29.225
X38.702 Y-29.224
X38.81 Y-29.095
X38.831 Y-29.07
X38.914 Y-28.965
X38.96 Y-28.907
X39.015 Y-28.836
X39.089 Y-28.736
X39.111 Y-28.707
X39.204 Y-28.577
X39.219 Y-28.557
X39.293 Y-28.448
X39.348 Y-28.367
X39.38 Y-28.319
X39.462 Y-28.189
X39.477 Y-28.166
X39.542 Y-28.06
X39.607 Y-27.952
X39.619 Y-27.931
X39.693 Y-27.801
X39.736 Y-27.723
X39.763 Y-27.672
X39.832 Y-27.543
X39.865 Y-27.477
X39.897 Y-27.414
X39.96 Y-27.284
X39.995 Y-27.21
X40.02 Y-27.155
X40.078 Y-27.026
X40.124 Y-26.917
X40.133 Y-26.896
X40.186 Y-26.767
X40.236 Y-26.638
X40.253 Y-26.592
X40.284 Y-26.508
X40.33 Y-26.379
X40.374 Y-26.25
X40.383 Y-26.222
X40.415 Y-26.12
X40.454 Y-25.991
X40.491 Y-25.862
X40.512 Y-25.785
X40.526 Y-25.732
X40.559 Y-25.603
X40.59 Y-25.474
X40.618 Y-25.345
X40.641 Y-25.233
X40.645 Y-25.215
X40.67 Y-25.086
X40.692 Y-24.957
X40.713 Y-24.827
X40.732 Y-24.698
X40.748 Y-24.569
X40.763 Y-24.439
X40.771 Y-24.366
X40.776 Y-24.31
X40.787 Y-24.181
X40.796 Y-24.051
X40.803 Y-23.922
X40.809 Y-23.793
X40.812 Y-23.663
X40.813 Y-23.534
Y-23.405
Y-22.502
X40.82 Y-22.491
X40.832
X40.839 Y-22.501
X42.089 Y-52.384
Z70.013 F500.
X42.085 Z70.004
X42.076 Z70.
X42.067 Y-52.38
X42.063 Y-52.371
Y-51.5 F1000.
Y-51.466
X42.062 Y-51.337
X42.059 Y-51.207
X42.055 Y-51.078
X42.048 Y-50.949
X42.04 Y-50.819
X42.031 Y-50.69
X42.02 Y-50.561
X42.007 Y-50.431
X41.992 Y-50.302
X41.976 Y-50.173
X41.958 Y-50.043
X41.938 Y-49.914
X41.935 Y-49.897
X41.916 Y-49.785
X41.893 Y-49.655
X41.868 Y-49.526
X41.841 Y-49.397
X41.813 Y-49.268
X41.806 Y-49.236
X41.782 Y-49.138
X41.75 Y-49.009
X41.716 Y-48.88
X41.681 Y-48.75
X41.676 Y-48.735
X41.643 Y-48.621
X41.603 Y-48.492
X41.562 Y-48.362
X41.547 Y-48.317
X41.518 Y-48.233
X41.473 Y-48.104
X41.426 Y-47.974
X41.418 Y-47.953
X41.376 Y-47.845
X41.325 Y-47.716
X41.288 Y-47.627
X41.271 Y-47.586
X41.216 Y-47.457
X41.159 Y-47.33
X41.158 Y-47.328
X41.098 Y-47.199
X41.036 Y-47.069
X41.03 Y-47.057
X40.971 Y-46.94
X40.904 Y-46.811
X40.9 Y-46.803
X40.835 Y-46.681
X40.771 Y-46.566
X40.763 Y-46.552
X40.689 Y-46.423
X40.641 Y-46.343
X40.612 Y-46.293
X40.532 Y-46.164
X40.512 Y-46.132
X40.45 Y-46.035
X40.383 Y-45.932
X40.365 Y-45.905
X40.277 Y-45.776
X40.253 Y-45.742
X40.186 Y-45.647
X40.124 Y-45.561
X40.092 Y-45.517
X39.995 Y-45.388
X39.894 Y-45.259
X39.865 Y-45.222
X39.79 Y-45.13
X39.736 Y-45.064
X39.683 Y-45.
X39.607 Y-44.911
X39.572 Y-44.871
X39.477 Y-44.765
X39.456 Y-44.742
X39.348 Y-44.624
X39.337 Y-44.612
X39.219 Y-44.488
X39.214 Y-44.483
X39.089 Y-44.357
X39.085 Y-44.354
X38.96 Y-44.231
X38.953 Y-44.224
X38.831 Y-44.11
X38.815 Y-44.095
X38.701 Y-43.992
X38.671 Y-43.966
X38.572 Y-43.879
X38.522 Y-43.836
X38.442 Y-43.769
X38.367 Y-43.707
X38.313 Y-43.663
X38.206 Y-43.578
X38.184 Y-43.561
X38.054 Y-43.461
X38.037 Y-43.448
X37.925 Y-43.366
X37.861 Y-43.319
X37.796 Y-43.273
X37.676 Y-43.19
X37.666 Y-43.183
X37.537 Y-43.097
X37.482 Y-43.06
X37.408 Y-43.013
X37.278 Y-42.932
X37.277 Y-42.931
X37.149 Y-42.853
X37.061 Y-42.802
X37.02 Y-42.778
X36.89 Y-42.705
X36.832 Y-42.673
X36.761 Y-42.634
X36.632 Y-42.566
X36.588 Y-42.543
X36.502 Y-42.5
X36.373 Y-42.436
X36.326 Y-42.414
X36.244 Y-42.375
X36.114 Y-42.316
X36.044 Y-42.285
X35.985 Y-42.259
X35.855 Y-42.204
X35.735 Y-42.155
X35.726 Y-42.152
X35.597 Y-42.101
X35.467 Y-42.053
X35.394 Y-42.026
X35.338 Y-42.006
X35.209 Y-41.962
X35.079 Y-41.919
X35.044 Y-41.908
X35.026 Y-41.902
X35.013 Y-41.898
X34.994 Y-41.892
X34.979 Y-41.888
X34.95 Y-41.879
X34.821 Y-41.84
X34.691 Y-41.803
X34.562 Y-41.768
X34.543 Y-41.763
X34.528 Y-41.759
X34.496 Y-41.751
X34.433 Y-41.735
X34.303 Y-41.704
X34.174 Y-41.674
X34.045 Y-41.646
X34.024 Y-41.642
X34.014 Y-41.64
X34.001 Y-41.637
X33.982 Y-41.634
X33.96 Y-41.629
X33.915 Y-41.62
X33.786 Y-41.596
X33.656 Y-41.574
X33.527 Y-41.553
X33.398 Y-41.534
X33.268 Y-41.517
X33.236 Y-41.513
X33.22 Y-41.511
X33.208 Y-41.509
X33.187 Y-41.507
X33.171 Y-41.505
X33.139 Y-41.501
X33.01 Y-41.487
X32.88 Y-41.475
X32.751 Y-41.465
X32.622 Y-41.456
X32.492 Y-41.449
X32.363 Y-41.443
X32.234 Y-41.439
X32.104 Y-41.437
X32.04
X32.007
X0.025
X-0.04
X-0.072
X-0.088
X-0.104
X-0.234 Y-41.439
X-0.363 Y-41.443
X-0.492 Y-41.449
X-0.622 Y-41.456
X-0.751 Y-41.465
X-0.88 Y-41.475
X-1.01 Y-41.487
X-1.139 Y-41.501
X-1.204 Y-41.509
X-1.268 Y-41.517
X-1.398 Y-41.534
X-1.527 Y-41.553
X-1.656 Y-41.574
X-1.786 Y-41.596
X-1.915 Y-41.62
X-2.004 Y-41.638
X-2.045 Y-41.646
X-2.174 Y-41.674
X-2.303 Y-41.704
X-2.433 Y-41.735
X-2.559 Y-41.767
X-2.562 Y-41.768
X-2.691 Y-41.803
X-2.821 Y-41.84
X-2.95 Y-41.879
X-3.008 Y-41.897
X-3.079 Y-41.919
X-3.209 Y-41.962
X-3.338 Y-42.006
X-3.394 Y-42.026
X-3.467 Y-42.053
X-3.597 Y-42.101
X-3.726 Y-42.152
X-3.735 Y-42.155
X-3.855 Y-42.204
X-3.985 Y-42.259
X-4.044 Y-42.285
X-4.114 Y-42.316
X-4.244 Y-42.375
X-4.326 Y-42.414
X-4.373 Y-42.436
X-4.502 Y-42.5
X-4.588 Y-42.543
X-4.632 Y-42.566
X-4.761 Y-42.634
X-4.832 Y-42.673
X-4.89 Y-42.705
X-5.02 Y-42.778
X-5.061 Y-42.802
X-5.149 Y-42.853
X-5.277 Y-42.931
X-5.278 Y-42.932
X-5.408 Y-43.013
X-5.482 Y-43.06
X-5.537 Y-43.097
X-5.666 Y-43.183
X-5.676 Y-43.19
X-5.796 Y-43.273
X-5.861 Y-43.319
X-5.925 Y-43.366
X-6.037 Y-43.448
X-6.054 Y-43.461
X-6.184 Y-43.561
X-6.206 Y-43.578
X-6.313 Y-43.663
X-6.367 Y-43.707
X-6.442 Y-43.769
X-6.522 Y-43.836
X-6.572 Y-43.879
X-6.671 Y-43.966
X-6.701 Y-43.992
X-6.815 Y-44.095
X-6.831 Y-44.11
X-6.953 Y-44.224
X-6.96 Y-44.231
X-7.085 Y-44.354
X-7.089 Y-44.357
X-7.214 Y-44.483
X-7.219 Y-44.488
X-7.337 Y-44.612
X-7.348 Y-44.624
X-7.456 Y-44.742
X-7.477 Y-44.765
X-7.572 Y-44.871
X-7.607 Y-44.911
X-7.683 Y-45.
X-7.736 Y-45.064
X-7.79 Y-45.13
X-7.865 Y-45.222
X-7.894 Y-45.259
X-7.995 Y-45.388
X-8.092 Y-45.517
X-8.124 Y-45.561
X-8.186 Y-45.647
X-8.253 Y-45.742
X-8.277 Y-45.776
X-8.365 Y-45.905
X-8.383 Y-45.932
X-8.45 Y-46.035
X-8.512 Y-46.132
X-8.532 Y-46.164
X-8.612 Y-46.293
X-8.641 Y-46.343
X-8.689 Y-46.423
X-8.763 Y-46.552
X-8.771 Y-46.566
X-8.835 Y-46.681
X-8.9 Y-46.803
X-8.904 Y-46.811
X-8.971 Y-46.94
X-9.03 Y-47.057
X-9.036 Y-47.069
X-9.098 Y-47.199
X-9.158 Y-47.328
X-9.159 Y-47.33
X-9.216 Y-47.457
X-9.271 Y-47.586
X-9.288 Y-47.627
X-9.325 Y-47.716
X-9.376 Y-47.845
X-9.418 Y-47.953
X-9.426 Y-47.974
X-9.473 Y-48.104
X-9.518 Y-48.233
X-9.547 Y-48.317
X-9.562 Y-48.362
X-9.603 Y-48.492
X-9.643 Y-48.621
X-9.676 Y-48.735
X-9.681 Y-48.75
X-9.716 Y-48.88
X-9.75 Y-49.009
X-9.782 Y-49.138
X-9.806 Y-49.236
X-9.813 Y-49.268
X-9.841 Y-49.397
X-9.868 Y-49.526
X-9.893 Y-49.655
X-9.916 Y-49.785
X-9.935 Y-49.897
X-9.938 Y-49.914
X-9.958 Y-50.043
X-9.976 Y-50.173
X-9.992 Y-50.302
X-10.007 Y-50.431
X-10.02 Y-50.561
X-10.031 Y-50.69
X-10.04 Y-50.819
X-10.048 Y-50.949
X-10.055 Y-51.078
X-10.059 Y-51.207
X-10.062 Y-51.337
X-10.063 Y-51.466
Y-51.498
X-10.064 Y-52.371
X-10.07 Y-52.382
X-10.083
X-10.089 Y-52.371
Y-22.629
X-10.085 Y-22.62
X-10.076 Y-22.616
X-10.067 Y-22.62
X-10.064 Y-22.629 F500.
X-10.063 Y-23.502 F1000.
Y-23.518
Y-23.534
X-10.062 Y-23.663
X-10.059 Y-23.793
X-10.055 Y-23.922
X-10.048 Y-24.051
X-10.04 Y-24.181
X-10.031 Y-24.31
X-10.02 Y-24.439
X-10.007 Y-24.569
X-9.992 Y-24.698
X-9.976 Y-24.827
X-9.958 Y-24.957
X-9.938 Y-25.086
X-9.935 Y-25.103
X-9.926 Y-25.159
X-9.921 Y-25.187
X-9.919 Y-25.201
X-9.916 Y-25.215
X-9.893 Y-25.345
X-9.868 Y-25.474
X-9.841 Y-25.603
X-9.813 Y-25.732
X-9.809 Y-25.748
X-9.804 Y-25.77
X-9.8 Y-25.788
X-9.794 Y-25.813
X-9.782 Y-25.862
X-9.75 Y-25.991
X-9.716 Y-26.12
X-9.681 Y-26.25
X-9.676 Y-26.265
X-9.643 Y-26.379
X-9.603 Y-26.508
X-9.562 Y-26.638
X-9.547 Y-26.683
X-9.518 Y-26.767
X-9.473 Y-26.896
X-9.426 Y-27.026
X-9.418 Y-27.047
X-9.376 Y-27.155
X-9.325 Y-27.284
X-9.288 Y-27.373
X-9.271 Y-27.414
X-9.216 Y-27.543
X-9.159 Y-27.67
X-9.158 Y-27.672
X-9.098 Y-27.801
X-9.036 Y-27.931
X-9.03 Y-27.943
X-8.971 Y-28.06
X-8.904 Y-28.189
X-8.9 Y-28.197
X-8.835 Y-28.319
X-8.771 Y-28.434
X-8.763 Y-28.448
X-8.689 Y-28.577
X-8.641 Y-28.657
X-8.612 Y-28.707
X-8.532 Y-28.836
X-8.512 Y-28.868
X-8.45 Y-28.965
X-8.383 Y-29.068
X-8.365 Y-29.095
X-8.277 Y-29.224
X-8.253 Y-29.258
X-8.186 Y-29.353
X-8.124 Y-29.439
X-8.092 Y-29.483
X-7.995 Y-29.612
X-7.894 Y-29.741
X-7.865 Y-29.778
X-7.79 Y-29.87
X-7.736 Y-29.936
X-7.683 Y-30.
X-7.607 Y-30.089
X-7.572 Y-30.129
X-7.477 Y-30.235
X-7.456 Y-30.258
X-7.348 Y-30.376
X-7.337 Y-30.388
X-7.219 Y-30.512
X-7.214 Y-30.517
X-7.089 Y-30.643
X-7.085 Y-30.646
X-6.96 Y-30.769
X-6.953 Y-30.776
X-6.831 Y-30.89
X-6.815 Y-30.905
X-6.701 Y-31.008
X-6.671 Y-31.034
X-6.572 Y-31.121
X-6.522 Y-31.164
X-6.442 Y-31.231
X-6.367 Y-31.293
X-6.313 Y-31.337
X-6.206 Y-31.422
X-6.184 Y-31.439
X-6.054 Y-31.539
X-6.037 Y-31.552
X-5.925 Y-31.634
X-5.861 Y-31.681
X-5.796 Y-31.727
X-5.676 Y-31.81
X-5.666 Y-31.817
X-5.537 Y-31.903
X-5.482 Y-31.94
X-5.408 Y-31.987
X-5.278 Y-32.068
X-5.277 Y-32.069
X-5.149 Y-32.147
X-5.061 Y-32.198
X-5.02 Y-32.222
X-4.89 Y-32.295
X-4.832 Y-32.327
X-4.761 Y-32.366
X-4.632 Y-32.434
X-4.588 Y-32.457
X-4.502 Y-32.5
X-4.373 Y-32.564
X-4.326 Y-32.586
X-4.244 Y-32.625
X-4.114 Y-32.684
X-4.044 Y-32.715
X-3.985 Y-32.741
X-3.855 Y-32.796
X-3.735 Y-32.845
X-3.726 Y-32.848
X-3.597 Y-32.899
X-3.467 Y-32.947
X-3.394 Y-32.974
X-3.338 Y-32.994
X-3.209 Y-33.038
X-3.079 Y-33.081
X-3.008 Y-33.103
X-2.95 Y-33.121
X-2.821 Y-33.16
X-2.691 Y-33.197
X-2.562 Y-33.232
X-2.559 Y-33.233
X-2.433 Y-33.265
X-2.303 Y-33.296
X-2.174 Y-33.326
X-2.045 Y-33.354
X-2.004 Y-33.362
X-1.915 Y-33.38
X-1.786 Y-33.404
X-1.656 Y-33.426
X-1.527 Y-33.447
X-1.398 Y-33.466
X-1.268 Y-33.483
X-1.204 Y-33.491
X-1.139 Y-33.499
X-1.01 Y-33.513
X-0.88 Y-33.525
X-0.751 Y-33.535
X-0.622 Y-33.544
X-0.492 Y-33.551
X-0.363 Y-33.557
X-0.234 Y-33.561
X-0.104 Y-33.563
X0.025
X31.975
X32.104
X32.234 Y-33.561
X32.363 Y-33.557
X32.492 Y-33.551
X32.622 Y-33.544
X32.751 Y-33.535
X32.88 Y-33.525
X33.01 Y-33.513
X33.139 Y-33.499
X33.204 Y-33.491
X33.268 Y-33.483
X33.398 Y-33.466
X33.527 Y-33.447
X33.656 Y-33.426
X33.786 Y-33.404
X33.915 Y-33.38
X34.004 Y-33.362
X34.045 Y-33.354
X34.174 Y-33.326
X34.303 Y-33.296
X34.433 Y-33.265
X34.559 Y-33.233
X34.562 Y-33.232
X34.691 Y-33.197
X34.821 Y-33.16
X34.95 Y-33.121
X35.008 Y-33.103
X35.079 Y-33.081
X35.209 Y-33.038
X35.338 Y-32.994
X35.394 Y-32.974
X35.467 Y-32.947
X35.597 Y-32.899
X35.726 Y-32.848
X35.735 Y-32.845
X35.855 Y-32.796
X35.985 Y-32.741
X36.044 Y-32.715
X36.114 Y-32.684
X36.244 Y-32.625
X36.326 Y-32.586
X36.373 Y-32.564
X36.502 Y-32.5
X36.588 Y-32.457
X36.632 Y-32.434
X36.761 Y-32.366
X36.832 Y-32.327
X36.89 Y-32.295
X37.02 Y-32.222
X37.061 Y-32.198
X37.149 Y-32.147
X37.277 Y-32.069
X37.278 Y-32.068
X37.408 Y-31.987
X37.482 Y-31.94
X37.537 Y-31.903
X37.666 Y-31.817
X37.676 Y-31.81
X37.796 Y-31.727
X37.861 Y-31.681
X37.925 Y-31.634
X38.037 Y-31.552
X38.054 Y-31.539
X38.184 Y-31.439
X38.206 Y-31.422
X38.313 Y-31.337
X38.367 Y-31.293
X38.442 Y-31.231
X38.522 Y-31.164
X38.572 Y-31.121
X38.671 Y-31.034
X38.701 Y-31.008
X38.815 Y-30.905
X38.831 Y-30.89
X38.953 Y-30.776
X38.96 Y-30.769
X39.085 Y-30.646
X39.089 Y-30.643
X39.214 Y-30.517
X39.219 Y-30.512
X39.337 Y-30.388
X39.348 Y-30.376
X39.456 Y-30.258
X39.477 Y-30.235
X39.572 Y-30.129
X39.607 Y-30.089
X39.683 Y-30.
X39.736 Y-29.936
X39.79 Y-29.87
X39.865 Y-29.778
X39.894 Y-29.741
X39.995 Y-29.612
X40.092 Y-29.483
X40.124 Y-29.439
X40.186 Y-29.353
X40.253 Y-29.258
X40.277 Y-29.224
X40.365 Y-29.095
X40.383 Y-29.068
X40.45 Y-28.965
X40.512 Y-28.868
X40.532 Y-28.836
X40.612 Y-28.707
X40.641 Y-28.657
X40.689 Y-28.577
X40.763 Y-28.448
X40.771 Y-28.434
X40.835 Y-28.319
X40.9 Y-28.197
X40.904 Y-28.189
X40.971 Y-28.06
X41.03 Y-27.943
X41.036 Y-27.931
X41.098 Y-27.801
X41.158 Y-27.672
X41.159 Y-27.67
X41.216 Y-27.543
X41.271 Y-27.414
X41.288 Y-27.373
X41.325 Y-27.284
X41.376 Y-27.155
X41.418 Y-27.047
X41.426 Y-27.026
X41.473 Y-26.896
X41.518 Y-26.767
X41.547 Y-26.683
X41.562 Y-26.638
X41.603 Y-26.508
X41.643 Y-26.379
X41.676 Y-26.265
X41.681 Y-26.25
X41.716 Y-26.12
X41.75 Y-25.991
X41.782 Y-25.862
X41.806 Y-25.764
X41.813 Y-25.732
X41.841 Y-25.603
X41.868 Y-25.474
X41.893 Y-25.345
X41.916 Y-25.215
X41.935 Y-25.103
X41.938 Y-25.086
X41.958 Y-24.957
X41.976 Y-24.827
X41.992 Y-24.698
X42.007 Y-24.569
X42.02 Y-24.439
X42.031 Y-24.31
X42.04 Y-24.181
X42.048 Y-24.051
X42.055 Y-23.922
X42.059 Y-23.793
X42.062 Y-23.663
X42.063 Y-23.534
Y-23.502
Y-22.629
X42.07 Y-22.618
X42.083
X42.089 Y-22.629
Y-52.384
Z69.263 F500.
X42.085 Z69.254
X42.076 Z69.25
X42.067 Y-52.38
X42.063 Y-52.371
Y-50.819 F1000.
Y-50.69
X42.062 Y-50.561
X42.058 Y-50.431
X42.054 Y-50.302
X42.047 Y-50.173
X42.039 Y-50.043
X42.029 Y-49.914
X42.017 Y-49.785
X42.004 Y-49.655
X41.989 Y-49.526
X41.972 Y-49.397
X41.954 Y-49.268
X41.935 Y-49.147
X41.934 Y-49.138
X41.912 Y-49.009
X41.888 Y-48.88
X41.863 Y-48.75
X41.836 Y-48.621
X41.807 Y-48.492
X41.806 Y-48.486
X41.776 Y-48.362
X41.744 Y-48.233
X41.709 Y-48.104
X41.676 Y-47.985
X41.673 Y-47.974
X41.635 Y-47.845
X41.595 Y-47.716
X41.553 Y-47.586
X41.547 Y-47.567
X41.51 Y-47.457
X41.464 Y-47.328
X41.418 Y-47.203
X41.416 Y-47.199
X41.366 Y-47.069
X41.314 Y-46.94
X41.288 Y-46.877
X41.26 Y-46.811
X41.204 Y-46.681
X41.159 Y-46.58
X41.146 Y-46.552
X41.086 Y-46.423
X41.03 Y-46.307
X41.023 Y-46.293
X40.958 Y-46.164
X40.9 Y-46.053
X40.89 Y-46.035
X40.821 Y-45.905
X40.771 Y-45.816
X40.748 Y-45.776
X40.674 Y-45.647
X40.641 Y-45.593
X40.596 Y-45.517
X40.516 Y-45.388
X40.512 Y-45.382
X40.433 Y-45.259
X40.383 Y-45.182
X40.348 Y-45.13
X40.259 Y-45.
X40.253 Y-44.992
X40.168 Y-44.871
X40.124 Y-44.811
X40.073 Y-44.742
X39.995 Y-44.638
X39.975 Y-44.612
X39.874 Y-44.483
X39.865 Y-44.472
X39.769 Y-44.354
X39.736 Y-44.314
X39.661 Y-44.224
X39.607 Y-44.161
X39.549 Y-44.095
X39.477 Y-44.015
X39.433 Y-43.966
X39.348 Y-43.874
X39.313 Y-43.836
X39.219 Y-43.738
X39.188 Y-43.707
X39.089 Y-43.607
X39.059 Y-43.578
X38.96 Y-43.481
X38.925 Y-43.448
X38.831 Y-43.36
X38.786 Y-43.319
X38.701 Y-43.242
X38.642 Y-43.19
X38.572 Y-43.129
X38.492 Y-43.06
X38.442 Y-43.019
X38.336 Y-42.931
X38.313 Y-42.913
X38.184 Y-42.811
X38.173 Y-42.802
X38.054 Y-42.711
X38.002 Y-42.673
X37.925 Y-42.616
X37.824 Y-42.543
X37.796 Y-42.523
X37.666 Y-42.433
X37.638 Y-42.414
X37.537 Y-42.347
X37.442 Y-42.285
X37.408 Y-42.263
X37.278 Y-42.182
X37.235 Y-42.155
X37.149 Y-42.103
X37.02 Y-42.028
X37.017 Y-42.026
X36.89 Y-41.955
X36.785 Y-41.897
X36.761 Y-41.884
X36.632 Y-41.816
X36.537 Y-41.767
X36.502 Y-41.75
X36.373 Y-41.686
X36.272 Y-41.638
X36.244 Y-41.625
X36.114 Y-41.566
X35.985 Y-41.509
X35.984
X35.855 Y-41.454
X35.726 Y-41.402
X35.67 Y-41.379
X35.597 Y-41.351
X35.467 Y-41.303
X35.338 Y-41.256
X35.321 Y-41.25
X35.209 Y-41.212
X35.079 Y-41.169
X34.95 Y-41.129
X34.924 Y-41.121
X34.821 Y-41.09
X34.691 Y-41.053
X34.562 Y-41.018
X34.459 Y-40.991
X34.433 Y-40.985
X34.303 Y-40.954
X34.174 Y-40.924
X34.045 Y-40.896
X33.915 Y-40.87
X33.872 Y-40.862
X33.786 Y-40.846
X33.656 Y-40.824
X33.527 Y-40.803
X33.398 Y-40.784
X33.268 Y-40.767
X33.139 Y-40.751
X33.01 Y-40.737
X32.965 Y-40.733
X32.88 Y-40.725
X32.751 Y-40.715
X32.622 Y-40.706
X32.492 Y-40.699
X32.363 Y-40.693
X32.234 Y-40.689
X32.104 Y-40.687
X31.975
X0.025
X-0.104
X-0.234 Y-40.689
X-0.363 Y-40.693
X-0.492 Y-40.699
X-0.622 Y-40.706
X-0.751 Y-40.715
X-0.88 Y-40.725
X-0.965 Y-40.733
X-1.01 Y-40.737
X-1.139 Y-40.751
X-1.268 Y-40.767
X-1.398 Y-40.784
X-1.527 Y-40.803
X-1.656 Y-40.824
X-1.786 Y-40.846
X-1.872 Y-40.862
X-1.915 Y-40.87
X-2.045 Y-40.896
X-2.174 Y-40.924
X-2.303 Y-40.954
X-2.433 Y-40.985
X-2.459 Y-40.991
X-2.562 Y-41.018
X-2.691 Y-41.053
X-2.821 Y-41.09
X-2.924 Y-41.121
X-2.95 Y-41.129
X-3.079 Y-41.169
X-3.209 Y-41.212
X-3.321 Y-41.25
X-3.338 Y-41.256
X-3.467 Y-41.303
X-3.597 Y-41.351
X-3.67 Y-41.379
X-3.726 Y-41.402
X-3.855 Y-41.454
X-3.984 Y-41.509
X-3.985
X-4.114 Y-41.566
X-4.244 Y-41.625
X-4.272 Y-41.638
X-4.373 Y-41.686
X-4.502 Y-41.75
X-4.537 Y-41.767
X-4.632 Y-41.816
X-4.761 Y-41.884
X-4.785 Y-41.897
X-4.89 Y-41.955
X-5.017 Y-42.026
X-5.02 Y-42.028
X-5.149 Y-42.103
X-5.235 Y-42.155
X-5.278 Y-42.182
X-5.408 Y-42.263
X-5.442 Y-42.285
X-5.537 Y-42.347
X-5.638 Y-42.414
X-5.666 Y-42.433
X-5.796 Y-42.523
X-5.824 Y-42.543
X-5.925 Y-42.616
X-6.002 Y-42.673
X-6.054 Y-42.711
X-6.173 Y-42.802
X-6.184 Y-42.811
X-6.313 Y-42.913
X-6.336 Y-42.931
X-6.442 Y-43.019
X-6.492 Y-43.06
X-6.572 Y-43.129
X-6.642 Y-43.19
X-6.701 Y-43.242
X-6.786 Y-43.319
X-6.831 Y-43.36
X-6.925 Y-43.448
X-6.96 Y-43.481
X-7.059 Y-43.578
X-7.089 Y-43.607
X-7.188 Y-43.707
X-7.219 Y-43.738
X-7.313 Y-43.836
X-7.348 Y-43.874
X-7.433 Y-43.966
X-7.477 Y-44.015
X-7.549 Y-44.095
X-7.607 Y-44.161
X-7.661 Y-44.224
X-7.736 Y-44.314
X-7.769 Y-44.354
X-7.865 Y-44.472
X-7.874 Y-44.483
X-7.975 Y-44.612
X-7.995 Y-44.638
X-8.073 Y-44.742
X-8.124 Y-44.811
X-8.168 Y-44.871
X-8.253 Y-44.992
X-8.259 Y-45.
X-8.348 Y-45.13
X-8.383 Y-45.182
X-8.433 Y-45.259
X-8.512 Y-45.382
X-8.516 Y-45.388
X-8.596 Y-45.517
X-8.641 Y-45.593
X-8.674 Y-45.647
X-8.748 Y-45.776
X-8.771 Y-45.816
X-8.821 Y-45.905
X-8.89 Y-46.035
X-8.9 Y-46.053
X-8.958 Y-46.164
X-9.023 Y-46.293
X-9.03 Y-46.307
X-9.086 Y-46.423
X-9.146 Y-46.552
X-9.159 Y-46.58
X-9.204 Y-46.681
X-9.26 Y-46.811
X-9.288 Y-46.877
X-9.314 Y-46.94
X-9.366 Y-47.069
X-9.416 Y-47.199
X-9.418 Y-47.203
X-9.464 Y-47.328
X-9.51 Y-47.457
X-9.547 Y-47.567
X-9.553 Y-47.586
X-9.595 Y-47.716
X-9.635 Y-47.845
X-9.673 Y-47.974
X-9.676 Y-47.985
X-9.709 Y-48.104
X-9.744 Y-48.233
X-9.776 Y-48.362
X-9.806 Y-48.486
X-9.807 Y-48.492
X-9.836 Y-48.621
X-9.863 Y-48.75
X-9.888 Y-48.88
X-9.912 Y-49.009
X-9.934 Y-49.138
X-9.935 Y-49.147
X-9.954 Y-49.268
X-9.972 Y-49.397
X-9.989 Y-49.526
X-10.004 Y-49.655
X-10.017 Y-49.785
X-10.029 Y-49.914
X-10.039 Y-50.043
X-10.047 Y-50.173
X-10.054 Y-50.302
X-10.058 Y-50.431
X-10.062 Y-50.561
X-10.063 Y-50.69
X-10.064 Y-50.819
Y-52.371
X-10.07 Y-52.382
X-10.083
X-10.089 Y-52.371
Y-22.629
X-10.085 Y-22.62
X-10.076 Y-22.616
X-10.067 Y-22.62
X-10.064 Y-22.629 F500.
Y-24.181 F1000.
X-10.063 Y-24.31
X-10.062 Y-24.439
X-10.058 Y-24.569
X-10.054 Y-24.698
X-10.047 Y-24.827
X-10.039 Y-24.957
X-10.029 Y-25.086
X-10.017 Y-25.215
X-10.004 Y-25.345
X-9.989 Y-25.474
X-9.972 Y-25.603
X-9.954 Y-25.732
X-9.935 Y-25.853
X-9.934 Y-25.862
X-9.912 Y-25.991
X-9.888 Y-26.12
X-9.863 Y-26.25
X-9.836 Y-26.379
X-9.807 Y-26.508
X-9.806 Y-26.514
X-9.776 Y-26.638
X-9.744 Y-26.767
X-9.709 Y-26.896
X-9.676 Y-27.015
X-9.673 Y-27.026
X-9.635 Y-27.155
X-9.595 Y-27.284
X-9.553 Y-27.414
X-9.547 Y-27.433
X-9.51 Y-27.543
X-9.464 Y-27.672
X-9.418 Y-27.797
X-9.416 Y-27.801
X-9.366 Y-27.931
X-9.314 Y-28.06
X-9.288 Y-28.123
X-9.26 Y-28.189
X-9.204 Y-28.319
X-9.159 Y-28.42
X-9.146 Y-28.448
X-9.086 Y-28.577
X-9.03 Y-28.693
X-9.023 Y-28.707
X-8.958 Y-28.836
X-8.9 Y-28.947
X-8.89 Y-28.965
X-8.821 Y-29.095
X-8.771 Y-29.184
X-8.748 Y-29.224
X-8.674 Y-29.353
X-8.641 Y-29.407
X-8.596 Y-29.483
X-8.516 Y-29.612
X-8.512 Y-29.618
X-8.433 Y-29.741
X-8.383 Y-29.818
X-8.348 Y-29.87
X-8.259 Y-30.
X-8.253 Y-30.008
X-8.168 Y-30.129
X-8.124 Y-30.189
X-8.073 Y-30.258
X-7.995 Y-30.362
X-7.975 Y-30.388
X-7.874 Y-30.517
X-7.865 Y-30.528
X-7.769 Y-30.646
X-7.736 Y-30.686
X-7.661 Y-30.776
X-7.607 Y-30.839
X-7.549 Y-30.905
X-7.477 Y-30.985
X-7.433 Y-31.034
X-7.348 Y-31.126
X-7.313 Y-31.164
X-7.219 Y-31.262
X-7.188 Y-31.293
X-7.089 Y-31.393
X-7.059 Y-31.422
X-6.96 Y-31.519
X-6.925 Y-31.552
X-6.831 Y-31.64
X-6.786 Y-31.681
X-6.701 Y-31.758
X-6.642 Y-31.81
X-6.572 Y-31.871
X-6.492 Y-31.94
X-6.442 Y-31.981
X-6.336 Y-32.069
X-6.313 Y-32.087
X-6.184 Y-32.189
X-6.173 Y-32.198
X-6.054 Y-32.289
X-6.002 Y-32.327
X-5.925 Y-32.384
X-5.824 Y-32.457
X-5.796 Y-32.477
X-5.666 Y-32.567
X-5.638 Y-32.586
X-5.537 Y-32.653
X-5.442 Y-32.715
X-5.408 Y-32.737
X-5.278 Y-32.818
X-5.235 Y-32.845
X-5.149 Y-32.897
X-5.02 Y-32.972
X-5.017 Y-32.974
X-4.89 Y-33.045
X-4.785 Y-33.103
X-4.761 Y-33.116
X-4.632 Y-33.184
X-4.537 Y-33.233
X-4.502 Y-33.25
X-4.373 Y-33.314
X-4.272 Y-33.362
X-4.244 Y-33.375
X-4.114 Y-33.434
X-3.985 Y-33.491
X-3.984
X-3.855 Y-33.546
X-3.726 Y-33.598
X-3.67 Y-33.621
X-3.597 Y-33.649
X-3.467 Y-33.697
X-3.338 Y-33.744
X-3.321 Y-33.75
X-3.209 Y-33.788
X-3.079 Y-33.831
X-2.95 Y-33.871
X-2.924 Y-33.879
X-2.821 Y-33.91
X-2.691 Y-33.947
X-2.562 Y-33.982
X-2.459 Y-34.009
X-2.433 Y-34.015
X-2.303 Y-34.046
X-2.174 Y-34.076
X-2.045 Y-34.104
X-1.915 Y-34.13
X-1.872 Y-34.138
X-1.786 Y-34.154
X-1.656 Y-34.176
X-1.527 Y-34.197
X-1.398 Y-34.216
X-1.268 Y-34.233
X-1.139 Y-34.249
X-1.01 Y-34.263
X-0.965 Y-34.267
X-0.88 Y-34.275
X-0.751 Y-34.285
X-0.622 Y-34.294
X-0.492 Y-34.301
X-0.363 Y-34.307
X-0.234 Y-34.311
X-0.104 Y-34.313
X0.025
X31.975
X32.104
X32.234 Y-34.311
X32.363 Y-34.307
X32.492 Y-34.301
X32.622 Y-34.294
X32.751 Y-34.285
X32.88 Y-34.275
X32.965 Y-34.267
X33.01 Y-34.263
X33.139 Y-34.249
X33.268 Y-34.233
X33.398 Y-34.216
X33.527 Y-34.197
X33.656 Y-34.176
X33.786 Y-34.154
X33.872 Y-34.138
X33.915 Y-34.13
X34.045 Y-34.104
X34.174 Y-34.076
X34.303 Y-34.046
X34.433 Y-34.015
X34.459 Y-34.009
X34.562 Y-33.982
X34.691 Y-33.947
X34.821 Y-33.91
X34.924 Y-33.879
X34.95 Y-33.871
X35.079 Y-33.831
X35.209 Y-33.788
X35.321 Y-33.75
X35.338 Y-33.744
X35.467 Y-33.697
X35.597 Y-33.649
X35.67 Y-33.621
X35.726 Y-33.598
X35.855 Y-33.546
X35.984 Y-33.491
X35.985
X36.114 Y-33.434
X36.244 Y-33.375
X36.272 Y-33.362
X36.373 Y-33.314
X36.502 Y-33.25
X36.537 Y-33.233
X36.632 Y-33.184
X36.761 Y-33.116
X36.785 Y-33.103
X36.89 Y-33.045
X37.017 Y-32.974
X37.02 Y-32.972
X37.149 Y-32.897
X37.235 Y-32.845
X37.278 Y-32.818
X37.408 Y-32.737
X37.442 Y-32.715
X37.537 Y-32.653
X37.638 Y-32.586
X37.666 Y-32.567
X37.796 Y-32.477
X37.824 Y-32.457
X37.925 Y-32.384
X38.002 Y-32.327
X38.054 Y-32.289
X38.173 Y-32.198
X38.184 Y-32.189
X38.313 Y-32.087
X38.336 Y-32.069
X38.442 Y-31.981
X38.492 Y-31.94
X38.572 Y-31.871
X38.642 Y-31.81
X38.701 Y-31.758
X38.786 Y-31.681
X38.831 Y-31.64
X38.925 Y-31.552
X38.96 Y-31.519
X39.059 Y-31.422
X39.089 Y-31.393
X39.188 Y-31.293
X39.219 Y-31.262
X39.313 Y-31.164
X39.348 Y-31.126
X39.433 Y-31.034
X39.477 Y-30.985
X39.549 Y-30.905
X39.607 Y-30.839
X39.661 Y-30.776
X39.736 Y-30.686
X39.769 Y-30.646
X39.865 Y-30.528
X39.874 Y-30.517
X39.975 Y-30.388
X39.995 Y-30.362
X40.073 Y-30.258
X40.124 Y-30.189
X40.168 Y-30.129
X40.253 Y-30.008
X40.259 Y-30.
X40.348 Y-29.87
X40.383 Y-29.818
X40.433 Y-29.741
X40.512 Y-29.618
X40.516 Y-29.612
X40.596 Y-29.483
X40.641 Y-29.407
X40.674 Y-29.353
X40.748 Y-29.224
X40.771 Y-29.184
X40.821 Y-29.095
X40.89 Y-28.965
X40.9 Y-28.947
X40.958 Y-28.836
X41.023 Y-28.707
X41.03 Y-28.693
X41.086 Y-28.577
X41.146 Y-28.448
X41.159 Y-28.42
X41.204 Y-28.319
X41.26 Y-28.189
X41.288 Y-28.123
X41.314 Y-28.06
X41.366 Y-27.931
X41.416 Y-27.801
X41.418 Y-27.797
X41.464 Y-27.672
X41.51 Y-27.543
X41.547 Y-27.433
X41.553 Y-27.414
X41.595 Y-27.284
X41.635 Y-27.155
X41.673 Y-27.026
X41.676 Y-27.015
X41.709 Y-26.896
X41.744 Y-26.767
X41.776 Y-26.638
X41.806 Y-26.514
X41.807 Y-26.508
X41.836 Y-26.379
X41.863 Y-26.25
X41.888 Y-26.12
X41.912 Y-25.991
X41.934 Y-25.862
X41.935 Y-25.853
X41.954 Y-25.732
X41.972 Y-25.603
X41.989 Y-25.474
X42.004 Y-25.345
X42.017 Y-25.215
X42.029 Y-25.086
X42.039 Y-24.957
X42.047 Y-24.827
X42.054 Y-24.698
X42.058 Y-24.569
X42.062 Y-24.439
X42.063 Y-24.31
Y-24.181
Y-22.629
X42.067 Y-22.62
X42.076 Y-22.616
X44.301 Y-22.629
X44.31 Z69.254
X44.314 Z69.263
G00 Z85.25
X31.975 Y-37.697
Z70.76
G01 Z68.513 F500.
Y-37.701 Z68.504
Y-37.71 Z68.5
X31.988 Y-39.924
X31.984 Y-39.933
X31.975 Y-39.937
X0.025 F1000.
X0.016 Y-39.933
X0.012 Y-39.924
Y-35.076
X0.016 Y-35.067
X0.025 Y-35.063 F500.
X31.975 F1000.
X31.984 Y-35.067
X31.988 Y-35.076
X31.975 Y-37.29
Y-37.299 Z68.504
Y-37.303 Z68.513
G00 Z95.25

M09
G28 G91 Z0.
G90
G49
G28 G91 X0. Y0.
G90
M30
%
