%
O6657
(MACHINE)
(  VENDOR AUTODESK)
(  MODEL GENERIC 3-AXIS)
(  DESCRIPTION THIS MACHINE HAS XY AXIS ON THE TABLE AND Z AXIS ON THE HEAD)
(T14 D=6.35 CR=0. - ZMIN=41. - FLAT END MILL)
G90 G94 G17 G49 G40 G80
G21
G28 G91 Z0.
G90

(RANURA 6.6MM)
T14 M06
S10000 M03
G57
M08
G00 X35.62 Y-74.635
G43 Z90. H44
G00 Z80.
G01 Z72.635 F333.
G18 G02 X36.255 Z72. I0.635 F2526.
G17
G01 G41 X36.89 Y-74.735 D44
G03 X37.625 Y-74. J0.735
G01 Y-42. F1000.
G03 X37.375 I-0.125
G01 Y-69.
Y-74.
G03 X38.11 Y-74.735 I0.735 F2526.
G01 G40 X38.745 Y-74.635
G18 G02 X39.38 Z72.635 K0.635
G00 Z80.
X35.62
G01 Z77. F333.
Z69.635
G02 X36.255 Z69. I0.635 F2526.
G17
G01 G41 X36.89 Y-74.735 D44
G03 X37.625 Y-74. J0.735
G01 Y-42. F1000.
G03 X37.375 I-0.125
G01 Y-69.
Y-74.
G03 X38.11 Y-74.735 I0.735 F2526.
G01 G40 X38.745 Y-74.635
G18 G02 X39.38 Z69.635 K0.635
G00 Z80.
X35.62
G01 Z74. F333.
Z66.635
G02 X36.255 Z66. I0.635 F2526.
G17
G01 G41 X36.89 Y-74.735 D44
G03 X37.625 Y-74. J0.735
G01 Y-42. F1000.
G03 X37.375 I-0.125
G01 Y-69.
Y-74.
G03 X38.11 Y-74.735 I0.735 F2526.
G01 G40 X38.745 Y-74.635
G18 G02 X39.38 Z66.635 K0.635
G00 Z80.
X35.62
G01 Z71. F333.
Z63.635
G02 X36.255 Z63. I0.635 F2526.
G17
G01 G41 X36.89 Y-74.735 D44
G03 X37.625 Y-74. J0.735
G01 Y-42. F1000.
G03 X37.375 I-0.125
G01 Y-69.
Y-74.
G03 X38.11 Y-74.735 I0.735 F2526.
G01 G40 X38.745 Y-74.635
G18 G02 X39.38 Z63.635 K0.635
G00 Z80.
X35.62
G01 Z68. F333.
Z60.635
G02 X36.255 Z60. I0.635 F2526.
G17
G01 G41 X36.89 Y-74.735 D44
G03 X37.625 Y-74. J0.735
G01 Y-42. F1000.
G03 X37.375 I-0.125
G01 Y-69.
Y-74.
G03 X38.11 Y-74.735 I0.735 F2526.
G01 G40 X38.745 Y-74.635
G18 G02 X39.38 Z60.635 K0.635
G00 Z80.
X35.62
G01 Z65. F333.
Z57.635
G02 X36.255 Z57. I0.635 F2526.
G17
G01 G41 X36.89 Y-74.735 D44
G03 X37.625 Y-74. J0.735
G01 Y-42. F1000.
G03 X37.375 I-0.125
G01 Y-69.
Y-74.
G03 X38.11 Y-74.735 I0.735 F2526.
G01 G40 X38.745 Y-74.635
G18 G02 X39.38 Z57.635 K0.635
G00 Z80.
X35.62
G01 Z62. F333.
Z54.635
G02 X36.255 Z54. I0.635 F2526.
G17
G01 G41 X36.89 Y-74.735 D44
G03 X37.625 Y-74. J0.735
G01 Y-42. F1000.
G03 X37.375 I-0.125
G01 Y-69.
Y-74.
G03 X38.11 Y-74.735 I0.735 F2526.
G01 G40 X38.745 Y-74.635
G18 G02 X39.38 Z54.635 K0.635
G00 Z80.
X35.62
G01 Z59. F333.
Z51.635
G02 X36.255 Z51. I0.635 F2526.
G17
G01 G41 X36.89 Y-74.735 D44
G03 X37.625 Y-74. J0.735
G01 Y-42. F1000.
G03 X37.375 I-0.125
G01 Y-69.
Y-74.
G03 X38.11 Y-74.735 I0.735 F2526.
G01 G40 X38.745 Y-74.635
G18 G02 X39.38 Z51.635 K0.635
G00 Z80.
X35.62
G01 Z56. F333.
Z48.635
G02 X36.255 Z48. I0.635 F2526.
G17
G01 G41 X36.89 Y-74.735 D44
G03 X37.625 Y-74. J0.735
G01 Y-42. F1000.
G03 X37.375 I-0.125
G01 Y-69.
Y-74.
G03 X38.11 Y-74.735 I0.735 F2526.
G01 G40 X38.745 Y-74.635
G18 G02 X39.38 Z48.635 K0.635
G00 Z80.
X35.62
G01 Z53. F333.
Z45.635
G02 X36.255 Z45. I0.635 F2526.
G17
G01 G41 X36.89 Y-74.735 D44
G03 X37.625 Y-74. J0.735
G01 Y-42. F1000.
G03 X37.375 I-0.125
G01 Y-69.
Y-74.
G03 X38.11 Y-74.735 I0.735 F2526.
G01 G40 X38.745 Y-74.635
G18 G02 X39.38 Z45.635 K0.635
G00 Z80.
X35.62
G01 Z50. F333.
Z42.635
G02 X36.255 Z42. I0.635 F2526.
G17
G01 G41 X36.89 Y-74.735 D44
G03 X37.625 Y-74. J0.735
G01 Y-42. F1000.
G03 X37.375 I-0.125
G01 Y-69.
Y-74.
G03 X38.11 Y-74.735 I0.735 F2526.
G01 G40 X38.745 Y-74.635
G18 G02 X39.38 Z42.635 K0.635
G00 Z80.
X35.62
G01 Z47. F333.
Z41.635
G02 X36.255 Z41. I0.635 F2526.
G17
G01 G41 X36.89 Y-74.735 D44
G03 X37.625 Y-74. J0.735
G01 Y-42. F1000.
G03 X37.375 I-0.125
G01 Y-69.
Y-74.
G03 X38.11 Y-74.735 I0.735 F2526.
G01 G40 X38.745 Y-74.635
G18 G02 X39.38 Z41.635 K0.635
G00 Z90.
G17

(V)
G00 X51.716 Y-87.651
Z90.
Z80.
G01 Z70.635 F333.
X51.722 Y-87.646 Z70.536 F2526.
X51.738 Y-87.629 Z70.439
X51.766 Y-87.603 Z70.347
X51.803 Y-87.567 Z70.262
X51.849 Y-87.521 Z70.186
X51.904 Y-87.469 Z70.121
X51.965 Y-87.409 Z70.069
X52.031 Y-87.345 Z70.031
X52.1 Y-87.278 Z70.008
X52.171 Y-87.208 Z70.
G41 X52.696 Y-86.837 D44
G03 X52.71 Y-85.798 I-0.512 J0.527
G01 X37.572 Y-70.235 F1000.
X37.539 Y-70.212
X37.5 Y-70.204
X37.461 Y-70.212
X37.428 Y-70.235
X25.776 Y-82.214
X22.29 Y-85.798
G03 X22.304 Y-86.837 I0.527 J-0.512 F2526.
G01 G40 X22.829 Y-87.208
X22.9 Y-87.278 Z70.008
X22.969 Y-87.345 Z70.031
X23.035 Y-87.409 Z70.069
X23.096 Y-87.469 Z70.121
X23.151 Y-87.521 Z70.186
X23.197 Y-87.567 Z70.262
X23.234 Y-87.603 Z70.347
X23.262 Y-87.629 Z70.439
X23.278 Y-87.646 Z70.536
X23.284 Y-87.651 Z70.635
G00 Z80.
X51.716
G01 Z75. F333.
Z65.635
X51.722 Y-87.646 Z65.536 F2526.
X51.738 Y-87.629 Z65.439
X51.766 Y-87.603 Z65.347
X51.803 Y-87.567 Z65.262
X51.849 Y-87.521 Z65.186
X51.904 Y-87.469 Z65.121
X51.965 Y-87.409 Z65.069
X52.031 Y-87.345 Z65.031
X52.1 Y-87.278 Z65.008
X52.171 Y-87.208 Z65.
G41 X52.696 Y-86.837 D44
G03 X52.71 Y-85.798 I-0.512 J0.527
G01 X37.572 Y-70.235 F1000.
X37.539 Y-70.212
X37.5 Y-70.204
X37.461 Y-70.212
X37.428 Y-70.235
X25.776 Y-82.214
X22.29 Y-85.798
G03 X22.304 Y-86.837 I0.527 J-0.512 F2526.
G01 G40 X22.829 Y-87.208
X22.9 Y-87.278 Z65.008
X22.969 Y-87.345 Z65.031
X23.035 Y-87.409 Z65.069
X23.096 Y-87.469 Z65.121
X23.151 Y-87.521 Z65.186
X23.197 Y-87.567 Z65.262
X23.234 Y-87.603 Z65.347
X23.262 Y-87.629 Z65.439
X23.278 Y-87.646 Z65.536
X23.284 Y-87.651 Z65.635
G00 Z80.
X51.716
G01 Z70. F333.
Z60.635
X51.722 Y-87.646 Z60.536 F2526.
X51.738 Y-87.629 Z60.439
X51.766 Y-87.603 Z60.347
X51.803 Y-87.567 Z60.262
X51.849 Y-87.521 Z60.186
X51.904 Y-87.469 Z60.121
X51.965 Y-87.409 Z60.069
X52.031 Y-87.345 Z60.031
X52.1 Y-87.278 Z60.008
X52.171 Y-87.208 Z60.
G41 X52.696 Y-86.837 D44
G03 X52.71 Y-85.798 I-0.512 J0.527
G01 X37.572 Y-70.235 F1000.
X37.539 Y-70.212
X37.5 Y-70.204
X37.461 Y-70.212
X37.428 Y-70.235
X25.776 Y-82.214
X22.29 Y-85.798
G03 X22.304 Y-86.837 I0.527 J-0.512 F2526.
G01 G40 X22.829 Y-87.208
X22.9 Y-87.278 Z60.008
X22.969 Y-87.345 Z60.031
X23.035 Y-87.409 Z60.069
X23.096 Y-87.469 Z60.121
X23.151 Y-87.521 Z60.186
X23.197 Y-87.567 Z60.262
X23.234 Y-87.603 Z60.347
X23.262 Y-87.629 Z60.439
X23.278 Y-87.646 Z60.536
X23.284 Y-87.651 Z60.635
G00 Z80.
X51.716
G01 Z65. F333.
Z55.635
X51.722 Y-87.646 Z55.536 F2526.
X51.738 Y-87.629 Z55.439
X51.766 Y-87.603 Z55.347
X51.803 Y-87.567 Z55.262
X51.849 Y-87.521 Z55.186
X51.904 Y-87.469 Z55.121
X51.965 Y-87.409 Z55.069
X52.031 Y-87.345 Z55.031
X52.1 Y-87.278 Z55.008
X52.171 Y-87.208 Z55.
G41 X52.696 Y-86.837 D44
G03 X52.71 Y-85.798 I-0.512 J0.527
G01 X37.572 Y-70.235 F1000.
X37.539 Y-70.212
X37.5 Y-70.204
X37.461 Y-70.212
X37.428 Y-70.235
X25.776 Y-82.214
X22.29 Y-85.798
G03 X22.304 Y-86.837 I0.527 J-0.512 F2526.
G01 G40 X22.829 Y-87.208
X22.9 Y-87.278 Z55.008
X22.969 Y-87.345 Z55.031
X23.035 Y-87.409 Z55.069
X23.096 Y-87.469 Z55.121
X23.151 Y-87.521 Z55.186
X23.197 Y-87.567 Z55.262
X23.234 Y-87.603 Z55.347
X23.262 Y-87.629 Z55.439
X23.278 Y-87.646 Z55.536
X23.284 Y-87.651 Z55.635
G00 Z80.
X51.716
G01 Z60. F333.
Z50.635
X51.722 Y-87.646 Z50.536 F2526.
X51.738 Y-87.629 Z50.439
X51.766 Y-87.603 Z50.347
X51.803 Y-87.567 Z50.262
X51.849 Y-87.521 Z50.186
X51.904 Y-87.469 Z50.121
X51.965 Y-87.409 Z50.069
X52.031 Y-87.345 Z50.031
X52.1 Y-87.278 Z50.008
X52.171 Y-87.208 Z50.
G41 X52.696 Y-86.837 D44
G03 X52.71 Y-85.798 I-0.512 J0.527
G01 X37.572 Y-70.235 F1000.
X37.539 Y-70.212
X37.5 Y-70.204
X37.461 Y-70.212
X37.428 Y-70.235
X25.776 Y-82.214
X22.29 Y-85.798
G03 X22.304 Y-86.837 I0.527 J-0.512 F2526.
G01 G40 X22.829 Y-87.208
X22.9 Y-87.278 Z50.008
X22.969 Y-87.345 Z50.031
X23.035 Y-87.409 Z50.069
X23.096 Y-87.469 Z50.121
X23.151 Y-87.521 Z50.186
X23.197 Y-87.567 Z50.262
X23.234 Y-87.603 Z50.347
X23.262 Y-87.629 Z50.439
X23.278 Y-87.646 Z50.536
X23.284 Y-87.651 Z50.635
G00 Z80.
X51.716
G01 Z55. F333.
Z45.635
X51.722 Y-87.646 Z45.536 F2526.
X51.738 Y-87.629 Z45.439
X51.766 Y-87.603 Z45.347
X51.803 Y-87.567 Z45.262
X51.849 Y-87.521 Z45.186
X51.904 Y-87.469 Z45.121
X51.965 Y-87.409 Z45.069
X52.031 Y-87.345 Z45.031
X52.1 Y-87.278 Z45.008
X52.171 Y-87.208 Z45.
G41 X52.696 Y-86.837 D44
G03 X52.71 Y-85.798 I-0.512 J0.527
G01 X37.572 Y-70.235 F1000.
X37.539 Y-70.212
X37.5 Y-70.204
X37.461 Y-70.212
X37.428 Y-70.235
X25.776 Y-82.214
X22.29 Y-85.798
G03 X22.304 Y-86.837 I0.527 J-0.512 F2526.
G01 G40 X22.829 Y-87.208
X22.9 Y-87.278 Z45.008
X22.969 Y-87.345 Z45.031
X23.035 Y-87.409 Z45.069
X23.096 Y-87.469 Z45.121
X23.151 Y-87.521 Z45.186
X23.197 Y-87.567 Z45.262
X23.234 Y-87.603 Z45.347
X23.262 Y-87.629 Z45.439
X23.278 Y-87.646 Z45.536
X23.284 Y-87.651 Z45.635
G00 Z80.
X51.716
G01 Z50. F333.
Z41.635
X51.722 Y-87.646 Z41.536 F2526.
X51.738 Y-87.629 Z41.439
X51.766 Y-87.603 Z41.347
X51.803 Y-87.567 Z41.262
X51.849 Y-87.521 Z41.186
X51.904 Y-87.469 Z41.121
X51.965 Y-87.409 Z41.069
X52.031 Y-87.345 Z41.031
X52.1 Y-87.278 Z41.008
X52.171 Y-87.208 Z41.
G41 X52.696 Y-86.837 D44
G03 X52.71 Y-85.798 I-0.512 J0.527
G01 X37.572 Y-70.235 F1000.
X37.539 Y-70.212
X37.5 Y-70.204
X37.461 Y-70.212
X37.428 Y-70.235
X25.776 Y-82.214
X22.29 Y-85.798
G03 X22.304 Y-86.837 I0.527 J-0.512 F2526.
G01 G40 X22.829 Y-87.208
X22.9 Y-87.278 Z41.008
X22.969 Y-87.345 Z41.031
X23.035 Y-87.409 Z41.069
X23.096 Y-87.469 Z41.121
X23.151 Y-87.521 Z41.186
X23.197 Y-87.567 Z41.262
X23.234 Y-87.603 Z41.347
X23.262 Y-87.629 Z41.439
X23.278 Y-87.646 Z41.536
X23.284 Y-87.651 Z41.635
G00 Z90.

M09
G28 G91 Z0.
G90
G49
G28 G91 X0. Y0.
G90
M30
%
